; GCODE Generated by cam.openbuilds.com on 2021-11-20 
G21 ; mm-mode
G54; Work Coordinates
G21; mm-mode
G90; Absolute Positioning
M4; Dynamic Power Laser On

; Pass 0
; Operation 0: Laser: Vector (no path offset)
; Laser Spot Diameter: 0.1

G0 Z0; move to z-safe height
G0 F1000 X287.0150 Y104.6193

G0 Z0
G1 F300 Z-0.1000
G1 F1500 X287.0150 Y104.6193 Z-0.1000 S500
G1 F1500 X287.9024 Y104.5119 Z-0.1000 S500
G1 F1500 X288.7242 Y104.1621 Z-0.1000 S500
G1 F1500 X288.7242 Y104.1621 Z-0.1000 S500
G1 F1500 X289.3837 Y103.0444 Z-0.1000 S500
G1 F1500 X289.3837 Y103.0444 Z-0.1000 S500
G1 F1500 X288.7282 Y101.9303 Z-0.1000 S500
G1 F1500 X288.7282 Y101.9303 Z-0.1000 S500
G1 F1500 X287.9011 Y101.5991 Z-0.1000 S500
G1 F1500 X287.0150 Y101.4984 Z-0.1000 S500
G1 F1500 X287.0150 Y101.4984 Z-0.1000 S500
G1 F1500 X286.1133 Y101.5967 Z-0.1000 S500
G1 F1500 X285.2696 Y101.9266 Z-0.1000 S500
G1 F1500 X285.2696 Y101.9266 Z-0.1000 S500
G1 F1500 X284.6462 Y103.0444 Z-0.1000 S500
G1 F1500 X284.6462 Y103.0444 Z-0.1000 S500
G1 F1500 X285.2696 Y104.1657 Z-0.1000 S500
G1 F1500 X285.2696 Y104.1657 Z-0.1000 S500
G1 F1500 X286.1098 Y104.5149 Z-0.1000 S500
G1 F1500 X287.0150 Y104.6193 Z-0.1000 S500
G1 F1500 X287.0150 Y104.6193 Z-0.1000 S500
G1 F1500 X287.0150 Y104.6193 Z-0.1000 S500

G0 Z0; move to z-safe height
G0 X295.1588 Y104.6193

G0 Z0
G1 F300 Z-0.1000
G1 F1500 X295.1588 Y104.6193 Z-0.1000 S500
G1 F1500 X296.0433 Y104.5189 Z-0.1000 S500
G1 F1500 X296.8599 Y104.1694 Z-0.1000 S500
G1 F1500 X296.8649 Y104.1644 Z-0.1000 S500
G1 F1500 X296.8699 Y104.1594 Z-0.1000 S500
G1 F1500 X296.8699 Y104.1594 Z-0.1000 S500
G1 F1500 X297.5335 Y103.0416 Z-0.1000 S500
G1 F1500 X297.5335 Y103.0416 Z-0.1000 S500
G1 F1500 X296.8740 Y101.9239 Z-0.1000 S500
G1 F1500 X296.8690 Y101.9239 Z-0.1000 S500
G1 F1500 X296.8690 Y101.9239 Z-0.1000 S500
G1 F1500 X296.0449 Y101.5915 Z-0.1000 S500
G1 F1500 X295.1598 Y101.4957 Z-0.1000 S500
G1 F1500 X295.1598 Y101.4957 Z-0.1000 S500
G1 F1500 X294.2581 Y101.5940 Z-0.1000 S500
G1 F1500 X293.4144 Y101.9239 Z-0.1000 S500
G1 F1500 X293.4144 Y101.9239 Z-0.1000 S500
G1 F1500 X292.7910 Y103.0416 Z-0.1000 S500
G1 F1500 X292.7910 Y103.0416 Z-0.1000 S500
G1 F1500 X293.4144 Y104.1594 Z-0.1000 S500
G1 F1500 X293.4144 Y104.1594 Z-0.1000 S500
G1 F1500 X294.2542 Y104.5110 Z-0.1000 S500
G1 F1500 X295.1598 Y104.6166 Z-0.1000 S500
G1 F1500 X295.1588 Y104.6193 Z-0.1000 S500
G1 F1500 X295.1588 Y104.6193 Z-0.1000 S500

G0 Z0; move to z-safe height
G0 X286.2445 Y233.4181

G0 Z0
G1 F300 Z-0.1000
G1 F1500 X286.2445 Y233.4181 Z-0.1000 S500
G1 F1500 X285.2610 Y233.5413 Z-0.1000 S500
G1 F1500 X284.4121 Y233.9119 Z-0.1000 S500
G1 F1500 X284.4121 Y233.9119 Z-0.1000 S500
G1 F1500 X283.8119 Y234.5221 Z-0.1000 S500
G1 F1500 X283.6324 Y235.2562 Z-0.1000 S500
G1 F1500 X283.6324 Y235.2562 Z-0.1000 S500
G1 F1500 X283.8119 Y235.9902 Z-0.1000 S500
G1 F1500 X284.4121 Y236.6005 Z-0.1000 S500
G1 F1500 X284.4121 Y236.6005 Z-0.1000 S500
G1 F1500 X285.2546 Y236.9899 Z-0.1000 S500
G1 F1500 X286.2445 Y237.1217 Z-0.1000 S500
G1 F1500 X286.2445 Y237.1217 Z-0.1000 S500
G1 F1500 X287.2344 Y236.9899 Z-0.1000 S500
G1 F1500 X288.0769 Y236.6005 Z-0.1000 S500
G1 F1500 X288.0769 Y236.6005 Z-0.1000 S500
G1 F1500 X288.7041 Y235.9954 Z-0.1000 S500
G1 F1500 X288.8956 Y235.2562 Z-0.1000 S500
G1 F1500 X288.8956 Y235.2562 Z-0.1000 S500
G1 F1500 X288.7041 Y234.5170 Z-0.1000 S500
G1 F1500 X288.0769 Y233.9119 Z-0.1000 S500
G1 F1500 X288.0769 Y233.9119 Z-0.1000 S500
G1 F1500 X287.2281 Y233.5413 Z-0.1000 S500
G1 F1500 X286.2445 Y233.4181 Z-0.1000 S500
G1 F1500 X286.2445 Y233.4181 Z-0.1000 S500

G0 Z0; move to z-safe height
G0 X294.3148 Y233.4181

G0 Z0
G1 F300 Z-0.1000
G1 F1500 X294.3148 Y233.4181 Z-0.1000 S500
G1 F1500 X293.3144 Y233.5432 Z-0.1000 S500
G1 F1500 X292.4434 Y233.9119 Z-0.1000 S500
G1 F1500 X292.4434 Y233.9119 Z-0.1000 S500
G1 F1500 X291.8432 Y234.5221 Z-0.1000 S500
G1 F1500 X291.6637 Y235.2562 Z-0.1000 S500
G1 F1500 X291.6637 Y235.2562 Z-0.1000 S500
G1 F1500 X291.8432 Y235.9902 Z-0.1000 S500
G1 F1500 X292.4434 Y236.6005 Z-0.1000 S500
G1 F1500 X292.4434 Y236.6005 Z-0.1000 S500
G1 F1500 X293.3083 Y236.9880 Z-0.1000 S500
G1 F1500 X294.3148 Y237.1217 Z-0.1000 S500
G1 F1500 X294.3148 Y237.1217 Z-0.1000 S500
G1 F1500 X295.3047 Y236.9899 Z-0.1000 S500
G1 F1500 X296.1472 Y236.6005 Z-0.1000 S500
G1 F1500 X296.1472 Y236.6005 Z-0.1000 S500
G1 F1500 X296.7474 Y235.9902 Z-0.1000 S500
G1 F1500 X296.9269 Y235.2562 Z-0.1000 S500
G1 F1500 X296.9269 Y235.2562 Z-0.1000 S500
G1 F1500 X296.7474 Y234.5221 Z-0.1000 S500
G1 F1500 X296.1472 Y233.9119 Z-0.1000 S500
G1 F1500 X296.1472 Y233.9119 Z-0.1000 S500
G1 F1500 X295.2983 Y233.5413 Z-0.1000 S500
G1 F1500 X294.3148 Y233.4181 Z-0.1000 S500
G1 F1500 X294.3148 Y233.4181 Z-0.1000 S500

G0 Z0; move to z-safe height
G0 X286.8346 Y366.6644

G0 Z0
G1 F300 Z-0.1000
G1 F1500 X286.8346 Y366.6644 Z-0.1000 S500
G1 F1500 X285.8325 Y366.7900 Z-0.1000 S500
G1 F1500 X284.9676 Y367.1676 Z-0.1000 S500
G1 F1500 X284.9676 Y367.1676 Z-0.1000 S500
G1 F1500 X284.3560 Y367.7893 Z-0.1000 S500
G1 F1500 X284.1731 Y368.5373 Z-0.1000 S500
G1 F1500 X284.1731 Y368.5373 Z-0.1000 S500
G1 F1500 X284.3560 Y369.2852 Z-0.1000 S500
G1 F1500 X284.9676 Y369.9070 Z-0.1000 S500
G1 F1500 X284.9676 Y369.9070 Z-0.1000 S500
G1 F1500 X285.8260 Y370.3037 Z-0.1000 S500
G1 F1500 X286.8346 Y370.4381 Z-0.1000 S500
G1 F1500 X286.8346 Y370.4381 Z-0.1000 S500
G1 F1500 X287.8433 Y370.3037 Z-0.1000 S500
G1 F1500 X288.7017 Y369.9070 Z-0.1000 S500
G1 F1500 X288.7017 Y369.9070 Z-0.1000 S500
G1 F1500 X289.3408 Y369.2904 Z-0.1000 S500
G1 F1500 X289.5359 Y368.5373 Z-0.1000 S500
G1 F1500 X289.5359 Y368.5373 Z-0.1000 S500
G1 F1500 X289.3408 Y367.7841 Z-0.1000 S500
G1 F1500 X288.7017 Y367.1676 Z-0.1000 S500
G1 F1500 X288.7017 Y367.1676 Z-0.1000 S500
G1 F1500 X287.8368 Y366.7900 Z-0.1000 S500
G1 F1500 X286.8346 Y366.6644 Z-0.1000 S500
G1 F1500 X286.8346 Y366.6644 Z-0.1000 S500

G0 Z0; move to z-safe height
G0 X295.0576 Y366.6644

G0 Z0
G1 F300 Z-0.1000
G1 F1500 X295.0576 Y366.6644 Z-0.1000 S500
G1 F1500 X294.0383 Y366.7919 Z-0.1000 S500
G1 F1500 X293.1508 Y367.1676 Z-0.1000 S500
G1 F1500 X293.1508 Y367.1676 Z-0.1000 S500
G1 F1500 X292.5392 Y367.7893 Z-0.1000 S500
G1 F1500 X292.3563 Y368.5373 Z-0.1000 S500
G1 F1500 X292.3563 Y368.5373 Z-0.1000 S500
G1 F1500 X292.5392 Y369.2852 Z-0.1000 S500
G1 F1500 X293.1508 Y369.9070 Z-0.1000 S500
G1 F1500 X293.1508 Y369.9070 Z-0.1000 S500
G1 F1500 X294.0320 Y370.3018 Z-0.1000 S500
G1 F1500 X295.0576 Y370.4381 Z-0.1000 S500
G1 F1500 X295.0576 Y370.4381 Z-0.1000 S500
G1 F1500 X296.0662 Y370.3037 Z-0.1000 S500
G1 F1500 X296.9246 Y369.9070 Z-0.1000 S500
G1 F1500 X296.9246 Y369.9070 Z-0.1000 S500
G1 F1500 X297.5362 Y369.2852 Z-0.1000 S500
G1 F1500 X297.7191 Y368.5373 Z-0.1000 S500
G1 F1500 X297.7191 Y368.5373 Z-0.1000 S500
G1 F1500 X297.5362 Y367.7893 Z-0.1000 S500
G1 F1500 X296.9246 Y367.1676 Z-0.1000 S500
G1 F1500 X296.9246 Y367.1676 Z-0.1000 S500
G1 F1500 X296.0597 Y366.7900 Z-0.1000 S500
G1 F1500 X295.0576 Y366.6644 Z-0.1000 S500
G1 F1500 X295.0576 Y366.6644 Z-0.1000 S500

G0 Z0; move to z-safe height
G0 X195.0747 Y17.9473

G0 Z0
G1 F300 Z-0.1000
G1 F1500 X195.0747 Y17.9473 Z-0.1000 S500
G1 F1500 X194.8466 Y16.9009 Z-0.1000 S500
G1 F1500 X194.2134 Y16.0360 Z-0.1000 S500
G1 F1500 X193.2976 Y15.4774 Z-0.1000 S500
G1 F1500 X192.2415 Y15.2855 Z-0.1000 S500
G1 F1500 X192.2415 Y15.2855 Z-0.1000 S500
G1 F1500 X192.2415 Y15.2855 Z-0.1000 S500
G1 F1500 X191.1854 Y15.4774 Z-0.1000 S500
G1 F1500 X190.2696 Y16.0360 Z-0.1000 S500
G1 F1500 X189.6364 Y16.9009 Z-0.1000 S500
G1 F1500 X189.4083 Y17.9473 Z-0.1000 S500
G1 F1500 X189.4083 Y17.9473 Z-0.1000 S500
G1 F1500 X189.4083 Y17.9473 Z-0.1000 S500
G1 F1500 X189.6364 Y18.9937 Z-0.1000 S500
G1 F1500 X190.2696 Y19.8586 Z-0.1000 S500
G1 F1500 X191.1854 Y20.4173 Z-0.1000 S500
G1 F1500 X192.2415 Y20.6091 Z-0.1000 S500
G1 F1500 X192.2415 Y20.6091 Z-0.1000 S500
G1 F1500 X192.2415 Y20.6091 Z-0.1000 S500
G1 F1500 X193.2976 Y20.4173 Z-0.1000 S500
G1 F1500 X194.2134 Y19.8586 Z-0.1000 S500
G1 F1500 X194.8466 Y18.9937 Z-0.1000 S500
G1 F1500 X195.0747 Y17.9473 Z-0.1000 S500
G1 F1500 X195.0747 Y17.9473 Z-0.1000 S500
G1 F1500 X195.0747 Y17.9473 Z-0.1000 S500

G0 Z0; move to z-safe height
G0 X291.0569 Y254.8059

G0 Z0
G1 F300 Z-0.1000
G1 F1500 X294.2062 Y254.7101 Z-0.1000 S500
G1 F1500 X294.2062 Y254.7101 Z-0.1000 S500
G1 F1500 X294.0226 Y255.5360 Z-0.1000 S500
G1 F1500 X293.8353 Y256.3610 Z-0.1000 S500
G1 F1500 X293.6442 Y257.1852 Z-0.1000 S500
G1 F1500 X293.6442 Y257.1852 Z-0.1000 S500
G1 F1500 X293.3406 Y258.3714 Z-0.1000 S500
G1 F1500 X292.9886 Y259.5442 Z-0.1000 S500
G1 F1500 X292.9886 Y259.5442 Z-0.1000 S500
G1 F1500 X292.7578 Y260.3493 Z-0.1000 S500
G1 F1500 X292.5078 Y261.1487 Z-0.1000 S500
G1 F1500 X292.2392 Y261.9419 Z-0.1000 S500
G1 F1500 X292.2392 Y261.9419 Z-0.1000 S500
G1 F1500 X291.9696 Y262.8093 Z-0.1000 S500
G1 F1500 X291.6882 Y263.6729 Z-0.1000 S500
G1 F1500 X291.3962 Y264.5330 Z-0.1000 S500
G1 F1500 X291.3962 Y264.5330 Z-0.1000 S500
G1 F1500 X291.0982 Y263.6698 Z-0.1000 S500
G1 F1500 X290.8016 Y262.8061 Z-0.1000 S500
G1 F1500 X290.5064 Y261.9419 Z-0.1000 S500
G1 F1500 X290.5064 Y261.9419 Z-0.1000 S500
G1 F1500 X290.2566 Y261.1427 Z-0.1000 S500
G1 F1500 X290.0069 Y260.3434 Z-0.1000 S500
G1 F1500 X289.7571 Y259.5442 Z-0.1000 S500
G1 F1500 X289.7571 Y259.5442 Z-0.1000 S500
G1 F1500 X289.4267 Y258.3654 Z-0.1000 S500
G1 F1500 X289.1014 Y257.1852 Z-0.1000 S500
G1 F1500 X289.1014 Y257.1852 Z-0.1000 S500
G1 F1500 X288.9103 Y256.3610 Z-0.1000 S500
G1 F1500 X288.7231 Y255.5360 Z-0.1000 S500
G1 F1500 X288.5394 Y254.7101 Z-0.1000 S500
G1 F1500 X291.0569 Y254.8059 Z-0.1000 S500

G0 Z0; move to z-safe height
G0 X59.2466 Y221.0695

G0 Z0
G1 F300 Z-0.1000
G1 F1500 X62.4595 Y220.9718 Z-0.1000 S500
G1 F1500 X62.4595 Y220.9718 Z-0.1000 S500
G1 F1500 X62.2722 Y221.8144 Z-0.1000 S500
G1 F1500 X62.0811 Y222.6561 Z-0.1000 S500
G1 F1500 X61.8862 Y223.4969 Z-0.1000 S500
G1 F1500 X61.8862 Y223.4969 Z-0.1000 S500
G1 F1500 X61.5765 Y224.7072 Z-0.1000 S500
G1 F1500 X61.2173 Y225.9037 Z-0.1000 S500
G1 F1500 X61.2173 Y225.9037 Z-0.1000 S500
G1 F1500 X60.9818 Y226.7251 Z-0.1000 S500
G1 F1500 X60.7268 Y227.5406 Z-0.1000 S500
G1 F1500 X60.4528 Y228.3499 Z-0.1000 S500
G1 F1500 X60.4528 Y228.3499 Z-0.1000 S500
G1 F1500 X60.1778 Y229.2348 Z-0.1000 S500
G1 F1500 X59.8907 Y230.1159 Z-0.1000 S500
G1 F1500 X59.5927 Y230.9934 Z-0.1000 S500
G1 F1500 X59.5927 Y230.9934 Z-0.1000 S500
G1 F1500 X59.2887 Y230.1127 Z-0.1000 S500
G1 F1500 X58.9861 Y229.2315 Z-0.1000 S500
G1 F1500 X58.6849 Y228.3499 Z-0.1000 S500
G1 F1500 X58.6849 Y228.3499 Z-0.1000 S500
G1 F1500 X58.4301 Y227.5345 Z-0.1000 S500
G1 F1500 X58.1753 Y226.7191 Z-0.1000 S500
G1 F1500 X57.9204 Y225.9037 Z-0.1000 S500
G1 F1500 X57.9204 Y225.9037 Z-0.1000 S500
G1 F1500 X57.5834 Y224.7010 Z-0.1000 S500
G1 F1500 X57.2515 Y223.4969 Z-0.1000 S500
G1 F1500 X57.2515 Y223.4969 Z-0.1000 S500
G1 F1500 X57.0566 Y222.6561 Z-0.1000 S500
G1 F1500 X56.8655 Y221.8144 Z-0.1000 S500
G1 F1500 X56.6782 Y220.9718 Z-0.1000 S500
G1 F1500 X59.2466 Y221.0695 Z-0.1000 S500

G0 Z0; move to z-safe height
G0 X157.8660 Y221.2328

G0 Z0
G1 F300 Z-0.1000
G1 F1500 X161.0790 Y221.1352 Z-0.1000 S500
G1 F1500 X161.0790 Y221.1352 Z-0.1000 S500
G1 F1500 X160.8917 Y221.9777 Z-0.1000 S500
G1 F1500 X160.7006 Y222.8194 Z-0.1000 S500
G1 F1500 X160.5056 Y223.6603 Z-0.1000 S500
G1 F1500 X160.5056 Y223.6603 Z-0.1000 S500
G1 F1500 X160.1959 Y224.8705 Z-0.1000 S500
G1 F1500 X159.8367 Y226.0670 Z-0.1000 S500
G1 F1500 X159.8367 Y226.0670 Z-0.1000 S500
G1 F1500 X159.6013 Y226.8884 Z-0.1000 S500
G1 F1500 X159.3463 Y227.7039 Z-0.1000 S500
G1 F1500 X159.0723 Y228.5132 Z-0.1000 S500
G1 F1500 X159.0723 Y228.5132 Z-0.1000 S500
G1 F1500 X158.7972 Y229.3981 Z-0.1000 S500
G1 F1500 X158.5101 Y230.2792 Z-0.1000 S500
G1 F1500 X158.2122 Y231.1567 Z-0.1000 S500
G1 F1500 X158.2122 Y231.1567 Z-0.1000 S500
G1 F1500 X157.9082 Y230.2760 Z-0.1000 S500
G1 F1500 X157.6055 Y229.3949 Z-0.1000 S500
G1 F1500 X157.3044 Y228.5132 Z-0.1000 S500
G1 F1500 X157.3044 Y228.5132 Z-0.1000 S500
G1 F1500 X157.0495 Y227.6978 Z-0.1000 S500
G1 F1500 X156.7947 Y226.8824 Z-0.1000 S500
G1 F1500 X156.5399 Y226.0670 Z-0.1000 S500
G1 F1500 X156.5399 Y226.0670 Z-0.1000 S500
G1 F1500 X156.2028 Y224.8644 Z-0.1000 S500
G1 F1500 X155.8709 Y223.6603 Z-0.1000 S500
G1 F1500 X155.8709 Y223.6603 Z-0.1000 S500
G1 F1500 X155.6760 Y222.8194 Z-0.1000 S500
G1 F1500 X155.4850 Y221.9777 Z-0.1000 S500
G1 F1500 X155.2976 Y221.1352 Z-0.1000 S500
G1 F1500 X157.8660 Y221.2328 Z-0.1000 S500

G0 Z0; move to z-safe height
G0 X257.1438 Y123.4039

G0 Z0
G1 F300 Z-0.1000
G1 F1500 X260.3572 Y123.3062 Z-0.1000 S500
G1 F1500 X260.3572 Y123.3062 Z-0.1000 S500
G1 F1500 X260.1698 Y124.1489 Z-0.1000 S500
G1 F1500 X259.9787 Y124.9907 Z-0.1000 S500
G1 F1500 X259.7838 Y125.8317 Z-0.1000 S500
G1 F1500 X259.7838 Y125.8317 Z-0.1000 S500
G1 F1500 X259.4740 Y127.0421 Z-0.1000 S500
G1 F1500 X259.1148 Y128.2388 Z-0.1000 S500
G1 F1500 X259.1148 Y128.2388 Z-0.1000 S500
G1 F1500 X258.8793 Y129.0603 Z-0.1000 S500
G1 F1500 X258.6242 Y129.8759 Z-0.1000 S500
G1 F1500 X258.3502 Y130.6853 Z-0.1000 S500
G1 F1500 X258.3502 Y130.6853 Z-0.1000 S500
G1 F1500 X258.0751 Y131.5704 Z-0.1000 S500
G1 F1500 X257.7880 Y132.4516 Z-0.1000 S500
G1 F1500 X257.4900 Y133.3292 Z-0.1000 S500
G1 F1500 X257.4900 Y133.3292 Z-0.1000 S500
G1 F1500 X257.1859 Y132.4484 Z-0.1000 S500
G1 F1500 X256.8832 Y131.5671 Z-0.1000 S500
G1 F1500 X256.5820 Y130.6853 Z-0.1000 S500
G1 F1500 X256.5820 Y130.6853 Z-0.1000 S500
G1 F1500 X256.3272 Y129.8698 Z-0.1000 S500
G1 F1500 X256.0723 Y129.0543 Z-0.1000 S500
G1 F1500 X255.8174 Y128.2388 Z-0.1000 S500
G1 F1500 X255.8174 Y128.2388 Z-0.1000 S500
G1 F1500 X255.4804 Y127.0359 Z-0.1000 S500
G1 F1500 X255.1484 Y125.8317 Z-0.1000 S500
G1 F1500 X255.1484 Y125.8317 Z-0.1000 S500
G1 F1500 X254.9535 Y124.9907 Z-0.1000 S500
G1 F1500 X254.7624 Y124.1489 Z-0.1000 S500
G1 F1500 X254.5750 Y123.3062 Z-0.1000 S500
G1 F1500 X257.1438 Y123.4039 Z-0.1000 S500

G0 Z0; move to z-safe height
G0 X225.3731 Y320.8792

G0 Z0
G1 F300 Z-0.1000
G1 F1500 X228.5906 Y320.7814 Z-0.1000 S500
G1 F1500 X228.5906 Y320.7814 Z-0.1000 S500
G1 F1500 X228.4030 Y321.6252 Z-0.1000 S500
G1 F1500 X228.2117 Y322.4681 Z-0.1000 S500
G1 F1500 X228.0165 Y323.3101 Z-0.1000 S500
G1 F1500 X228.0165 Y323.3101 Z-0.1000 S500
G1 F1500 X227.8152 Y324.1195 Z-0.1000 S500
G1 F1500 X227.5919 Y324.9231 Z-0.1000 S500
G1 F1500 X227.3466 Y325.7203 Z-0.1000 S500
G1 F1500 X227.3466 Y325.7203 Z-0.1000 S500
G1 F1500 X227.1108 Y326.5428 Z-0.1000 S500
G1 F1500 X226.8555 Y327.3595 Z-0.1000 S500
G1 F1500 X226.5810 Y328.1699 Z-0.1000 S500
G1 F1500 X226.5810 Y328.1699 Z-0.1000 S500
G1 F1500 X226.3056 Y329.0561 Z-0.1000 S500
G1 F1500 X226.0181 Y329.9384 Z-0.1000 S500
G1 F1500 X225.7198 Y330.8172 Z-0.1000 S500
G1 F1500 X225.7198 Y330.8172 Z-0.1000 S500
G1 F1500 X225.4153 Y329.9352 Z-0.1000 S500
G1 F1500 X225.1122 Y329.0528 Z-0.1000 S500
G1 F1500 X224.8106 Y328.1699 Z-0.1000 S500
G1 F1500 X224.8106 Y328.1699 Z-0.1000 S500
G1 F1500 X224.5555 Y327.3534 Z-0.1000 S500
G1 F1500 X224.3003 Y326.5368 Z-0.1000 S500
G1 F1500 X224.0451 Y325.7203 Z-0.1000 S500
G1 F1500 X224.0451 Y325.7203 Z-0.1000 S500
G1 F1500 X223.8195 Y324.9175 Z-0.1000 S500
G1 F1500 X223.5962 Y324.1141 Z-0.1000 S500
G1 F1500 X223.3752 Y323.3101 Z-0.1000 S500
G1 F1500 X223.3752 Y323.3101 Z-0.1000 S500
G1 F1500 X223.1800 Y322.4681 Z-0.1000 S500
G1 F1500 X222.9887 Y321.6252 Z-0.1000 S500
G1 F1500 X222.8010 Y320.7814 Z-0.1000 S500
G1 F1500 X225.3731 Y320.8792 Z-0.1000 S500

G0 Z0; move to z-safe height
G0 X292.6536 Y83.3651

G0 Z0
G1 F300 Z-0.1000
G1 F1500 X292.6536 Y83.3651 Z-0.1000 S500
G1 F1500 X293.7356 Y83.7211 Z-0.1000 S500
G1 F1500 X294.5025 Y84.2715 Z-0.1000 S500
G1 F1500 X295.0279 Y84.8961 Z-0.1000 S500
G1 F1500 X295.0279 Y84.8961 Z-0.1000 S500
G1 F1500 X295.3656 Y85.5842 Z-0.1000 S500
G1 F1500 X295.5885 Y86.2853 Z-0.1000 S500
G1 F1500 X295.7178 Y86.9931 Z-0.1000 S500
G1 F1500 X295.7178 Y86.9931 Z-0.1000 S500
G1 F1500 X295.8080 Y87.6302 Z-0.1000 S500
G1 F1500 X295.8690 Y88.2684 Z-0.1000 S500
G1 F1500 X295.9038 Y88.9071 Z-0.1000 S500
G1 F1500 X295.9149 Y89.5460 Z-0.1000 S500
G1 F1500 X295.9149 Y89.5460 Z-0.1000 S500
G1 F1500 X295.9038 Y90.1850 Z-0.1000 S500
G1 F1500 X295.8690 Y90.8236 Z-0.1000 S500
G1 F1500 X295.8080 Y91.4618 Z-0.1000 S500
G1 F1500 X295.7178 Y92.0989 Z-0.1000 S500
G1 F1500 X295.7178 Y92.0989 Z-0.1000 S500
G1 F1500 X295.5915 Y92.8070 Z-0.1000 S500
G1 F1500 X295.3709 Y93.5085 Z-0.1000 S500
G1 F1500 X295.0279 Y94.1960 Z-0.1000 S500
G1 F1500 X295.0279 Y94.1960 Z-0.1000 S500
G1 F1500 X294.4576 Y94.8669 Z-0.1000 S500
G1 F1500 X293.6053 Y95.4484 Z-0.1000 S500
G1 F1500 X292.4586 Y95.8599 Z-0.1000 S500
G1 F1500 X292.4701 Y99.3360 Z-0.1000 S500
G1 F1500 X292.4701 Y99.3360 Z-0.1000 S500
G1 F1500 X293.7207 Y99.2977 Z-0.1000 S500
G1 F1500 X294.9437 Y99.1577 Z-0.1000 S500
G1 F1500 X296.0798 Y98.8819 Z-0.1000 S500
G1 F1500 X297.0629 Y98.4733 Z-0.1000 S500
G1 F1500 X297.8893 Y97.9763 Z-0.1000 S500
G1 F1500 X298.6074 Y97.4338 Z-0.1000 S500
G1 F1500 X299.2661 Y96.8705 Z-0.1000 S500
G1 F1500 X299.2661 Y96.8705 Z-0.1000 S500
G1 F1500 X299.8343 Y96.3170 Z-0.1000 S500
G1 F1500 X300.3146 Y95.7405 Z-0.1000 S500
G1 F1500 X300.7169 Y95.1476 Z-0.1000 S500
G1 F1500 X301.0509 Y94.5430 Z-0.1000 S500
G1 F1500 X301.3252 Y93.9300 Z-0.1000 S500
G1 F1500 X301.5471 Y93.3111 Z-0.1000 S500
G1 F1500 X301.7230 Y92.6881 Z-0.1000 S500
G1 F1500 X301.8583 Y92.0622 Z-0.1000 S500
G1 F1500 X301.9576 Y91.4345 Z-0.1000 S500
G1 F1500 X302.0247 Y90.8056 Z-0.1000 S500
G1 F1500 X302.0629 Y90.1760 Z-0.1000 S500
G1 F1500 X302.0751 Y89.5460 Z-0.1000 S500
G1 F1500 X302.0751 Y89.5460 Z-0.1000 S500
G1 F1500 X302.0626 Y88.9130 Z-0.1000 S500
G1 F1500 X302.0233 Y88.2804 Z-0.1000 S500
G1 F1500 X301.9545 Y87.6485 Z-0.1000 S500
G1 F1500 X301.8527 Y87.0178 Z-0.1000 S500
G1 F1500 X301.7141 Y86.3891 Z-0.1000 S500
G1 F1500 X301.5340 Y85.7633 Z-0.1000 S500
G1 F1500 X301.3071 Y85.1418 Z-0.1000 S500
G1 F1500 X301.0271 Y84.5264 Z-0.1000 S500
G1 F1500 X300.6868 Y83.9196 Z-0.1000 S500
G1 F1500 X300.2778 Y83.3247 Z-0.1000 S500
G1 F1500 X299.7910 Y82.7465 Z-0.1000 S500
G1 F1500 X299.2168 Y82.1912 Z-0.1000 S500
G1 F1500 X299.2168 Y82.1912 Z-0.1000 S500
G1 F1500 X298.5743 Y81.6487 Z-0.1000 S500
G1 F1500 X297.8911 Y81.1205 Z-0.1000 S500
G1 F1500 X297.1175 Y80.6287 Z-0.1000 S500
G1 F1500 X296.1947 Y80.2163 Z-0.1000 S500
G1 F1500 X295.1106 Y79.9350 Z-0.1000 S500
G1 F1500 X293.9314 Y79.7939 Z-0.1000 S500
G1 F1500 X292.7230 Y79.7560 Z-0.1000 S500
G1 F1500 X292.6536 Y83.3651 Z-0.1000 S500
G1 F1500 X292.6536 Y83.3651 Z-0.1000 S500

G0 Z0; move to z-safe height
G0 X57.0065 Y104.0302

G0 Z0
G1 F300 Z-0.1000
G1 F1500 X61.8729 Y104.0302 Z-0.1000 S500
G1 F1500 X61.8729 Y79.8066 Z-0.1000 S500
G1 F1500 X57.0065 Y79.8066 Z-0.1000 S500
G1 F1500 X57.0065 Y104.0302 Z-0.1000 S500
G1 F1500 X57.0065 Y104.0302 Z-0.1000 S500

G0 Z0; move to z-safe height
G0 X290.1168 Y79.7826

G0 Z0
G1 F300 Z-0.1000
G1 F1500 X290.1168 Y79.7826 Z-0.1000 S500
G1 F1500 X288.8287 Y79.8205 Z-0.1000 S500
G1 F1500 X287.5650 Y79.9552 Z-0.1000 S500
G1 F1500 X286.3737 Y80.2142 Z-0.1000 S500
G1 F1500 X285.3118 Y80.5997 Z-0.1000 S500
G1 F1500 X284.3993 Y81.0810 Z-0.1000 S500
G1 F1500 X283.6102 Y81.6202 Z-0.1000 S500
G1 F1500 X282.9050 Y82.1912 Z-0.1000 S500
G1 F1500 X282.9050 Y82.1912 Z-0.1000 S500
G1 F1500 X282.3392 Y82.7482 Z-0.1000 S500
G1 F1500 X281.8602 Y83.3275 Z-0.1000 S500
G1 F1500 X281.4582 Y83.9230 Z-0.1000 S500
G1 F1500 X281.1240 Y84.5301 Z-0.1000 S500
G1 F1500 X280.8493 Y85.1455 Z-0.1000 S500
G1 F1500 X280.6267 Y85.7667 Z-0.1000 S500
G1 F1500 X280.4500 Y86.3921 Z-0.1000 S500
G1 F1500 X280.3141 Y87.0203 Z-0.1000 S500
G1 F1500 X280.2143 Y87.6504 Z-0.1000 S500
G1 F1500 X280.1467 Y88.2817 Z-0.1000 S500
G1 F1500 X280.1083 Y88.9137 Z-0.1000 S500
G1 F1500 X280.0960 Y89.5460 Z-0.1000 S500
G1 F1500 X280.0960 Y89.5460 Z-0.1000 S500
G1 F1500 X280.1087 Y90.1773 Z-0.1000 S500
G1 F1500 X280.1484 Y90.8082 Z-0.1000 S500
G1 F1500 X280.2181 Y91.4384 Z-0.1000 S500
G1 F1500 X280.3213 Y92.0673 Z-0.1000 S500
G1 F1500 X280.4620 Y92.6942 Z-0.1000 S500
G1 F1500 X280.6448 Y93.3180 Z-0.1000 S500
G1 F1500 X280.8753 Y93.9374 Z-0.1000 S500
G1 F1500 X281.1599 Y94.5505 Z-0.1000 S500
G1 F1500 X281.5062 Y95.1546 Z-0.1000 S500
G1 F1500 X281.9226 Y95.7461 Z-0.1000 S500
G1 F1500 X282.4186 Y96.3203 Z-0.1000 S500
G1 F1500 X283.0035 Y96.8705 Z-0.1000 S500
G1 F1500 X283.0035 Y96.8705 Z-0.1000 S500
G1 F1500 X283.6884 Y97.4304 Z-0.1000 S500
G1 F1500 X284.4408 Y97.9654 Z-0.1000 S500
G1 F1500 X285.3018 Y98.4520 Z-0.1000 S500
G1 F1500 X286.3086 Y98.8520 Z-0.1000 S500
G1 F1500 X287.4558 Y99.1264 Z-0.1000 S500
G1 F1500 X288.6865 Y99.2695 Z-0.1000 S500
G1 F1500 X289.9453 Y99.3094 Z-0.1000 S500
G1 F1500 X289.9160 Y95.8067 Z-0.1000 S500
G1 F1500 X289.9160 Y95.8067 Z-0.1000 S500
G1 F1500 X288.9375 Y95.5564 Z-0.1000 S500
G1 F1500 X288.1294 Y95.1716 Z-0.1000 S500
G1 F1500 X287.5165 Y94.6961 Z-0.1000 S500
G1 F1500 X287.0938 Y94.1656 Z-0.1000 S500
G1 F1500 X287.0938 Y94.1656 Z-0.1000 S500
G1 F1500 X286.7750 Y93.4857 Z-0.1000 S500
G1 F1500 X286.5520 Y92.7951 Z-0.1000 S500
G1 F1500 X286.4039 Y92.0989 Z-0.1000 S500
G1 F1500 X286.4039 Y92.0989 Z-0.1000 S500
G1 F1500 X286.3362 Y91.4613 Z-0.1000 S500
G1 F1500 X286.2905 Y90.8231 Z-0.1000 S500
G1 F1500 X286.2644 Y90.1846 Z-0.1000 S500
G1 F1500 X286.2560 Y89.5460 Z-0.1000 S500
G1 F1500 X286.2560 Y89.5460 Z-0.1000 S500
G1 F1500 X286.2645 Y88.8998 Z-0.1000 S500
G1 F1500 X286.2909 Y88.2537 Z-0.1000 S500
G1 F1500 X286.3368 Y87.6080 Z-0.1000 S500
G1 F1500 X286.4039 Y86.9627 Z-0.1000 S500
G1 F1500 X286.4039 Y86.9627 Z-0.1000 S500
G1 F1500 X286.5520 Y86.2665 Z-0.1000 S500
G1 F1500 X286.7750 Y85.5759 Z-0.1000 S500
G1 F1500 X287.0938 Y84.8961 Z-0.1000 S500
G1 F1500 X287.0938 Y84.8961 Z-0.1000 S500
G1 F1500 X287.6018 Y84.3763 Z-0.1000 S500
G1 F1500 X288.2929 Y83.9178 Z-0.1000 S500
G1 F1500 X289.1195 Y83.5274 Z-0.1000 S500
G1 F1500 X290.1196 Y83.2853 Z-0.1000 S500
G1 F1500 X290.1168 Y79.7826 Z-0.1000 S500
G1 F1500 X290.1168 Y79.7826 Z-0.1000 S500

G0 Z0; move to z-safe height
G0 X321.6164 Y335.6089

G0 Z0
G1 F300 Z-0.1000
G1 F1500 X326.5297 Y335.6089 Z-0.1000 S500
G1 F1500 X326.5297 Y311.1517 Z-0.1000 S500
G1 F1500 X321.6164 Y311.1517 Z-0.1000 S500
G1 F1500 X321.6164 Y335.6089 Z-0.1000 S500
G1 F1500 X321.6164 Y335.6089 Z-0.1000 S500

G0 Z0; move to z-safe height
G0 X288.9728 Y171.0495

G0 Z0
G1 F300 Z-0.1000
G1 F1500 X293.9130 Y171.0495 Z-0.1000 S500
G1 F1500 X293.9130 Y146.4584 Z-0.1000 S500
G1 F1500 X288.9728 Y146.4584 Z-0.1000 S500
G1 F1500 X288.9728 Y171.0495 Z-0.1000 S500
G1 F1500 X288.9728 Y171.0495 Z-0.1000 S500

G0 Z0; move to z-safe height
G0 X124.1296 Y171.1925

G0 Z0
G1 F300 Z-0.1000
G1 F1500 X129.0698 Y171.1925 Z-0.1000 S500
G1 F1500 X129.0698 Y146.6014 Z-0.1000 S500
G1 F1500 X124.1296 Y146.6014 Z-0.1000 S500
G1 F1500 X124.1296 Y171.1925 Z-0.1000 S500
G1 F1500 X124.1296 Y171.1925 Z-0.1000 S500

G0 Z0; move to z-safe height
G0 X123.7710 Y302.8901

G0 Z0
G1 F300 Z-0.1000
G1 F1500 X128.7123 Y302.8901 Z-0.1000 S500
G1 F1500 X128.7123 Y278.2933 Z-0.1000 S500
G1 F1500 X123.7710 Y278.2933 Z-0.1000 S500
G1 F1500 X123.7710 Y302.8901 Z-0.1000 S500
G1 F1500 X123.7710 Y302.8901 Z-0.1000 S500

G0 Z0; move to z-safe height
G0 X189.1153 Y302.7092

G0 Z0
G1 F300 Z-0.1000
G1 F1500 X194.0566 Y302.7092 Z-0.1000 S500
G1 F1500 X194.0566 Y278.1125 Z-0.1000 S500
G1 F1500 X189.1153 Y278.1125 Z-0.1000 S500
G1 F1500 X189.1153 Y302.7092 Z-0.1000 S500
G1 F1500 X189.1153 Y302.7092 Z-0.1000 S500

G0 Z0; move to z-safe height
G0 X353.4148 Y203.5438

G0 Z0
G1 F300 Z-0.1000
G1 F1500 X358.3774 Y203.5438 Z-0.1000 S500
G1 F1500 X358.3774 Y178.8411 Z-0.1000 S500
G1 F1500 X353.4148 Y178.8411 Z-0.1000 S500
G1 F1500 X353.4148 Y203.5438 Z-0.1000 S500
G1 F1500 X353.4148 Y203.5438 Z-0.1000 S500

G0 Z0; move to z-safe height
G0 X57.5239 Y203.6174

G0 Z0
G1 F300 Z-0.1000
G1 F1500 X62.4865 Y203.6174 Z-0.1000 S500
G1 F1500 X62.4865 Y178.9147 Z-0.1000 S500
G1 F1500 X57.5239 Y178.9147 Z-0.1000 S500
G1 F1500 X57.5239 Y203.6174 Z-0.1000 S500
G1 F1500 X57.5239 Y203.6174 Z-0.1000 S500

G0 Z0; move to z-safe height
G0 X123.1911 Y370.3949

G0 Z0
G1 F300 Z-0.1000
G1 F1500 X128.3233 Y370.3949 Z-0.1000 S500
G1 F1500 X128.3233 Y344.8481 Z-0.1000 S500
G1 F1500 X123.1911 Y344.8481 Z-0.1000 S500
G1 F1500 X123.1911 Y370.3949 Z-0.1000 S500
G1 F1500 X123.1911 Y370.3949 Z-0.1000 S500

G0 Z0; move to z-safe height
G0 X166.6021 Y27.2382

G0 Z0
G1 F300 Z-0.1000
G1 F1500 X166.6021 Y27.2382 Z-0.1000 S500
G1 F1500 X166.5219 Y26.2188 Z-0.1000 S500
G1 F1500 X166.2831 Y25.2245 Z-0.1000 S500
G1 F1500 X165.8918 Y24.2798 Z-0.1000 S500
G1 F1500 X165.3576 Y23.4080 Z-0.1000 S500
G1 F1500 X164.6935 Y22.6305 Z-0.1000 S500
G1 F1500 X163.9159 Y21.9664 Z-0.1000 S500
G1 F1500 X163.0441 Y21.4321 Z-0.1000 S500
G1 F1500 X162.0994 Y21.0408 Z-0.1000 S500
G1 F1500 X161.1051 Y20.8021 Z-0.1000 S500
G1 F1500 X160.0857 Y20.7219 Z-0.1000 S500
G1 F1500 X160.0857 Y20.7219 Z-0.1000 S500
G1 F1500 X160.0857 Y20.7219 Z-0.1000 S500
G1 F1500 X159.0663 Y20.8021 Z-0.1000 S500
G1 F1500 X158.0721 Y21.0408 Z-0.1000 S500
G1 F1500 X157.1274 Y21.4321 Z-0.1000 S500
G1 F1500 X156.2555 Y21.9664 Z-0.1000 S500
G1 F1500 X155.4780 Y22.6305 Z-0.1000 S500
G1 F1500 X154.8139 Y23.4080 Z-0.1000 S500
G1 F1500 X154.2796 Y24.2798 Z-0.1000 S500
G1 F1500 X153.8883 Y25.2245 Z-0.1000 S500
G1 F1500 X153.6496 Y26.2188 Z-0.1000 S500
G1 F1500 X153.5694 Y27.2382 Z-0.1000 S500
G1 F1500 X153.5694 Y27.2382 Z-0.1000 S500
G1 F1500 X153.5694 Y27.2382 Z-0.1000 S500
G1 F1500 X153.6496 Y28.2576 Z-0.1000 S500
G1 F1500 X153.8883 Y29.2519 Z-0.1000 S500
G1 F1500 X154.2796 Y30.1966 Z-0.1000 S500
G1 F1500 X154.8139 Y31.0684 Z-0.1000 S500
G1 F1500 X155.4780 Y31.8460 Z-0.1000 S500
G1 F1500 X156.2555 Y32.5100 Z-0.1000 S500
G1 F1500 X157.1274 Y33.0443 Z-0.1000 S500
G1 F1500 X158.0721 Y33.4356 Z-0.1000 S500
G1 F1500 X159.0663 Y33.6743 Z-0.1000 S500
G1 F1500 X160.0857 Y33.7546 Z-0.1000 S500
G1 F1500 X160.0857 Y33.7546 Z-0.1000 S500
G1 F1500 X160.0857 Y33.7546 Z-0.1000 S500
G1 F1500 X161.1051 Y33.6743 Z-0.1000 S500
G1 F1500 X162.0994 Y33.4356 Z-0.1000 S500
G1 F1500 X163.0441 Y33.0443 Z-0.1000 S500
G1 F1500 X163.9159 Y32.5100 Z-0.1000 S500
G1 F1500 X164.6935 Y31.8460 Z-0.1000 S500
G1 F1500 X165.3576 Y31.0684 Z-0.1000 S500
G1 F1500 X165.8918 Y30.1966 Z-0.1000 S500
G1 F1500 X166.2831 Y29.2519 Z-0.1000 S500
G1 F1500 X166.5219 Y28.2576 Z-0.1000 S500
G1 F1500 X166.6021 Y27.2382 Z-0.1000 S500
G1 F1500 X166.6021 Y27.2382 Z-0.1000 S500
G1 F1500 X166.6021 Y27.2382 Z-0.1000 S500

G0 Z0; move to z-safe height
G0 X265.1594 Y27.2382

G0 Z0
G1 F300 Z-0.1000
G1 F1500 X265.1594 Y27.2382 Z-0.1000 S500
G1 F1500 X265.0792 Y26.2188 Z-0.1000 S500
G1 F1500 X264.8405 Y25.2245 Z-0.1000 S500
G1 F1500 X264.4492 Y24.2798 Z-0.1000 S500
G1 F1500 X263.9149 Y23.4080 Z-0.1000 S500
G1 F1500 X263.2508 Y22.6305 Z-0.1000 S500
G1 F1500 X262.4733 Y21.9664 Z-0.1000 S500
G1 F1500 X261.6014 Y21.4321 Z-0.1000 S500
G1 F1500 X260.6567 Y21.0408 Z-0.1000 S500
G1 F1500 X259.6625 Y20.8021 Z-0.1000 S500
G1 F1500 X258.6431 Y20.7219 Z-0.1000 S500
G1 F1500 X258.6431 Y20.7219 Z-0.1000 S500
G1 F1500 X258.6431 Y20.7219 Z-0.1000 S500
G1 F1500 X257.6237 Y20.8021 Z-0.1000 S500
G1 F1500 X256.6294 Y21.0408 Z-0.1000 S500
G1 F1500 X255.6847 Y21.4321 Z-0.1000 S500
G1 F1500 X254.8129 Y21.9664 Z-0.1000 S500
G1 F1500 X254.0353 Y22.6305 Z-0.1000 S500
G1 F1500 X253.3712 Y23.4080 Z-0.1000 S500
G1 F1500 X252.8370 Y24.2798 Z-0.1000 S500
G1 F1500 X252.4457 Y25.2245 Z-0.1000 S500
G1 F1500 X252.2069 Y26.2188 Z-0.1000 S500
G1 F1500 X252.1267 Y27.2382 Z-0.1000 S500
G1 F1500 X252.1267 Y27.2382 Z-0.1000 S500
G1 F1500 X252.1267 Y27.2382 Z-0.1000 S500
G1 F1500 X252.2069 Y28.2576 Z-0.1000 S500
G1 F1500 X252.4457 Y29.2519 Z-0.1000 S500
G1 F1500 X252.8370 Y30.1966 Z-0.1000 S500
G1 F1500 X253.3712 Y31.0684 Z-0.1000 S500
G1 F1500 X254.0353 Y31.8460 Z-0.1000 S500
G1 F1500 X254.8129 Y32.5100 Z-0.1000 S500
G1 F1500 X255.6847 Y33.0443 Z-0.1000 S500
G1 F1500 X256.6294 Y33.4356 Z-0.1000 S500
G1 F1500 X257.6237 Y33.6743 Z-0.1000 S500
G1 F1500 X258.6431 Y33.7546 Z-0.1000 S500
G1 F1500 X258.6431 Y33.7546 Z-0.1000 S500
G1 F1500 X258.6431 Y33.7546 Z-0.1000 S500
G1 F1500 X259.6625 Y33.6743 Z-0.1000 S500
G1 F1500 X260.6567 Y33.4356 Z-0.1000 S500
G1 F1500 X261.6014 Y33.0443 Z-0.1000 S500
G1 F1500 X262.4733 Y32.5100 Z-0.1000 S500
G1 F1500 X263.2508 Y31.8460 Z-0.1000 S500
G1 F1500 X263.9149 Y31.0684 Z-0.1000 S500
G1 F1500 X264.4492 Y30.1966 Z-0.1000 S500
G1 F1500 X264.8405 Y29.2519 Z-0.1000 S500
G1 F1500 X265.0792 Y28.2576 Z-0.1000 S500
G1 F1500 X265.1594 Y27.2382 Z-0.1000 S500
G1 F1500 X265.1594 Y27.2382 Z-0.1000 S500
G1 F1500 X265.1594 Y27.2382 Z-0.1000 S500

G0 Z0; move to z-safe height
G0 X231.9323 Y27.2382

G0 Z0
G1 F300 Z-0.1000
G1 F1500 X231.9323 Y27.2382 Z-0.1000 S500
G1 F1500 X231.8521 Y26.2188 Z-0.1000 S500
G1 F1500 X231.6134 Y25.2245 Z-0.1000 S500
G1 F1500 X231.2221 Y24.2798 Z-0.1000 S500
G1 F1500 X230.6878 Y23.4080 Z-0.1000 S500
G1 F1500 X230.0237 Y22.6305 Z-0.1000 S500
G1 F1500 X229.2462 Y21.9664 Z-0.1000 S500
G1 F1500 X228.3744 Y21.4321 Z-0.1000 S500
G1 F1500 X227.4297 Y21.0408 Z-0.1000 S500
G1 F1500 X226.4354 Y20.8021 Z-0.1000 S500
G1 F1500 X225.4160 Y20.7219 Z-0.1000 S500
G1 F1500 X225.4160 Y20.7219 Z-0.1000 S500
G1 F1500 X225.4160 Y20.7219 Z-0.1000 S500
G1 F1500 X224.3966 Y20.8021 Z-0.1000 S500
G1 F1500 X223.4023 Y21.0408 Z-0.1000 S500
G1 F1500 X222.4576 Y21.4321 Z-0.1000 S500
G1 F1500 X221.5858 Y21.9664 Z-0.1000 S500
G1 F1500 X220.8082 Y22.6305 Z-0.1000 S500
G1 F1500 X220.1442 Y23.4080 Z-0.1000 S500
G1 F1500 X219.6099 Y24.2798 Z-0.1000 S500
G1 F1500 X219.2186 Y25.2245 Z-0.1000 S500
G1 F1500 X218.9799 Y26.2188 Z-0.1000 S500
G1 F1500 X218.8996 Y27.2382 Z-0.1000 S500
G1 F1500 X218.8996 Y27.2382 Z-0.1000 S500
G1 F1500 X218.8996 Y27.2382 Z-0.1000 S500
G1 F1500 X218.9799 Y28.2576 Z-0.1000 S500
G1 F1500 X219.2186 Y29.2519 Z-0.1000 S500
G1 F1500 X219.6099 Y30.1966 Z-0.1000 S500
G1 F1500 X220.1442 Y31.0684 Z-0.1000 S500
G1 F1500 X220.8082 Y31.8460 Z-0.1000 S500
G1 F1500 X221.5858 Y32.5100 Z-0.1000 S500
G1 F1500 X222.4576 Y33.0443 Z-0.1000 S500
G1 F1500 X223.4023 Y33.4356 Z-0.1000 S500
G1 F1500 X224.3966 Y33.6743 Z-0.1000 S500
G1 F1500 X225.4160 Y33.7546 Z-0.1000 S500
G1 F1500 X225.4160 Y33.7546 Z-0.1000 S500
G1 F1500 X225.4160 Y33.7546 Z-0.1000 S500
G1 F1500 X226.4354 Y33.6743 Z-0.1000 S500
G1 F1500 X227.4297 Y33.4356 Z-0.1000 S500
G1 F1500 X228.3744 Y33.0443 Z-0.1000 S500
G1 F1500 X229.2462 Y32.5100 Z-0.1000 S500
G1 F1500 X230.0237 Y31.8460 Z-0.1000 S500
G1 F1500 X230.6878 Y31.0684 Z-0.1000 S500
G1 F1500 X231.2221 Y30.1966 Z-0.1000 S500
G1 F1500 X231.6134 Y29.2519 Z-0.1000 S500
G1 F1500 X231.8521 Y28.2576 Z-0.1000 S500
G1 F1500 X231.9323 Y27.2382 Z-0.1000 S500
G1 F1500 X231.9323 Y27.2382 Z-0.1000 S500
G1 F1500 X231.9323 Y27.2382 Z-0.1000 S500

G0 Z0; move to z-safe height
G0 X132.4134 Y27.2382

G0 Z0
G1 F300 Z-0.1000
G1 F1500 X132.4134 Y27.2382 Z-0.1000 S500
G1 F1500 X132.3331 Y26.2188 Z-0.1000 S500
G1 F1500 X132.0944 Y25.2245 Z-0.1000 S500
G1 F1500 X131.7031 Y24.2798 Z-0.1000 S500
G1 F1500 X131.1688 Y23.4080 Z-0.1000 S500
G1 F1500 X130.5048 Y22.6305 Z-0.1000 S500
G1 F1500 X129.7272 Y21.9664 Z-0.1000 S500
G1 F1500 X128.8554 Y21.4321 Z-0.1000 S500
G1 F1500 X127.9107 Y21.0408 Z-0.1000 S500
G1 F1500 X126.9164 Y20.8021 Z-0.1000 S500
G1 F1500 X125.8970 Y20.7219 Z-0.1000 S500
G1 F1500 X125.8970 Y20.7219 Z-0.1000 S500
G1 F1500 X125.8970 Y20.7219 Z-0.1000 S500
G1 F1500 X124.8776 Y20.8021 Z-0.1000 S500
G1 F1500 X123.8833 Y21.0408 Z-0.1000 S500
G1 F1500 X122.9386 Y21.4321 Z-0.1000 S500
G1 F1500 X122.0668 Y21.9664 Z-0.1000 S500
G1 F1500 X121.2892 Y22.6305 Z-0.1000 S500
G1 F1500 X120.6252 Y23.4080 Z-0.1000 S500
G1 F1500 X120.0909 Y24.2798 Z-0.1000 S500
G1 F1500 X119.6996 Y25.2245 Z-0.1000 S500
G1 F1500 X119.4609 Y26.2188 Z-0.1000 S500
G1 F1500 X119.3807 Y27.2382 Z-0.1000 S500
G1 F1500 X119.3807 Y27.2382 Z-0.1000 S500
G1 F1500 X119.3807 Y27.2382 Z-0.1000 S500
G1 F1500 X119.4609 Y28.2576 Z-0.1000 S500
G1 F1500 X119.6996 Y29.2519 Z-0.1000 S500
G1 F1500 X120.0909 Y30.1966 Z-0.1000 S500
G1 F1500 X120.6252 Y31.0684 Z-0.1000 S500
G1 F1500 X121.2892 Y31.8460 Z-0.1000 S500
G1 F1500 X122.0668 Y32.5100 Z-0.1000 S500
G1 F1500 X122.9386 Y33.0443 Z-0.1000 S500
G1 F1500 X123.8833 Y33.4356 Z-0.1000 S500
G1 F1500 X124.8776 Y33.6743 Z-0.1000 S500
G1 F1500 X125.8970 Y33.7546 Z-0.1000 S500
G1 F1500 X125.8970 Y33.7546 Z-0.1000 S500
G1 F1500 X125.8970 Y33.7546 Z-0.1000 S500
G1 F1500 X126.9164 Y33.6743 Z-0.1000 S500
G1 F1500 X127.9107 Y33.4356 Z-0.1000 S500
G1 F1500 X128.8554 Y33.0443 Z-0.1000 S500
G1 F1500 X129.7272 Y32.5100 Z-0.1000 S500
G1 F1500 X130.5048 Y31.8460 Z-0.1000 S500
G1 F1500 X131.1688 Y31.0684 Z-0.1000 S500
G1 F1500 X131.7031 Y30.1966 Z-0.1000 S500
G1 F1500 X132.0944 Y29.2519 Z-0.1000 S500
G1 F1500 X132.3331 Y28.2576 Z-0.1000 S500
G1 F1500 X132.4134 Y27.2382 Z-0.1000 S500
G1 F1500 X132.4134 Y27.2382 Z-0.1000 S500
G1 F1500 X132.4134 Y27.2382 Z-0.1000 S500

G0 Z0; move to z-safe height
G0 X61.7977 Y249.1467

G0 Z0
G1 F300 Z-0.1000
G1 F1500 X61.7977 Y249.1467 Z-0.1000 S500
G1 F1500 X62.8919 Y249.5762 Z-0.1000 S500
G1 F1500 X63.7146 Y250.2844 Z-0.1000 S500
G1 F1500 X64.2938 Y251.1184 Z-0.1000 S500
G1 F1500 X64.2938 Y251.1184 Z-0.1000 S500
G1 F1500 X64.6473 Y251.9998 Z-0.1000 S500
G1 F1500 X64.8824 Y252.9037 Z-0.1000 S500
G1 F1500 X65.0191 Y253.8192 Z-0.1000 S500
G1 F1500 X65.0191 Y253.8192 Z-0.1000 S500
G1 F1500 X65.1385 Y254.9131 Z-0.1000 S500
G1 F1500 X65.2054 Y256.0096 Z-0.1000 S500
G1 F1500 X65.2264 Y257.1071 Z-0.1000 S500
G1 F1500 X65.2264 Y257.1071 Z-0.1000 S500
G1 F1500 X65.2054 Y258.2047 Z-0.1000 S500
G1 F1500 X65.1385 Y259.3011 Z-0.1000 S500
G1 F1500 X65.0191 Y260.3951 Z-0.1000 S500
G1 F1500 X65.0191 Y260.3951 Z-0.1000 S500
G1 F1500 X64.8856 Y261.3111 Z-0.1000 S500
G1 F1500 X64.6528 Y262.2155 Z-0.1000 S500
G1 F1500 X64.2938 Y263.0959 Z-0.1000 S500
G1 F1500 X64.2938 Y263.0959 Z-0.1000 S500
G1 F1500 X63.6650 Y263.9913 Z-0.1000 S500
G1 F1500 X62.7545 Y264.7365 Z-0.1000 S500
G1 F1500 X61.5927 Y265.2388 Z-0.1000 S500
G1 F1500 X61.6047 Y269.7158 Z-0.1000 S500
G1 F1500 X61.6047 Y269.7158 Z-0.1000 S500
G1 F1500 X62.8534 Y269.6717 Z-0.1000 S500
G1 F1500 X64.0844 Y269.5106 Z-0.1000 S500
G1 F1500 X65.2565 Y269.1860 Z-0.1000 S500
G1 F1500 X66.3099 Y268.6803 Z-0.1000 S500
G1 F1500 X67.2195 Y268.0334 Z-0.1000 S500
G1 F1500 X68.0167 Y267.3060 Z-0.1000 S500
G1 F1500 X68.7494 Y266.5404 Z-0.1000 S500
G1 F1500 X68.7494 Y266.5404 Z-0.1000 S500
G1 F1500 X69.4372 Y265.7054 Z-0.1000 S500
G1 F1500 X70.0078 Y264.8213 Z-0.1000 S500
G1 F1500 X70.4727 Y263.9024 Z-0.1000 S500
G1 F1500 X70.8448 Y262.9596 Z-0.1000 S500
G1 F1500 X71.1359 Y262.0006 Z-0.1000 S500
G1 F1500 X71.3568 Y261.0310 Z-0.1000 S500
G1 F1500 X71.5167 Y260.0545 Z-0.1000 S500
G1 F1500 X71.6235 Y259.0739 Z-0.1000 S500
G1 F1500 X71.6836 Y258.0910 Z-0.1000 S500
G1 F1500 X71.7026 Y257.1071 Z-0.1000 S500
G1 F1500 X71.7026 Y257.1071 Z-0.1000 S500
G1 F1500 X71.6831 Y256.1183 Z-0.1000 S500
G1 F1500 X71.6213 Y255.1304 Z-0.1000 S500
G1 F1500 X71.5118 Y254.1450 Z-0.1000 S500
G1 F1500 X71.3478 Y253.1639 Z-0.1000 S500
G1 F1500 X71.1216 Y252.1899 Z-0.1000 S500
G1 F1500 X70.8240 Y251.2270 Z-0.1000 S500
G1 F1500 X70.4444 Y250.2807 Z-0.1000 S500
G1 F1500 X69.9713 Y249.3589 Z-0.1000 S500
G1 F1500 X69.3926 Y248.4722 Z-0.1000 S500
G1 F1500 X68.6976 Y247.6348 Z-0.1000 S500
G1 F1500 X68.6976 Y247.6348 Z-0.1000 S500
G1 F1500 X67.9854 Y246.8993 Z-0.1000 S500
G1 F1500 X67.2284 Y246.1902 Z-0.1000 S500
G1 F1500 X66.3757 Y245.5469 Z-0.1000 S500
G1 F1500 X65.3819 Y245.0339 Z-0.1000 S500
G1 F1500 X64.2606 Y244.7034 Z-0.1000 S500
G1 F1500 X63.0749 Y244.5419 Z-0.1000 S500
G1 F1500 X61.8706 Y244.4985 Z-0.1000 S500
G1 F1500 X61.7977 Y249.1467 Z-0.1000 S500
G1 F1500 X61.7977 Y249.1467 Z-0.1000 S500

G0 Z0; move to z-safe height
G0 X59.1307 Y244.5327

G0 Z0
G1 F300 Z-0.1000
G1 F1500 X59.1307 Y244.5327 Z-0.1000 S500
G1 F1500 X57.8383 Y244.5770 Z-0.1000 S500
G1 F1500 X56.5619 Y244.7338 Z-0.1000 S500
G1 F1500 X55.3351 Y245.0410 Z-0.1000 S500
G1 F1500 X54.2069 Y245.5169 Z-0.1000 S500
G1 F1500 X53.2099 Y246.1385 Z-0.1000 S500
G1 F1500 X52.3350 Y246.8583 Z-0.1000 S500
G1 F1500 X51.5488 Y247.6348 Z-0.1000 S500
G1 F1500 X51.5488 Y247.6348 Z-0.1000 S500
G1 F1500 X50.8637 Y248.4752 Z-0.1000 S500
G1 F1500 X50.2943 Y249.3638 Z-0.1000 S500
G1 F1500 X49.8295 Y250.2866 Z-0.1000 S500
G1 F1500 X49.4570 Y251.2331 Z-0.1000 S500
G1 F1500 X49.1652 Y252.1957 Z-0.1000 S500
G1 F1500 X48.9434 Y253.1688 Z-0.1000 S500
G1 F1500 X48.7827 Y254.1489 Z-0.1000 S500
G1 F1500 X48.6753 Y255.1331 Z-0.1000 S500
G1 F1500 X48.6148 Y256.1196 Z-0.1000 S500
G1 F1500 X48.5957 Y257.1071 Z-0.1000 S500
G1 F1500 X48.5957 Y257.1071 Z-0.1000 S500
G1 F1500 X48.6155 Y258.0937 Z-0.1000 S500
G1 F1500 X48.6780 Y259.0794 Z-0.1000 S500
G1 F1500 X48.7892 Y260.0624 Z-0.1000 S500
G1 F1500 X48.9557 Y261.0411 Z-0.1000 S500
G1 F1500 X49.1855 Y262.0122 Z-0.1000 S500
G1 F1500 X49.4881 Y262.9720 Z-0.1000 S500
G1 F1500 X49.8743 Y263.9144 Z-0.1000 S500
G1 F1500 X50.3559 Y264.8313 Z-0.1000 S500
G1 F1500 X50.9451 Y265.7115 Z-0.1000 S500
G1 F1500 X51.6525 Y266.5404 Z-0.1000 S500
G1 F1500 X51.6525 Y266.5404 Z-0.1000 S500
G1 F1500 X52.4139 Y267.3005 Z-0.1000 S500
G1 F1500 X53.2471 Y268.0159 Z-0.1000 S500
G1 F1500 X54.1902 Y268.6479 Z-0.1000 S500
G1 F1500 X55.2652 Y269.1441 Z-0.1000 S500
G1 F1500 X56.4492 Y269.4693 Z-0.1000 S500
G1 F1500 X57.6906 Y269.6352 Z-0.1000 S500
G1 F1500 X58.9505 Y269.6815 Z-0.1000 S500
G1 F1500 X58.9196 Y265.1703 Z-0.1000 S500
G1 F1500 X58.9196 Y265.1703 Z-0.1000 S500
G1 F1500 X57.6404 Y264.7282 Z-0.1000 S500
G1 F1500 X56.6260 Y263.9913 Z-0.1000 S500
G1 F1500 X55.9526 Y263.0567 Z-0.1000 S500
G1 F1500 X55.9526 Y263.0567 Z-0.1000 S500
G1 F1500 X55.6187 Y262.1850 Z-0.1000 S500
G1 F1500 X55.3837 Y261.2950 Z-0.1000 S500
G1 F1500 X55.2273 Y260.3951 Z-0.1000 S500
G1 F1500 X55.2273 Y260.3951 Z-0.1000 S500
G1 F1500 X55.1377 Y259.3002 Z-0.1000 S500
G1 F1500 X55.0876 Y258.2040 Z-0.1000 S500
G1 F1500 X55.0719 Y257.1071 Z-0.1000 S500
G1 F1500 X55.0719 Y257.1071 Z-0.1000 S500
G1 F1500 X55.0879 Y255.9972 Z-0.1000 S500
G1 F1500 X55.1383 Y254.8879 Z-0.1000 S500
G1 F1500 X55.2273 Y253.7801 Z-0.1000 S500
G1 F1500 X55.2273 Y253.7801 Z-0.1000 S500
G1 F1500 X55.3837 Y252.8801 Z-0.1000 S500
G1 F1500 X55.6187 Y251.9901 Z-0.1000 S500
G1 F1500 X55.9526 Y251.1184 Z-0.1000 S500
G1 F1500 X55.9526 Y251.1184 Z-0.1000 S500
G1 F1500 X56.7496 Y250.2126 Z-0.1000 S500
G1 F1500 X57.8247 Y249.4843 Z-0.1000 S500
G1 F1500 X59.1337 Y249.0440 Z-0.1000 S500
G1 F1500 X59.1307 Y244.5327 Z-0.1000 S500
G1 F1500 X59.1307 Y244.5327 Z-0.1000 S500

G0 Z0; move to z-safe height
G0 X331.4264 Y83.6166

G0 Z0
G1 F300 Z-0.1000
G1 F1500 X331.4264 Y79.8066 Z-0.1000 S500
G1 F1500 X314.5100 Y79.8066 Z-0.1000 S500
G1 F1500 X314.5100 Y104.0302 Z-0.1000 S500
G1 F1500 X319.3764 Y104.0302 Z-0.1000 S500
G1 F1500 X319.3764 Y83.6166 Z-0.1000 S500
G1 F1500 X331.4264 Y83.6166 Z-0.1000 S500
G1 F1500 X331.4264 Y83.6166 Z-0.1000 S500

G0 Z0; move to z-safe height
G0 X232.5318 Y215.5629

G0 Z0
G1 F300 Z-0.1000
G1 F1500 X232.5318 Y211.7215 Z-0.1000 S500
G1 F1500 X215.4765 Y211.7215 Z-0.1000 S500
G1 F1500 X215.4765 Y236.1441 Z-0.1000 S500
G1 F1500 X220.3828 Y236.1441 Z-0.1000 S500
G1 F1500 X220.3828 Y215.5629 Z-0.1000 S500
G1 F1500 X232.5318 Y215.5629 Z-0.1000 S500
G1 F1500 X232.5318 Y215.5629 Z-0.1000 S500

G0 Z0; move to z-safe height
G0 X101.0392 Y215.6871

G0 Z0
G1 F300 Z-0.1000
G1 F1500 X101.0392 Y211.8458 Z-0.1000 S500
G1 F1500 X83.9839 Y211.8458 Z-0.1000 S500
G1 F1500 X83.9839 Y236.2684 Z-0.1000 S500
G1 F1500 X88.8902 Y236.2684 Z-0.1000 S500
G1 F1500 X88.8902 Y215.6871 Z-0.1000 S500
G1 F1500 X101.0392 Y215.6871 Z-0.1000 S500
G1 F1500 X101.0392 Y215.6871 Z-0.1000 S500

G0 Z0; move to z-safe height
G0 X363.5349 Y281.6196

G0 Z0
G1 F300 Z-0.1000
G1 F1500 X363.5349 Y277.7508 Z-0.1000 S500
G1 F1500 X346.3580 Y277.7508 Z-0.1000 S500
G1 F1500 X346.3580 Y302.3476 Z-0.1000 S500
G1 F1500 X351.2993 Y302.3476 Z-0.1000 S500
G1 F1500 X351.2993 Y281.6196 Z-0.1000 S500
G1 F1500 X363.5349 Y281.6196 Z-0.1000 S500
G1 F1500 X363.5349 Y281.6196 Z-0.1000 S500

G0 Z0; move to z-safe height
G0 X266.5199 Y50.5973

G0 Z0
G1 F300 Z-0.1000
G1 F1500 X266.5199 Y46.7188 Z-0.1000 S500
G1 F1500 X249.2999 Y46.7188 Z-0.1000 S500
G1 F1500 X249.2999 Y71.3772 Z-0.1000 S500
G1 F1500 X254.2536 Y71.3772 Z-0.1000 S500
G1 F1500 X254.2536 Y50.5973 Z-0.1000 S500
G1 F1500 X266.5199 Y50.5973 Z-0.1000 S500
G1 F1500 X266.5199 Y50.5973 Z-0.1000 S500

G0 Z0; move to z-safe height
G0 X367.2966 Y137.7930

G0 Z0
G1 F300 Z-0.1000
G1 F1500 X367.2966 Y133.9511 Z-0.1000 S500
G1 F1500 X359.0014 Y133.9511 Z-0.1000 S500
G1 F1500 X359.0014 Y113.3670 Z-0.1000 S500
G1 F1500 X354.0555 Y113.3670 Z-0.1000 S500
G1 F1500 X354.0555 Y133.9511 Z-0.1000 S500
G1 F1500 X345.7603 Y133.9511 Z-0.1000 S500
G1 F1500 X345.7603 Y137.7930 Z-0.1000 S500
G1 F1500 X367.2966 Y137.7930 Z-0.1000 S500
G1 F1500 X367.2966 Y137.7930 Z-0.1000 S500

G0 Z0; move to z-safe height
G0 X126.3661 Y259.3298

G0 Z0
G1 F300 Z-0.1000
G1 F1500 X126.3661 Y259.3298 Z-0.1000 S500
G1 F1500 X126.8570 Y260.0740 Z-0.1000 S500
G1 F1500 X127.3442 Y260.8203 Z-0.1000 S500
G1 F1500 X127.8277 Y261.5684 Z-0.1000 S500
G1 F1500 X128.3075 Y262.3186 Z-0.1000 S500
G1 F1500 X128.7836 Y263.0706 Z-0.1000 S500
G1 F1500 X129.2560 Y263.8245 Z-0.1000 S500
G1 F1500 X129.7248 Y264.5804 Z-0.1000 S500
G1 F1500 X129.7248 Y264.5804 Z-0.1000 S500
G1 F1500 X130.1813 Y265.3307 Z-0.1000 S500
G1 F1500 X130.6277 Y266.0859 Z-0.1000 S500
G1 F1500 X131.0639 Y266.8461 Z-0.1000 S500
G1 F1500 X131.4896 Y267.6111 Z-0.1000 S500
G1 F1500 X131.9046 Y268.3809 Z-0.1000 S500
G1 F1500 X132.3088 Y269.1554 Z-0.1000 S500
G1 F1500 X132.7018 Y269.9345 Z-0.1000 S500
G1 F1500 X138.0452 Y269.9345 Z-0.1000 S500
G1 F1500 X138.0452 Y269.9345 Z-0.1000 S500
G1 F1500 X137.6134 Y269.1984 Z-0.1000 S500
G1 F1500 X137.1782 Y268.4638 Z-0.1000 S500
G1 F1500 X136.7398 Y267.7309 Z-0.1000 S500
G1 F1500 X136.2980 Y266.9996 Z-0.1000 S500
G1 F1500 X135.8530 Y266.2699 Z-0.1000 S500
G1 F1500 X135.4047 Y265.5418 Z-0.1000 S500
G1 F1500 X134.9533 Y264.8154 Z-0.1000 S500
G1 F1500 X134.4986 Y264.0906 Z-0.1000 S500
G1 F1500 X134.0407 Y263.3675 Z-0.1000 S500
G1 F1500 X133.5797 Y262.6459 Z-0.1000 S500
G1 F1500 X133.5797 Y262.6459 Z-0.1000 S500
G1 F1500 X133.1072 Y261.9097 Z-0.1000 S500
G1 F1500 X132.6301 Y261.1759 Z-0.1000 S500
G1 F1500 X132.1484 Y260.4445 Z-0.1000 S500
G1 F1500 X131.6623 Y259.7155 Z-0.1000 S500
G1 F1500 X131.1717 Y258.9890 Z-0.1000 S500
G1 F1500 X130.6769 Y258.2649 Z-0.1000 S500
G1 F1500 X130.1779 Y257.5431 Z-0.1000 S500
G1 F1500 X129.6747 Y256.8237 Z-0.1000 S500
G1 F1500 X129.1674 Y256.1066 Z-0.1000 S500
G1 F1500 X128.6561 Y255.3919 Z-0.1000 S500
G1 F1500 X128.6561 Y245.9962 Z-0.1000 S500
G1 F1500 X123.8471 Y245.9962 Z-0.1000 S500
G1 F1500 X123.8471 Y255.3228 Z-0.1000 S500
G1 F1500 X123.8471 Y255.3228 Z-0.1000 S500
G1 F1500 X123.3344 Y256.0458 Z-0.1000 S500
G1 F1500 X122.8252 Y256.7709 Z-0.1000 S500
G1 F1500 X122.3196 Y257.4980 Z-0.1000 S500
G1 F1500 X121.8176 Y258.2271 Z-0.1000 S500
G1 F1500 X121.3193 Y258.9583 Z-0.1000 S500
G1 F1500 X120.8247 Y259.6916 Z-0.1000 S500
G1 F1500 X120.3340 Y260.4270 Z-0.1000 S500
G1 F1500 X119.8471 Y261.1645 Z-0.1000 S500
G1 F1500 X119.3642 Y261.9042 Z-0.1000 S500
G1 F1500 X118.8854 Y262.6459 Z-0.1000 S500
G1 F1500 X118.8854 Y262.6459 Z-0.1000 S500
G1 F1500 X118.4243 Y263.3675 Z-0.1000 S500
G1 F1500 X117.9665 Y264.0906 Z-0.1000 S500
G1 F1500 X117.5118 Y264.8154 Z-0.1000 S500
G1 F1500 X117.0603 Y265.5418 Z-0.1000 S500
G1 F1500 X116.6121 Y266.2699 Z-0.1000 S500
G1 F1500 X116.1671 Y266.9996 Z-0.1000 S500
G1 F1500 X115.7253 Y267.7309 Z-0.1000 S500
G1 F1500 X115.2868 Y268.4638 Z-0.1000 S500
G1 F1500 X114.8517 Y269.1984 Z-0.1000 S500
G1 F1500 X114.4198 Y269.9345 Z-0.1000 S500
G1 F1500 X120.0686 Y269.9345 Z-0.1000 S500
G1 F1500 X120.0686 Y269.9345 Z-0.1000 S500
G1 F1500 X120.4599 Y269.1572 Z-0.1000 S500
G1 F1500 X120.8610 Y268.3838 Z-0.1000 S500
G1 F1500 X121.2717 Y267.6147 Z-0.1000 S500
G1 F1500 X121.6919 Y266.8497 Z-0.1000 S500
G1 F1500 X122.1213 Y266.0890 Z-0.1000 S500
G1 F1500 X122.5599 Y265.3325 Z-0.1000 S500
G1 F1500 X123.0074 Y264.5804 Z-0.1000 S500
G1 F1500 X123.0074 Y264.5804 Z-0.1000 S500
G1 F1500 X123.4691 Y263.8209 Z-0.1000 S500
G1 F1500 X123.9369 Y263.0645 Z-0.1000 S500
G1 F1500 X124.4107 Y262.3112 Z-0.1000 S500
G1 F1500 X124.8906 Y261.5611 Z-0.1000 S500
G1 F1500 X125.3765 Y260.8141 Z-0.1000 S500
G1 F1500 X125.8683 Y260.0703 Z-0.1000 S500
G1 F1500 X126.3661 Y259.3298 Z-0.1000 S500
G1 F1500 X126.3661 Y259.3298 Z-0.1000 S500
G1 F1500 X126.3661 Y259.3298 Z-0.1000 S500

G0 Z0; move to z-safe height
G0 X301.5041 Y302.5284

G0 Z0
G1 F300 Z-0.1000
G1 F1500 X301.5041 Y298.6596 Z-0.1000 S500
G1 F1500 X293.1509 Y298.6596 Z-0.1000 S500
G1 F1500 X293.1509 Y277.9317 Z-0.1000 S500
G1 F1500 X288.1704 Y277.9317 Z-0.1000 S500
G1 F1500 X288.1704 Y298.6596 Z-0.1000 S500
G1 F1500 X279.8172 Y298.6596 Z-0.1000 S500
G1 F1500 X279.8172 Y302.5284 Z-0.1000 S500
G1 F1500 X301.5041 Y302.5284 Z-0.1000 S500
G1 F1500 X301.5041 Y302.5284 Z-0.1000 S500

G0 Z0; move to z-safe height
G0 X25.1552 Y245.5032

G0 Z0
G1 F300 Z-0.1000
G1 F1500 X25.1552 Y245.5032 Z-0.1000 S500
G1 F1500 X24.8235 Y246.2746 Z-0.1000 S500
G1 F1500 X24.4948 Y247.0474 Z-0.1000 S500
G1 F1500 X24.1691 Y247.8217 Z-0.1000 S500
G1 F1500 X23.8463 Y248.5973 Z-0.1000 S500
G1 F1500 X23.5263 Y249.3743 Z-0.1000 S500
G1 F1500 X23.2092 Y250.1527 Z-0.1000 S500
G1 F1500 X22.8949 Y250.9323 Z-0.1000 S500
G1 F1500 X22.5834 Y251.7132 Z-0.1000 S500
G1 F1500 X22.2746 Y252.4954 Z-0.1000 S500
G1 F1500 X21.9686 Y253.2788 Z-0.1000 S500
G1 F1500 X21.6652 Y254.0634 Z-0.1000 S500
G1 F1500 X21.3645 Y254.8492 Z-0.1000 S500
G1 F1500 X21.0664 Y255.6361 Z-0.1000 S500
G1 F1500 X20.7709 Y256.4242 Z-0.1000 S500
G1 F1500 X20.4780 Y257.2133 Z-0.1000 S500
G1 F1500 X20.4780 Y257.2133 Z-0.1000 S500
G1 F1500 X20.1848 Y258.0223 Z-0.1000 S500
G1 F1500 X19.8938 Y258.8321 Z-0.1000 S500
G1 F1500 X19.6051 Y259.6429 Z-0.1000 S500
G1 F1500 X19.3186 Y260.4545 Z-0.1000 S500
G1 F1500 X19.0343 Y261.2671 Z-0.1000 S500
G1 F1500 X18.7522 Y262.0806 Z-0.1000 S500
G1 F1500 X18.4725 Y262.8950 Z-0.1000 S500
G1 F1500 X18.1950 Y263.7102 Z-0.1000 S500
G1 F1500 X17.9198 Y264.5264 Z-0.1000 S500
G1 F1500 X17.6469 Y265.3434 Z-0.1000 S500
G1 F1500 X17.3762 Y266.1613 Z-0.1000 S500
G1 F1500 X17.1079 Y266.9801 Z-0.1000 S500
G1 F1500 X16.8420 Y267.7997 Z-0.1000 S500
G1 F1500 X16.5783 Y268.6202 Z-0.1000 S500
G1 F1500 X16.3170 Y269.4416 Z-0.1000 S500
G1 F1500 X20.8006 Y269.4416 Z-0.1000 S500
G1 F1500 X20.8006 Y269.4416 Z-0.1000 S500
G1 F1500 X21.0641 Y268.6184 Z-0.1000 S500
G1 F1500 X21.3276 Y267.7951 Z-0.1000 S500
G1 F1500 X21.5911 Y266.9718 Z-0.1000 S500
G1 F1500 X21.8545 Y266.1485 Z-0.1000 S500
G1 F1500 X22.1178 Y265.3252 Z-0.1000 S500
G1 F1500 X22.3811 Y264.5019 Z-0.1000 S500
G1 F1500 X22.3811 Y264.5019 Z-0.1000 S500
G1 F1500 X22.6472 Y263.6719 Z-0.1000 S500
G1 F1500 X22.9143 Y262.8422 Z-0.1000 S500
G1 F1500 X23.1825 Y262.0130 Z-0.1000 S500
G1 F1500 X23.4519 Y261.1841 Z-0.1000 S500
G1 F1500 X23.7223 Y260.3557 Z-0.1000 S500
G1 F1500 X23.9939 Y259.5277 Z-0.1000 S500
G1 F1500 X23.9939 Y259.5277 Z-0.1000 S500
G1 F1500 X24.2570 Y258.7425 Z-0.1000 S500
G1 F1500 X24.5223 Y257.9582 Z-0.1000 S500
G1 F1500 X24.7899 Y257.1747 Z-0.1000 S500
G1 F1500 X25.0598 Y256.3921 Z-0.1000 S500
G1 F1500 X25.3320 Y255.6105 Z-0.1000 S500
G1 F1500 X25.6067 Y254.8299 Z-0.1000 S500
G1 F1500 X25.6067 Y254.8299 Z-0.1000 S500
G1 F1500 X25.9082 Y253.9877 Z-0.1000 S500
G1 F1500 X26.2164 Y253.1482 Z-0.1000 S500
G1 F1500 X26.5318 Y252.3119 Z-0.1000 S500
G1 F1500 X26.8551 Y251.4790 Z-0.1000 S500
G1 F1500 X27.1873 Y250.6502 Z-0.1000 S500
G1 F1500 X27.1873 Y250.6502 Z-0.1000 S500
G1 F1500 X27.5063 Y251.4752 Z-0.1000 S500
G1 F1500 X27.8201 Y252.3024 Z-0.1000 S500
G1 F1500 X28.1294 Y253.1316 Z-0.1000 S500
G1 F1500 X28.4344 Y253.9627 Z-0.1000 S500
G1 F1500 X28.7356 Y254.7953 Z-0.1000 S500
G1 F1500 X28.7356 Y254.7953 Z-0.1000 S500
G1 F1500 X29.0117 Y255.5812 Z-0.1000 S500
G1 F1500 X29.2848 Y256.3682 Z-0.1000 S500
G1 F1500 X29.5550 Y257.1564 Z-0.1000 S500
G1 F1500 X29.8222 Y257.9458 Z-0.1000 S500
G1 F1500 X30.0866 Y258.7362 Z-0.1000 S500
G1 F1500 X30.3484 Y259.5277 Z-0.1000 S500
G1 F1500 X30.3484 Y259.5277 Z-0.1000 S500
G1 F1500 X30.6294 Y260.3541 Z-0.1000 S500
G1 F1500 X30.9076 Y261.1816 Z-0.1000 S500
G1 F1500 X31.1831 Y262.0102 Z-0.1000 S500
G1 F1500 X31.4559 Y262.8398 Z-0.1000 S500
G1 F1500 X31.7260 Y263.6703 Z-0.1000 S500
G1 F1500 X31.9934 Y264.5019 Z-0.1000 S500
G1 F1500 X31.9934 Y264.5019 Z-0.1000 S500
G1 F1500 X32.2554 Y265.3238 Z-0.1000 S500
G1 F1500 X32.5159 Y266.1462 Z-0.1000 S500
G1 F1500 X32.7748 Y266.9692 Z-0.1000 S500
G1 F1500 X33.0321 Y267.7927 Z-0.1000 S500
G1 F1500 X33.2877 Y268.6169 Z-0.1000 S500
G1 F1500 X33.5417 Y269.4416 Z-0.1000 S500
G1 F1500 X37.8963 Y269.4416 Z-0.1000 S500
G1 F1500 X37.8963 Y269.4416 Z-0.1000 S500
G1 F1500 X37.6310 Y268.6209 Z-0.1000 S500
G1 F1500 X37.3637 Y267.8009 Z-0.1000 S500
G1 F1500 X37.0942 Y266.9817 Z-0.1000 S500
G1 F1500 X36.8228 Y266.1633 Z-0.1000 S500
G1 F1500 X36.5492 Y265.3457 Z-0.1000 S500
G1 F1500 X36.2737 Y264.5289 Z-0.1000 S500
G1 F1500 X35.9961 Y263.7128 Z-0.1000 S500
G1 F1500 X35.7164 Y262.8976 Z-0.1000 S500
G1 F1500 X35.4348 Y262.0831 Z-0.1000 S500
G1 F1500 X35.1511 Y261.2695 Z-0.1000 S500
G1 F1500 X34.8655 Y260.4566 Z-0.1000 S500
G1 F1500 X34.5778 Y259.6446 Z-0.1000 S500
G1 F1500 X34.2882 Y258.8334 Z-0.1000 S500
G1 F1500 X33.9966 Y258.0229 Z-0.1000 S500
G1 F1500 X33.7030 Y257.2133 Z-0.1000 S500
G1 F1500 X33.7030 Y257.2133 Z-0.1000 S500
G1 F1500 X33.4139 Y256.4235 Z-0.1000 S500
G1 F1500 X33.1220 Y255.6349 Z-0.1000 S500
G1 F1500 X32.8272 Y254.8475 Z-0.1000 S500
G1 F1500 X32.5296 Y254.0613 Z-0.1000 S500
G1 F1500 X32.2292 Y253.2764 Z-0.1000 S500
G1 F1500 X31.9257 Y252.4928 Z-0.1000 S500
G1 F1500 X31.6194 Y251.7105 Z-0.1000 S500
G1 F1500 X31.3100 Y250.9295 Z-0.1000 S500
G1 F1500 X30.9976 Y250.1499 Z-0.1000 S500
G1 F1500 X30.6822 Y249.3718 Z-0.1000 S500
G1 F1500 X30.3637 Y248.5950 Z-0.1000 S500
G1 F1500 X30.0421 Y247.8198 Z-0.1000 S500
G1 F1500 X29.7173 Y247.0460 Z-0.1000 S500
G1 F1500 X29.3893 Y246.2738 Z-0.1000 S500
G1 F1500 X29.0581 Y245.5032 Z-0.1000 S500
G1 F1500 X25.1552 Y245.5032 Z-0.1000 S500
G1 F1500 X25.1552 Y245.5032 Z-0.1000 S500

G0 Z0; move to z-safe height
G0 X203.2939 Y370.3949

G0 Z0
G1 F300 Z-0.1000
G1 F1500 X203.2939 Y366.3767 Z-0.1000 S500
G1 F1500 X194.6181 Y366.3767 Z-0.1000 S500
G1 F1500 X194.6181 Y344.8481 Z-0.1000 S500
G1 F1500 X189.4452 Y344.8481 Z-0.1000 S500
G1 F1500 X189.4452 Y366.3767 Z-0.1000 S500
G1 F1500 X180.7694 Y366.3767 Z-0.1000 S500
G1 F1500 X180.7694 Y370.3949 Z-0.1000 S500
G1 F1500 X203.2939 Y370.3949 Z-0.1000 S500
G1 F1500 X203.2939 Y370.3949 Z-0.1000 S500

G0 Z0; move to z-safe height
G0 X347.4511 Y79.8066

G0 Z0
G1 F300 Z-0.1000
G1 F1500 X347.4511 Y104.0302 Z-0.1000 S500
G1 F1500 X364.3675 Y104.0302 Z-0.1000 S500
G1 F1500 X364.3675 Y100.2900 Z-0.1000 S500
G1 F1500 X352.3175 Y100.2900 Z-0.1000 S500
G1 F1500 X352.3175 Y94.1030 Z-0.1000 S500
G1 F1500 X363.0157 Y94.1030 Z-0.1000 S500
G1 F1500 X363.0157 Y90.3629 Z-0.1000 S500
G1 F1500 X352.3175 Y90.3629 Z-0.1000 S500
G1 F1500 X352.3175 Y79.8066 Z-0.1000 S500
G1 F1500 X347.4511 Y79.8066 Z-0.1000 S500
G1 F1500 X347.4511 Y79.8066 Z-0.1000 S500

G0 Z0; move to z-safe height
G0 X346.9691 Y211.6824

G0 Z0
G1 F300 Z-0.1000
G1 F1500 X346.9691 Y236.1050 Z-0.1000 S500
G1 F1500 X364.0244 Y236.1050 Z-0.1000 S500
G1 F1500 X364.0244 Y232.3341 Z-0.1000 S500
G1 F1500 X351.8754 Y232.3341 Z-0.1000 S500
G1 F1500 X351.8754 Y226.0963 Z-0.1000 S500
G1 F1500 X362.6616 Y226.0963 Z-0.1000 S500
G1 F1500 X362.6616 Y222.3255 Z-0.1000 S500
G1 F1500 X351.8754 Y222.3255 Z-0.1000 S500
G1 F1500 X351.8754 Y211.6824 Z-0.1000 S500
G1 F1500 X346.9691 Y211.6824 Z-0.1000 S500
G1 F1500 X346.9691 Y211.6824 Z-0.1000 S500

G0 Z0; move to z-safe height
G0 X248.3496 Y212.4992

G0 Z0
G1 F300 Z-0.1000
G1 F1500 X248.3496 Y236.9218 Z-0.1000 S500
G1 F1500 X265.4049 Y236.9218 Z-0.1000 S500
G1 F1500 X265.4049 Y233.1509 Z-0.1000 S500
G1 F1500 X253.2559 Y233.1509 Z-0.1000 S500
G1 F1500 X253.2559 Y226.9131 Z-0.1000 S500
G1 F1500 X264.0421 Y226.9131 Z-0.1000 S500
G1 F1500 X264.0421 Y223.1422 Z-0.1000 S500
G1 F1500 X253.2559 Y223.1422 Z-0.1000 S500
G1 F1500 X253.2559 Y212.4992 Z-0.1000 S500
G1 F1500 X248.3496 Y212.4992 Z-0.1000 S500
G1 F1500 X248.3496 Y212.4992 Z-0.1000 S500

G0 Z0; move to z-safe height
G0 X290.2212 Y211.9643

G0 Z0
G1 F300 Z-0.1000
G1 F1500 X290.2212 Y211.9643 Z-0.1000 S500
G1 F1500 X289.2521 Y211.9820 Z-0.1000 S500
G1 F1500 X288.2860 Y212.0389 Z-0.1000 S500
G1 F1500 X287.3277 Y212.1414 Z-0.1000 S500
G1 F1500 X286.3839 Y212.2969 Z-0.1000 S500
G1 F1500 X285.4648 Y212.5130 Z-0.1000 S500
G1 F1500 X285.4648 Y212.5130 Z-0.1000 S500
G1 F1500 X284.5494 Y212.8146 Z-0.1000 S500
G1 F1500 X283.6822 Y213.1798 Z-0.1000 S500
G1 F1500 X282.8779 Y213.6103 Z-0.1000 S500
G1 F1500 X282.1509 Y214.1042 Z-0.1000 S500
G1 F1500 X282.1509 Y214.1042 Z-0.1000 S500
G1 F1500 X281.5397 Y214.6433 Z-0.1000 S500
G1 F1500 X281.0159 Y215.2261 Z-0.1000 S500
G1 F1500 X280.5832 Y215.8449 Z-0.1000 S500
G1 F1500 X280.2405 Y216.4910 Z-0.1000 S500
G1 F1500 X280.2405 Y216.4910 Z-0.1000 S500
G1 F1500 X279.9562 Y217.2296 Z-0.1000 S500
G1 F1500 X279.7623 Y217.9826 Z-0.1000 S500
G1 F1500 X279.6518 Y218.7439 Z-0.1000 S500
G1 F1500 X279.6167 Y219.5088 Z-0.1000 S500
G1 F1500 X279.6167 Y231.3879 Z-0.1000 S500
G1 F1500 X284.5681 Y231.3879 Z-0.1000 S500
G1 F1500 X284.5681 Y219.8380 Z-0.1000 S500
G1 F1500 X284.5681 Y219.8380 Z-0.1000 S500
G1 F1500 X284.6038 Y219.0897 Z-0.1000 S500
G1 F1500 X284.7249 Y218.3460 Z-0.1000 S500
G1 F1500 X284.9579 Y217.6158 Z-0.1000 S500
G1 F1500 X284.9579 Y217.6158 Z-0.1000 S500
G1 F1500 X285.4342 Y216.8321 Z-0.1000 S500
G1 F1500 X286.1276 Y216.1344 Z-0.1000 S500
G1 F1500 X286.1276 Y216.1344 Z-0.1000 S500
G1 F1500 X286.9564 Y215.6381 Z-0.1000 S500
G1 F1500 X287.9209 Y215.2839 Z-0.1000 S500
G1 F1500 X287.9209 Y215.2839 Z-0.1000 S500
G1 F1500 X289.0729 Y215.0735 Z-0.1000 S500
G1 F1500 X290.2602 Y215.0096 Z-0.1000 S500
G1 F1500 X290.2602 Y215.0096 Z-0.1000 S500
G1 F1500 X291.4475 Y215.0735 Z-0.1000 S500
G1 F1500 X292.5994 Y215.2839 Z-0.1000 S500
G1 F1500 X292.5994 Y215.2839 Z-0.1000 S500
G1 F1500 X293.5702 Y215.6319 Z-0.1000 S500
G1 F1500 X294.3928 Y216.1344 Z-0.1000 S500
G1 F1500 X294.3928 Y216.1344 Z-0.1000 S500
G1 F1500 X295.1011 Y216.8262 Z-0.1000 S500
G1 F1500 X295.5624 Y217.6158 Z-0.1000 S500
G1 F1500 X295.5624 Y217.6158 Z-0.1000 S500
G1 F1500 X295.8182 Y218.3439 Z-0.1000 S500
G1 F1500 X295.9517 Y219.0882 Z-0.1000 S500
G1 F1500 X295.9912 Y219.8380 Z-0.1000 S500
G1 F1500 X295.9912 Y231.3879 Z-0.1000 S500
G1 F1500 X300.9426 Y231.3879 Z-0.1000 S500
G1 F1500 X300.9426 Y219.5088 Z-0.1000 S500
G1 F1500 X300.9426 Y219.5088 Z-0.1000 S500
G1 F1500 X300.9052 Y218.7426 Z-0.1000 S500
G1 F1500 X300.7875 Y217.9804 Z-0.1000 S500
G1 F1500 X300.5813 Y217.2277 Z-0.1000 S500
G1 F1500 X300.2798 Y216.4910 Z-0.1000 S500
G1 F1500 X300.2798 Y216.4910 Z-0.1000 S500
G1 F1500 X299.9330 Y215.8419 Z-0.1000 S500
G1 F1500 X299.4916 Y215.2220 Z-0.1000 S500
G1 F1500 X298.9557 Y214.6401 Z-0.1000 S500
G1 F1500 X298.3304 Y214.1042 Z-0.1000 S500
G1 F1500 X298.3304 Y214.1042 Z-0.1000 S500
G1 F1500 X297.6097 Y213.6051 Z-0.1000 S500
G1 F1500 X296.8055 Y213.1736 Z-0.1000 S500
G1 F1500 X295.9355 Y212.8106 Z-0.1000 S500
G1 F1500 X295.0166 Y212.5130 Z-0.1000 S500
G1 F1500 X295.0166 Y212.5130 Z-0.1000 S500
G1 F1500 X294.0888 Y212.2982 Z-0.1000 S500
G1 F1500 X293.1372 Y212.1428 Z-0.1000 S500
G1 F1500 X292.1714 Y212.0397 Z-0.1000 S500
G1 F1500 X291.1978 Y211.9823 Z-0.1000 S500
G1 F1500 X290.2212 Y211.9643 Z-0.1000 S500
G1 F1500 X290.2212 Y211.9643 Z-0.1000 S500
G1 F1500 X290.2212 Y211.9643 Z-0.1000 S500

G0 Z0; move to z-safe height
G0 X326.6552 Y245.1625

G0 Z0
G1 F300 Z-0.1000
G1 F1500 X326.6552 Y245.1625 Z-0.1000 S500
G1 F1500 X325.7469 Y245.1824 Z-0.1000 S500
G1 F1500 X324.8408 Y245.2447 Z-0.1000 S500
G1 F1500 X323.9402 Y245.3532 Z-0.1000 S500
G1 F1500 X323.0486 Y245.5116 Z-0.1000 S500
G1 F1500 X322.1707 Y245.7235 Z-0.1000 S500
G1 F1500 X321.3119 Y245.9915 Z-0.1000 S500
G1 F1500 X321.3119 Y245.9915 Z-0.1000 S500
G1 F1500 X320.4209 Y246.3418 Z-0.1000 S500
G1 F1500 X319.5662 Y246.7593 Z-0.1000 S500
G1 F1500 X318.7564 Y247.2447 Z-0.1000 S500
G1 F1500 X318.0000 Y247.7962 Z-0.1000 S500
G1 F1500 X317.3043 Y248.4096 Z-0.1000 S500
G1 F1500 X317.3043 Y248.4096 Z-0.1000 S500
G1 F1500 X316.6560 Y249.1132 Z-0.1000 S500
G1 F1500 X316.0801 Y249.8668 Z-0.1000 S500
G1 F1500 X315.5776 Y250.6622 Z-0.1000 S500
G1 F1500 X315.1471 Y251.4916 Z-0.1000 S500
G1 F1500 X314.7853 Y252.3475 Z-0.1000 S500
G1 F1500 X314.7853 Y252.3475 Z-0.1000 S500
G1 F1500 X314.4960 Y253.2089 Z-0.1000 S500
G1 F1500 X314.2709 Y254.0859 Z-0.1000 S500
G1 F1500 X314.1046 Y254.9736 Z-0.1000 S500
G1 F1500 X313.9920 Y255.8683 Z-0.1000 S500
G1 F1500 X313.9279 Y256.7668 Z-0.1000 S500
G1 F1500 X313.9075 Y257.6671 Z-0.1000 S500
G1 F1500 X313.9075 Y257.6671 Z-0.1000 S500
G1 F1500 X313.9307 Y258.5711 Z-0.1000 S500
G1 F1500 X314.0038 Y259.4729 Z-0.1000 S500
G1 F1500 X314.1319 Y260.3696 Z-0.1000 S500
G1 F1500 X314.3205 Y261.2575 Z-0.1000 S500
G1 F1500 X314.5749 Y262.1318 Z-0.1000 S500
G1 F1500 X314.8998 Y262.9867 Z-0.1000 S500
G1 F1500 X314.8998 Y262.9867 Z-0.1000 S500
G1 F1500 X315.3187 Y263.8421 Z-0.1000 S500
G1 F1500 X315.8049 Y264.6677 Z-0.1000 S500
G1 F1500 X316.3612 Y265.4562 Z-0.1000 S500
G1 F1500 X316.9887 Y266.1996 Z-0.1000 S500
G1 F1500 X317.6860 Y266.8901 Z-0.1000 S500
G1 F1500 X317.6860 Y266.8901 Z-0.1000 S500
G1 F1500 X318.4105 Y267.5060 Z-0.1000 S500
G1 F1500 X319.1907 Y268.0634 Z-0.1000 S500
G1 F1500 X320.0215 Y268.5571 Z-0.1000 S500
G1 F1500 X320.8965 Y268.9839 Z-0.1000 S500
G1 F1500 X321.8080 Y269.3427 Z-0.1000 S500
G1 F1500 X321.8080 Y269.3427 Z-0.1000 S500
G1 F1500 X322.7894 Y269.6469 Z-0.1000 S500
G1 F1500 X323.7940 Y269.8807 Z-0.1000 S500
G1 F1500 X324.8155 Y270.0447 Z-0.1000 S500
G1 F1500 X325.8474 Y270.1406 Z-0.1000 S500
G1 F1500 X326.8842 Y270.1717 Z-0.1000 S500
G1 F1500 X326.8842 Y270.1717 Z-0.1000 S500
G1 F1500 X327.8817 Y270.1480 Z-0.1000 S500
G1 F1500 X328.8758 Y270.0710 Z-0.1000 S500
G1 F1500 X329.8613 Y269.9299 Z-0.1000 S500
G1 F1500 X329.8613 Y269.9299 Z-0.1000 S500
G1 F1500 X330.6444 Y269.7970 Z-0.1000 S500
G1 F1500 X331.4216 Y269.6383 Z-0.1000 S500
G1 F1500 X332.1895 Y269.4463 Z-0.1000 S500
G1 F1500 X332.1895 Y269.4463 Z-0.1000 S500
G1 F1500 X333.0250 Y269.1864 Z-0.1000 S500
G1 F1500 X333.8306 Y268.8591 Z-0.1000 S500
G1 F1500 X333.8306 Y268.8591 Z-0.1000 S500
G1 F1500 X334.7467 Y268.4100 Z-0.1000 S500
G1 F1500 X333.3345 Y264.8521 Z-0.1000 S500
G1 F1500 X333.3345 Y264.8521 Z-0.1000 S500
G1 F1500 X332.4920 Y265.2481 Z-0.1000 S500
G1 F1500 X331.6069 Y265.5602 Z-0.1000 S500
G1 F1500 X330.7009 Y265.8193 Z-0.1000 S500
G1 F1500 X330.7009 Y265.8193 Z-0.1000 S500
G1 F1500 X329.8040 Y266.0387 Z-0.1000 S500
G1 F1500 X328.8899 Y266.1892 Z-0.1000 S500
G1 F1500 X327.9656 Y266.2754 Z-0.1000 S500
G1 F1500 X327.0369 Y266.3029 Z-0.1000 S500
G1 F1500 X327.0369 Y266.3029 Z-0.1000 S500
G1 F1500 X325.9446 Y266.2445 Z-0.1000 S500
G1 F1500 X324.8692 Y266.0621 Z-0.1000 S500
G1 F1500 X323.8309 Y265.7502 Z-0.1000 S500
G1 F1500 X323.8309 Y265.7502 Z-0.1000 S500
G1 F1500 X322.8795 Y265.3426 Z-0.1000 S500
G1 F1500 X322.0082 Y264.8082 Z-0.1000 S500
G1 F1500 X321.2355 Y264.1612 Z-0.1000 S500
G1 F1500 X321.2355 Y264.1612 Z-0.1000 S500
G1 F1500 X320.6995 Y263.5526 Z-0.1000 S500
G1 F1500 X320.2443 Y262.8922 Z-0.1000 S500
G1 F1500 X319.8656 Y262.1933 Z-0.1000 S500
G1 F1500 X319.5562 Y261.4668 Z-0.1000 S500
G1 F1500 X319.5562 Y261.4668 Z-0.1000 S500
G1 F1500 X319.2697 Y260.5475 Z-0.1000 S500
G1 F1500 X319.0815 Y259.6075 Z-0.1000 S500
G1 F1500 X318.9776 Y258.6567 Z-0.1000 S500
G1 F1500 X318.9455 Y257.7017 Z-0.1000 S500
G1 F1500 X318.9455 Y257.7017 Z-0.1000 S500
G1 F1500 X318.9711 Y256.8213 Z-0.1000 S500
G1 F1500 X319.0517 Y255.9438 Z-0.1000 S500
G1 F1500 X319.1938 Y255.0726 Z-0.1000 S500
G1 F1500 X319.4035 Y254.2128 Z-0.1000 S500
G1 F1500 X319.4035 Y254.2128 Z-0.1000 S500
G1 F1500 X319.6686 Y253.4780 Z-0.1000 S500
G1 F1500 X320.0027 Y252.7667 Z-0.1000 S500
G1 F1500 X320.4101 Y252.0873 Z-0.1000 S500
G1 F1500 X320.8920 Y251.4494 Z-0.1000 S500
G1 F1500 X320.8920 Y251.4494 Z-0.1000 S500
G1 F1500 X321.6241 Y250.7338 Z-0.1000 S500
G1 F1500 X322.4724 Y250.1324 Z-0.1000 S500
G1 F1500 X323.4110 Y249.6531 Z-0.1000 S500
G1 F1500 X323.4110 Y249.6531 Z-0.1000 S500
G1 F1500 X324.2914 Y249.3596 Z-0.1000 S500
G1 F1500 X325.2056 Y249.1679 Z-0.1000 S500
G1 F1500 X326.1370 Y249.0633 Z-0.1000 S500
G1 F1500 X327.0751 Y249.0313 Z-0.1000 S500
G1 F1500 X327.0751 Y249.0313 Z-0.1000 S500
G1 F1500 X328.1259 Y249.0519 Z-0.1000 S500
G1 F1500 X329.1741 Y249.1214 Z-0.1000 S500
G1 F1500 X330.2144 Y249.2559 Z-0.1000 S500
G1 F1500 X331.2353 Y249.4804 Z-0.1000 S500
G1 F1500 X331.2353 Y249.4804 Z-0.1000 S500
G1 F1500 X332.0770 Y249.7461 Z-0.1000 S500
G1 F1500 X332.9075 Y250.0395 Z-0.1000 S500
G1 F1500 X333.7161 Y250.3785 Z-0.1000 S500
G1 F1500 X335.0138 Y246.8206 Z-0.1000 S500
G1 F1500 X335.0138 Y246.8206 Z-0.1000 S500
G1 F1500 X333.7543 Y246.2679 Z-0.1000 S500
G1 F1500 X333.7543 Y246.2679 Z-0.1000 S500
G1 F1500 X332.8459 Y245.9710 Z-0.1000 S500
G1 F1500 X331.9223 Y245.7152 Z-0.1000 S500
G1 F1500 X331.9223 Y245.7152 Z-0.1000 S500
G1 F1500 X331.1274 Y245.5561 Z-0.1000 S500
G1 F1500 X330.3250 Y245.4315 Z-0.1000 S500
G1 F1500 X329.5178 Y245.3352 Z-0.1000 S500
G1 F1500 X329.5178 Y245.3352 Z-0.1000 S500
G1 F1500 X328.5671 Y245.2361 Z-0.1000 S500
G1 F1500 X327.6121 Y245.1802 Z-0.1000 S500
G1 F1500 X326.6552 Y245.1625 Z-0.1000 S500
G1 F1500 X326.6552 Y245.1625 Z-0.1000 S500
G1 F1500 X326.6552 Y245.1625 Z-0.1000 S500

G0 Z0; move to z-safe height
G0 X290.8865 Y344.8049

G0 Z0
G1 F300 Z-0.1000
G1 F1500 X290.8865 Y344.8049 Z-0.1000 S500
G1 F1500 X289.8991 Y344.8229 Z-0.1000 S500
G1 F1500 X288.9148 Y344.8809 Z-0.1000 S500
G1 F1500 X287.9383 Y344.9853 Z-0.1000 S500
G1 F1500 X286.9767 Y345.1437 Z-0.1000 S500
G1 F1500 X286.0401 Y345.3640 Z-0.1000 S500
G1 F1500 X286.0401 Y345.3640 Z-0.1000 S500
G1 F1500 X285.1074 Y345.6712 Z-0.1000 S500
G1 F1500 X284.2238 Y346.0433 Z-0.1000 S500
G1 F1500 X283.4043 Y346.4820 Z-0.1000 S500
G1 F1500 X282.6636 Y346.9852 Z-0.1000 S500
G1 F1500 X282.6636 Y346.9852 Z-0.1000 S500
G1 F1500 X282.0408 Y347.5345 Z-0.1000 S500
G1 F1500 X281.5072 Y348.1284 Z-0.1000 S500
G1 F1500 X281.0662 Y348.7588 Z-0.1000 S500
G1 F1500 X280.7171 Y349.4172 Z-0.1000 S500
G1 F1500 X280.7171 Y349.4172 Z-0.1000 S500
G1 F1500 X280.4274 Y350.1697 Z-0.1000 S500
G1 F1500 X280.2298 Y350.9369 Z-0.1000 S500
G1 F1500 X280.1172 Y351.7127 Z-0.1000 S500
G1 F1500 X280.0815 Y352.4921 Z-0.1000 S500
G1 F1500 X280.0815 Y364.5959 Z-0.1000 S500
G1 F1500 X285.1265 Y364.5959 Z-0.1000 S500
G1 F1500 X285.1265 Y352.8275 Z-0.1000 S500
G1 F1500 X285.1265 Y352.8275 Z-0.1000 S500
G1 F1500 X285.1629 Y352.0651 Z-0.1000 S500
G1 F1500 X285.2863 Y351.3073 Z-0.1000 S500
G1 F1500 X285.5237 Y350.5633 Z-0.1000 S500
G1 F1500 X285.5237 Y350.5633 Z-0.1000 S500
G1 F1500 X286.0089 Y349.7647 Z-0.1000 S500
G1 F1500 X286.7155 Y349.0538 Z-0.1000 S500
G1 F1500 X286.7155 Y349.0538 Z-0.1000 S500
G1 F1500 X287.5600 Y348.5482 Z-0.1000 S500
G1 F1500 X288.5428 Y348.1872 Z-0.1000 S500
G1 F1500 X288.5428 Y348.1872 Z-0.1000 S500
G1 F1500 X289.7165 Y347.9728 Z-0.1000 S500
G1 F1500 X290.9262 Y347.9077 Z-0.1000 S500
G1 F1500 X290.9262 Y347.9077 Z-0.1000 S500
G1 F1500 X292.1360 Y347.9728 Z-0.1000 S500
G1 F1500 X293.3097 Y348.1872 Z-0.1000 S500
G1 F1500 X293.3097 Y348.1872 Z-0.1000 S500
G1 F1500 X294.2988 Y348.5418 Z-0.1000 S500
G1 F1500 X295.1370 Y349.0538 Z-0.1000 S500
G1 F1500 X295.1370 Y349.0538 Z-0.1000 S500
G1 F1500 X295.8587 Y349.7587 Z-0.1000 S500
G1 F1500 X296.3287 Y350.5633 Z-0.1000 S500
G1 F1500 X296.3287 Y350.5633 Z-0.1000 S500
G1 F1500 X296.5894 Y351.3051 Z-0.1000 S500
G1 F1500 X296.7255 Y352.0635 Z-0.1000 S500
G1 F1500 X296.7657 Y352.8275 Z-0.1000 S500
G1 F1500 X296.7657 Y364.5959 Z-0.1000 S500
G1 F1500 X301.8107 Y364.5959 Z-0.1000 S500
G1 F1500 X301.8107 Y352.4921 Z-0.1000 S500
G1 F1500 X301.8107 Y352.4921 Z-0.1000 S500
G1 F1500 X301.7726 Y351.7113 Z-0.1000 S500
G1 F1500 X301.6526 Y350.9347 Z-0.1000 S500
G1 F1500 X301.4425 Y350.1678 Z-0.1000 S500
G1 F1500 X301.1354 Y349.4172 Z-0.1000 S500
G1 F1500 X301.1354 Y349.4172 Z-0.1000 S500
G1 F1500 X300.7820 Y348.7558 Z-0.1000 S500
G1 F1500 X300.3323 Y348.1242 Z-0.1000 S500
G1 F1500 X299.7862 Y347.5313 Z-0.1000 S500
G1 F1500 X299.1492 Y346.9852 Z-0.1000 S500
G1 F1500 X299.1492 Y346.9852 Z-0.1000 S500
G1 F1500 X298.4148 Y346.4766 Z-0.1000 S500
G1 F1500 X297.5954 Y346.0370 Z-0.1000 S500
G1 F1500 X296.7089 Y345.6672 Z-0.1000 S500
G1 F1500 X295.7726 Y345.3640 Z-0.1000 S500
G1 F1500 X295.7726 Y345.3640 Z-0.1000 S500
G1 F1500 X294.8273 Y345.1450 Z-0.1000 S500
G1 F1500 X293.8577 Y344.9867 Z-0.1000 S500
G1 F1500 X292.8736 Y344.8817 Z-0.1000 S500
G1 F1500 X291.8817 Y344.8232 Z-0.1000 S500
G1 F1500 X290.8865 Y344.8049 Z-0.1000 S500
G1 F1500 X290.8865 Y344.8049 Z-0.1000 S500
G1 F1500 X290.8865 Y344.8049 Z-0.1000 S500

G0 Z0; move to z-safe height
G0 X292.7500 Y113.2399

G0 Z0
G1 F300 Z-0.1000
G1 F1500 X292.7500 Y113.2399 Z-0.1000 S500
G1 F1500 X291.8231 Y113.2602 Z-0.1000 S500
G1 F1500 X290.8986 Y113.3238 Z-0.1000 S500
G1 F1500 X289.9796 Y113.4345 Z-0.1000 S500
G1 F1500 X289.0699 Y113.5961 Z-0.1000 S500
G1 F1500 X288.1741 Y113.8123 Z-0.1000 S500
G1 F1500 X287.2978 Y114.0858 Z-0.1000 S500
G1 F1500 X287.2978 Y114.0858 Z-0.1000 S500
G1 F1500 X286.3887 Y114.4432 Z-0.1000 S500
G1 F1500 X285.5165 Y114.8692 Z-0.1000 S500
G1 F1500 X284.6902 Y115.3645 Z-0.1000 S500
G1 F1500 X283.9185 Y115.9272 Z-0.1000 S500
G1 F1500 X283.2086 Y116.5531 Z-0.1000 S500
G1 F1500 X283.2086 Y116.5531 Z-0.1000 S500
G1 F1500 X282.5470 Y117.2711 Z-0.1000 S500
G1 F1500 X281.9594 Y118.0400 Z-0.1000 S500
G1 F1500 X281.4467 Y118.8516 Z-0.1000 S500
G1 F1500 X281.0074 Y119.6979 Z-0.1000 S500
G1 F1500 X280.6383 Y120.5712 Z-0.1000 S500
G1 F1500 X280.6383 Y120.5712 Z-0.1000 S500
G1 F1500 X280.3431 Y121.4502 Z-0.1000 S500
G1 F1500 X280.1133 Y122.3450 Z-0.1000 S500
G1 F1500 X279.9437 Y123.2509 Z-0.1000 S500
G1 F1500 X279.8288 Y124.1637 Z-0.1000 S500
G1 F1500 X279.7633 Y125.0806 Z-0.1000 S500
G1 F1500 X279.7425 Y125.9992 Z-0.1000 S500
G1 F1500 X279.7425 Y125.9992 Z-0.1000 S500
G1 F1500 X279.7663 Y126.9216 Z-0.1000 S500
G1 F1500 X279.8408 Y127.8418 Z-0.1000 S500
G1 F1500 X279.9716 Y128.7568 Z-0.1000 S500
G1 F1500 X280.1640 Y129.6627 Z-0.1000 S500
G1 F1500 X280.4236 Y130.5549 Z-0.1000 S500
G1 F1500 X280.7551 Y131.4272 Z-0.1000 S500
G1 F1500 X280.7551 Y131.4272 Z-0.1000 S500
G1 F1500 X281.1825 Y132.3000 Z-0.1000 S500
G1 F1500 X281.6786 Y133.1424 Z-0.1000 S500
G1 F1500 X282.2463 Y133.9469 Z-0.1000 S500
G1 F1500 X282.8866 Y134.7055 Z-0.1000 S500
G1 F1500 X283.5980 Y135.4101 Z-0.1000 S500
G1 F1500 X283.5980 Y135.4101 Z-0.1000 S500
G1 F1500 X284.3373 Y136.0386 Z-0.1000 S500
G1 F1500 X285.1334 Y136.6073 Z-0.1000 S500
G1 F1500 X285.9811 Y137.1111 Z-0.1000 S500
G1 F1500 X286.8739 Y137.5466 Z-0.1000 S500
G1 F1500 X287.8040 Y137.9126 Z-0.1000 S500
G1 F1500 X287.8040 Y137.9126 Z-0.1000 S500
G1 F1500 X288.8054 Y138.2230 Z-0.1000 S500
G1 F1500 X289.8305 Y138.4617 Z-0.1000 S500
G1 F1500 X290.8727 Y138.6289 Z-0.1000 S500
G1 F1500 X291.9257 Y138.7268 Z-0.1000 S500
G1 F1500 X292.9837 Y138.7585 Z-0.1000 S500
G1 F1500 X292.9837 Y138.7585 Z-0.1000 S500
G1 F1500 X294.0015 Y138.7344 Z-0.1000 S500
G1 F1500 X295.0158 Y138.6557 Z-0.1000 S500
G1 F1500 X296.0213 Y138.5118 Z-0.1000 S500
G1 F1500 X296.0213 Y138.5118 Z-0.1000 S500
G1 F1500 X296.8204 Y138.3762 Z-0.1000 S500
G1 F1500 X297.6134 Y138.2143 Z-0.1000 S500
G1 F1500 X298.3970 Y138.0184 Z-0.1000 S500
G1 F1500 X298.3970 Y138.0184 Z-0.1000 S500
G1 F1500 X299.2495 Y137.7532 Z-0.1000 S500
G1 F1500 X300.0716 Y137.4192 Z-0.1000 S500
G1 F1500 X300.0716 Y137.4192 Z-0.1000 S500
G1 F1500 X301.0062 Y136.9610 Z-0.1000 S500
G1 F1500 X299.5653 Y133.3305 Z-0.1000 S500
G1 F1500 X299.5653 Y133.3305 Z-0.1000 S500
G1 F1500 X298.7057 Y133.7347 Z-0.1000 S500
G1 F1500 X297.8025 Y134.0531 Z-0.1000 S500
G1 F1500 X296.8781 Y134.3175 Z-0.1000 S500
G1 F1500 X296.8781 Y134.3175 Z-0.1000 S500
G1 F1500 X295.9629 Y134.5413 Z-0.1000 S500
G1 F1500 X295.0302 Y134.6949 Z-0.1000 S500
G1 F1500 X294.0871 Y134.7829 Z-0.1000 S500
G1 F1500 X293.1394 Y134.8109 Z-0.1000 S500
G1 F1500 X293.1394 Y134.8109 Z-0.1000 S500
G1 F1500 X292.0249 Y134.7513 Z-0.1000 S500
G1 F1500 X290.9276 Y134.5652 Z-0.1000 S500
G1 F1500 X289.8681 Y134.2470 Z-0.1000 S500
G1 F1500 X289.8681 Y134.2470 Z-0.1000 S500
G1 F1500 X288.8974 Y133.8311 Z-0.1000 S500
G1 F1500 X288.0083 Y133.2858 Z-0.1000 S500
G1 F1500 X287.2199 Y132.6256 Z-0.1000 S500
G1 F1500 X287.2199 Y132.6256 Z-0.1000 S500
G1 F1500 X286.6730 Y132.0046 Z-0.1000 S500
G1 F1500 X286.2085 Y131.3307 Z-0.1000 S500
G1 F1500 X285.8220 Y130.6176 Z-0.1000 S500
G1 F1500 X285.5063 Y129.8764 Z-0.1000 S500
G1 F1500 X285.5063 Y129.8764 Z-0.1000 S500
G1 F1500 X285.2140 Y128.9383 Z-0.1000 S500
G1 F1500 X285.0220 Y127.9791 Z-0.1000 S500
G1 F1500 X284.9160 Y127.0090 Z-0.1000 S500
G1 F1500 X284.8832 Y126.0345 Z-0.1000 S500
G1 F1500 X284.8832 Y126.0345 Z-0.1000 S500
G1 F1500 X284.9093 Y125.1362 Z-0.1000 S500
G1 F1500 X284.9916 Y124.2408 Z-0.1000 S500
G1 F1500 X285.1365 Y123.3519 Z-0.1000 S500
G1 F1500 X285.3505 Y122.4745 Z-0.1000 S500
G1 F1500 X285.3505 Y122.4745 Z-0.1000 S500
G1 F1500 X285.6210 Y121.7247 Z-0.1000 S500
G1 F1500 X285.9620 Y120.9989 Z-0.1000 S500
G1 F1500 X286.3776 Y120.3058 Z-0.1000 S500
G1 F1500 X286.8694 Y119.6548 Z-0.1000 S500
G1 F1500 X286.8694 Y119.6548 Z-0.1000 S500
G1 F1500 X287.6164 Y118.9247 Z-0.1000 S500
G1 F1500 X288.4820 Y118.3111 Z-0.1000 S500
G1 F1500 X289.4397 Y117.8220 Z-0.1000 S500
G1 F1500 X289.4397 Y117.8220 Z-0.1000 S500
G1 F1500 X290.3380 Y117.5225 Z-0.1000 S500
G1 F1500 X291.2708 Y117.3269 Z-0.1000 S500
G1 F1500 X292.2212 Y117.2202 Z-0.1000 S500
G1 F1500 X293.1784 Y117.1875 Z-0.1000 S500
G1 F1500 X293.1784 Y117.1875 Z-0.1000 S500
G1 F1500 X294.2506 Y117.2085 Z-0.1000 S500
G1 F1500 X295.3202 Y117.2794 Z-0.1000 S500
G1 F1500 X296.3817 Y117.4166 Z-0.1000 S500
G1 F1500 X297.4233 Y117.6457 Z-0.1000 S500
G1 F1500 X297.4233 Y117.6457 Z-0.1000 S500
G1 F1500 X298.2822 Y117.9169 Z-0.1000 S500
G1 F1500 X299.1296 Y118.2162 Z-0.1000 S500
G1 F1500 X299.9547 Y118.5621 Z-0.1000 S500
G1 F1500 X301.2789 Y114.9317 Z-0.1000 S500
G1 F1500 X301.2789 Y114.9317 Z-0.1000 S500
G1 F1500 X299.9937 Y114.3678 Z-0.1000 S500
G1 F1500 X299.9937 Y114.3678 Z-0.1000 S500
G1 F1500 X299.0668 Y114.0648 Z-0.1000 S500
G1 F1500 X298.1243 Y113.8038 Z-0.1000 S500
G1 F1500 X298.1243 Y113.8038 Z-0.1000 S500
G1 F1500 X297.3132 Y113.6415 Z-0.1000 S500
G1 F1500 X296.4945 Y113.5143 Z-0.1000 S500
G1 F1500 X295.6708 Y113.4161 Z-0.1000 S500
G1 F1500 X295.6708 Y113.4161 Z-0.1000 S500
G1 F1500 X294.7008 Y113.3150 Z-0.1000 S500
G1 F1500 X293.7263 Y113.2579 Z-0.1000 S500
G1 F1500 X292.7500 Y113.2399 Z-0.1000 S500
G1 F1500 X292.7500 Y113.2399 Z-0.1000 S500
G1 F1500 X292.7500 Y113.2399 Z-0.1000 S500

G0 Z0; move to z-safe height
G0 X94.7645 Y113.0790

G0 Z0
G1 F300 Z-0.1000
G1 F1500 X94.7645 Y113.0790 Z-0.1000 S500
G1 F1500 X93.8376 Y113.0993 Z-0.1000 S500
G1 F1500 X92.9131 Y113.1629 Z-0.1000 S500
G1 F1500 X91.9941 Y113.2735 Z-0.1000 S500
G1 F1500 X91.0844 Y113.4352 Z-0.1000 S500
G1 F1500 X90.1886 Y113.6514 Z-0.1000 S500
G1 F1500 X89.3123 Y113.9249 Z-0.1000 S500
G1 F1500 X89.3123 Y113.9249 Z-0.1000 S500
G1 F1500 X88.4032 Y114.2823 Z-0.1000 S500
G1 F1500 X87.5310 Y114.7083 Z-0.1000 S500
G1 F1500 X86.7047 Y115.2035 Z-0.1000 S500
G1 F1500 X85.9330 Y115.7663 Z-0.1000 S500
G1 F1500 X85.2231 Y116.3922 Z-0.1000 S500
G1 F1500 X85.2231 Y116.3922 Z-0.1000 S500
G1 F1500 X84.5615 Y117.1102 Z-0.1000 S500
G1 F1500 X83.9739 Y117.8791 Z-0.1000 S500
G1 F1500 X83.4612 Y118.6907 Z-0.1000 S500
G1 F1500 X83.0219 Y119.5370 Z-0.1000 S500
G1 F1500 X82.6528 Y120.4103 Z-0.1000 S500
G1 F1500 X82.6528 Y120.4103 Z-0.1000 S500
G1 F1500 X82.3576 Y121.2893 Z-0.1000 S500
G1 F1500 X82.1278 Y122.1841 Z-0.1000 S500
G1 F1500 X81.9582 Y123.0900 Z-0.1000 S500
G1 F1500 X81.8433 Y124.0028 Z-0.1000 S500
G1 F1500 X81.7778 Y124.9197 Z-0.1000 S500
G1 F1500 X81.7570 Y125.8383 Z-0.1000 S500
G1 F1500 X81.7570 Y125.8383 Z-0.1000 S500
G1 F1500 X81.7808 Y126.7607 Z-0.1000 S500
G1 F1500 X81.8553 Y127.6809 Z-0.1000 S500
G1 F1500 X81.9861 Y128.5958 Z-0.1000 S500
G1 F1500 X82.1785 Y129.5018 Z-0.1000 S500
G1 F1500 X82.4381 Y130.3939 Z-0.1000 S500
G1 F1500 X82.7696 Y131.2663 Z-0.1000 S500
G1 F1500 X82.7696 Y131.2663 Z-0.1000 S500
G1 F1500 X83.1970 Y132.1391 Z-0.1000 S500
G1 F1500 X83.6931 Y132.9815 Z-0.1000 S500
G1 F1500 X84.2608 Y133.7860 Z-0.1000 S500
G1 F1500 X84.9011 Y134.5446 Z-0.1000 S500
G1 F1500 X85.6125 Y135.2492 Z-0.1000 S500
G1 F1500 X85.6125 Y135.2492 Z-0.1000 S500
G1 F1500 X86.3518 Y135.8776 Z-0.1000 S500
G1 F1500 X87.1479 Y136.4464 Z-0.1000 S500
G1 F1500 X87.9956 Y136.9501 Z-0.1000 S500
G1 F1500 X88.8884 Y137.3857 Z-0.1000 S500
G1 F1500 X89.8185 Y137.7517 Z-0.1000 S500
G1 F1500 X89.8185 Y137.7517 Z-0.1000 S500
G1 F1500 X90.8199 Y138.0621 Z-0.1000 S500
G1 F1500 X91.8450 Y138.3007 Z-0.1000 S500
G1 F1500 X92.8872 Y138.4680 Z-0.1000 S500
G1 F1500 X93.9402 Y138.5659 Z-0.1000 S500
G1 F1500 X94.9982 Y138.5976 Z-0.1000 S500
G1 F1500 X94.9982 Y138.5976 Z-0.1000 S500
G1 F1500 X96.0160 Y138.5735 Z-0.1000 S500
G1 F1500 X97.0303 Y138.4948 Z-0.1000 S500
G1 F1500 X98.0358 Y138.3509 Z-0.1000 S500
G1 F1500 X98.0358 Y138.3509 Z-0.1000 S500
G1 F1500 X98.8349 Y138.2153 Z-0.1000 S500
G1 F1500 X99.6279 Y138.0534 Z-0.1000 S500
G1 F1500 X100.4115 Y137.8574 Z-0.1000 S500
G1 F1500 X100.4115 Y137.8574 Z-0.1000 S500
G1 F1500 X101.2640 Y137.5923 Z-0.1000 S500
G1 F1500 X102.0861 Y137.2582 Z-0.1000 S500
G1 F1500 X102.0861 Y137.2582 Z-0.1000 S500
G1 F1500 X103.0207 Y136.8000 Z-0.1000 S500
G1 F1500 X101.5798 Y133.1696 Z-0.1000 S500
G1 F1500 X101.5798 Y133.1696 Z-0.1000 S500
G1 F1500 X100.7202 Y133.5738 Z-0.1000 S500
G1 F1500 X99.8170 Y133.8922 Z-0.1000 S500
G1 F1500 X98.8926 Y134.1565 Z-0.1000 S500
G1 F1500 X98.8926 Y134.1565 Z-0.1000 S500
G1 F1500 X97.9774 Y134.3804 Z-0.1000 S500
G1 F1500 X97.0447 Y134.5340 Z-0.1000 S500
G1 F1500 X96.1016 Y134.6220 Z-0.1000 S500
G1 F1500 X95.1539 Y134.6500 Z-0.1000 S500
G1 F1500 X95.1539 Y134.6500 Z-0.1000 S500
G1 F1500 X94.0394 Y134.5904 Z-0.1000 S500
G1 F1500 X92.9421 Y134.4043 Z-0.1000 S500
G1 F1500 X91.8826 Y134.0860 Z-0.1000 S500
G1 F1500 X91.8826 Y134.0860 Z-0.1000 S500
G1 F1500 X90.9119 Y133.6702 Z-0.1000 S500
G1 F1500 X90.0228 Y133.1249 Z-0.1000 S500
G1 F1500 X89.2344 Y132.4647 Z-0.1000 S500
G1 F1500 X89.2344 Y132.4647 Z-0.1000 S500
G1 F1500 X88.6875 Y131.8437 Z-0.1000 S500
G1 F1500 X88.2230 Y131.1698 Z-0.1000 S500
G1 F1500 X87.8365 Y130.4567 Z-0.1000 S500
G1 F1500 X87.5208 Y129.7154 Z-0.1000 S500
G1 F1500 X87.5208 Y129.7154 Z-0.1000 S500
G1 F1500 X87.2285 Y128.7774 Z-0.1000 S500
G1 F1500 X87.0365 Y127.8182 Z-0.1000 S500
G1 F1500 X86.9305 Y126.8480 Z-0.1000 S500
G1 F1500 X86.8977 Y125.8735 Z-0.1000 S500
G1 F1500 X86.8977 Y125.8735 Z-0.1000 S500
G1 F1500 X86.9238 Y124.9753 Z-0.1000 S500
G1 F1500 X87.0061 Y124.0798 Z-0.1000 S500
G1 F1500 X87.1510 Y123.1910 Z-0.1000 S500
G1 F1500 X87.3650 Y122.3136 Z-0.1000 S500
G1 F1500 X87.3650 Y122.3136 Z-0.1000 S500
G1 F1500 X87.6355 Y121.5638 Z-0.1000 S500
G1 F1500 X87.9765 Y120.8380 Z-0.1000 S500
G1 F1500 X88.3921 Y120.1449 Z-0.1000 S500
G1 F1500 X88.8839 Y119.4939 Z-0.1000 S500
G1 F1500 X88.8839 Y119.4939 Z-0.1000 S500
G1 F1500 X89.6309 Y118.7638 Z-0.1000 S500
G1 F1500 X90.4965 Y118.1501 Z-0.1000 S500
G1 F1500 X91.4542 Y117.6610 Z-0.1000 S500
G1 F1500 X91.4542 Y117.6610 Z-0.1000 S500
G1 F1500 X92.3525 Y117.3616 Z-0.1000 S500
G1 F1500 X93.2853 Y117.1660 Z-0.1000 S500
G1 F1500 X94.2357 Y117.0592 Z-0.1000 S500
G1 F1500 X95.1929 Y117.0266 Z-0.1000 S500
G1 F1500 X95.1929 Y117.0266 Z-0.1000 S500
G1 F1500 X96.2651 Y117.0476 Z-0.1000 S500
G1 F1500 X97.3347 Y117.1185 Z-0.1000 S500
G1 F1500 X98.3962 Y117.2557 Z-0.1000 S500
G1 F1500 X99.4378 Y117.4848 Z-0.1000 S500
G1 F1500 X99.4378 Y117.4848 Z-0.1000 S500
G1 F1500 X100.2967 Y117.7559 Z-0.1000 S500
G1 F1500 X101.1441 Y118.0553 Z-0.1000 S500
G1 F1500 X101.9692 Y118.4012 Z-0.1000 S500
G1 F1500 X103.2934 Y114.7708 Z-0.1000 S500
G1 F1500 X103.2934 Y114.7708 Z-0.1000 S500
G1 F1500 X102.0082 Y114.2069 Z-0.1000 S500
G1 F1500 X102.0082 Y114.2069 Z-0.1000 S500
G1 F1500 X101.0813 Y113.9039 Z-0.1000 S500
G1 F1500 X100.1388 Y113.6429 Z-0.1000 S500
G1 F1500 X100.1388 Y113.6429 Z-0.1000 S500
G1 F1500 X99.3277 Y113.4806 Z-0.1000 S500
G1 F1500 X98.5090 Y113.3534 Z-0.1000 S500
G1 F1500 X97.6853 Y113.2552 Z-0.1000 S500
G1 F1500 X97.6853 Y113.2552 Z-0.1000 S500
G1 F1500 X96.7153 Y113.1541 Z-0.1000 S500
G1 F1500 X95.7408 Y113.0970 Z-0.1000 S500
G1 F1500 X94.7645 Y113.0790 Z-0.1000 S500
G1 F1500 X94.7645 Y113.0790 Z-0.1000 S500
G1 F1500 X94.7645 Y113.0790 Z-0.1000 S500

G0 Z0; move to z-safe height
G0 X25.7989 Y116.7900

G0 Z0
G1 F300 Z-0.1000
G1 F1500 X25.7989 Y116.7900 Z-0.1000 S500
G1 F1500 X26.8051 Y116.8206 Z-0.1000 S500
G1 F1500 X27.8037 Y116.9292 Z-0.1000 S500
G1 F1500 X28.7744 Y117.1531 Z-0.1000 S500
G1 F1500 X29.6616 Y117.5519 Z-0.1000 S500
G1 F1500 X29.6616 Y117.5519 Z-0.1000 S500
G1 F1500 X30.3417 Y118.1395 Z-0.1000 S500
G1 F1500 X30.7497 Y118.8865 Z-0.1000 S500
G1 F1500 X30.8712 Y119.7050 Z-0.1000 S500
G1 F1500 X30.8712 Y119.7050 Z-0.1000 S500
G1 F1500 X30.7733 Y120.4432 Z-0.1000 S500
G1 F1500 X30.4420 Y121.1294 Z-0.1000 S500
G1 F1500 X30.4420 Y121.1294 Z-0.1000 S500
G1 F1500 X29.9283 Y121.7158 Z-0.1000 S500
G1 F1500 X29.2715 Y122.1895 Z-0.1000 S500
G1 F1500 X29.2715 Y122.1895 Z-0.1000 S500
G1 F1500 X28.3891 Y122.6872 Z-0.1000 S500
G1 F1500 X27.4376 Y123.0839 Z-0.1000 S500
G1 F1500 X27.4376 Y123.0839 Z-0.1000 S500
G1 F1500 X26.6180 Y123.3870 Z-0.1000 S500
G1 F1500 X25.7844 Y123.6614 Z-0.1000 S500
G1 F1500 X24.9405 Y123.9120 Z-0.1000 S500
G1 F1500 X24.9405 Y123.9120 Z-0.1000 S500
G1 F1500 X24.0218 Y124.2035 Z-0.1000 S500
G1 F1500 X23.1111 Y124.5125 Z-0.1000 S500
G1 F1500 X22.2092 Y124.8395 Z-0.1000 S500
G1 F1500 X22.2092 Y124.8395 Z-0.1000 S500
G1 F1500 X21.3969 Y125.2106 Z-0.1000 S500
G1 F1500 X20.6266 Y125.6414 Z-0.1000 S500
G1 F1500 X19.9072 Y126.1314 Z-0.1000 S500
G1 F1500 X19.9072 Y126.1314 Z-0.1000 S500
G1 F1500 X19.2871 Y126.6813 Z-0.1000 S500
G1 F1500 X18.7528 Y127.2926 Z-0.1000 S500
G1 F1500 X18.3074 Y127.9533 Z-0.1000 S500
G1 F1500 X18.3074 Y127.9533 Z-0.1000 S500
G1 F1500 X17.9613 Y128.7743 Z-0.1000 S500
G1 F1500 X17.7769 Y129.6325 Z-0.1000 S500
G1 F1500 X17.7222 Y130.5040 Z-0.1000 S500
G1 F1500 X17.7222 Y130.5040 Z-0.1000 S500
G1 F1500 X17.7651 Y131.2911 Z-0.1000 S500
G1 F1500 X17.9030 Y132.0701 Z-0.1000 S500
G1 F1500 X18.1487 Y132.8296 Z-0.1000 S500
G1 F1500 X18.5109 Y133.5546 Z-0.1000 S500
G1 F1500 X18.9903 Y134.2287 Z-0.1000 S500
G1 F1500 X19.5783 Y134.8378 Z-0.1000 S500
G1 F1500 X20.2583 Y135.3735 Z-0.1000 S500
G1 F1500 X20.2583 Y135.3735 Z-0.1000 S500
G1 F1500 X20.9999 Y135.8368 Z-0.1000 S500
G1 F1500 X21.7990 Y136.2251 Z-0.1000 S500
G1 F1500 X22.6426 Y136.5385 Z-0.1000 S500
G1 F1500 X23.5183 Y136.7806 Z-0.1000 S500
G1 F1500 X24.4154 Y136.9572 Z-0.1000 S500
G1 F1500 X25.3259 Y137.0753 Z-0.1000 S500
G1 F1500 X26.2437 Y137.1415 Z-0.1000 S500
G1 F1500 X27.1645 Y137.1623 Z-0.1000 S500
G1 F1500 X27.1645 Y137.1623 Z-0.1000 S500
G1 F1500 X28.0724 Y137.1457 Z-0.1000 S500
G1 F1500 X28.9784 Y137.0929 Z-0.1000 S500
G1 F1500 X29.8797 Y136.9990 Z-0.1000 S500
G1 F1500 X30.7725 Y136.8586 Z-0.1000 S500
G1 F1500 X31.6515 Y136.6654 Z-0.1000 S500
G1 F1500 X31.6515 Y136.6654 Z-0.1000 S500
G1 F1500 X32.7226 Y136.3912 Z-0.1000 S500
G1 F1500 X33.7705 Y136.0588 Z-0.1000 S500
G1 F1500 X34.7730 Y135.6385 Z-0.1000 S500
G1 F1500 X33.2513 Y132.2597 Z-0.1000 S500
G1 F1500 X33.2513 Y132.2597 Z-0.1000 S500
G1 F1500 X32.3119 Y132.6553 Z-0.1000 S500
G1 F1500 X31.3329 Y132.9744 Z-0.1000 S500
G1 F1500 X30.3249 Y133.2203 Z-0.1000 S500
G1 F1500 X30.3249 Y133.2203 Z-0.1000 S500
G1 F1500 X29.2575 Y133.4063 Z-0.1000 S500
G1 F1500 X28.1754 Y133.5159 Z-0.1000 S500
G1 F1500 X27.0865 Y133.5516 Z-0.1000 S500
G1 F1500 X27.0865 Y133.5516 Z-0.1000 S500
G1 F1500 X25.9961 Y133.4921 Z-0.1000 S500
G1 F1500 X24.9336 Y133.2796 Z-0.1000 S500
G1 F1500 X23.9650 Y132.8560 Z-0.1000 S500
G1 F1500 X23.9650 Y132.8560 Z-0.1000 S500
G1 F1500 X23.3511 Y132.3211 Z-0.1000 S500
G1 F1500 X22.9825 Y131.6435 Z-0.1000 S500
G1 F1500 X22.8725 Y130.9015 Z-0.1000 S500
G1 F1500 X22.8725 Y130.9015 Z-0.1000 S500
G1 F1500 X22.9523 Y130.2202 Z-0.1000 S500
G1 F1500 X23.2237 Y129.5765 Z-0.1000 S500
G1 F1500 X23.2237 Y129.5765 Z-0.1000 S500
G1 F1500 X23.6992 Y129.0559 Z-0.1000 S500
G1 F1500 X24.2772 Y128.6159 Z-0.1000 S500
G1 F1500 X24.2772 Y128.6159 Z-0.1000 S500
G1 F1500 X25.0560 Y128.1880 Z-0.1000 S500
G1 F1500 X25.8769 Y127.8208 Z-0.1000 S500
G1 F1500 X25.8769 Y127.8208 Z-0.1000 S500
G1 F1500 X26.8825 Y127.4544 Z-0.1000 S500
G1 F1500 X27.9058 Y127.1252 Z-0.1000 S500
G1 F1500 X27.9058 Y127.1252 Z-0.1000 S500
G1 F1500 X28.7684 Y126.8472 Z-0.1000 S500
G1 F1500 X29.6231 Y126.5521 Z-0.1000 S500
G1 F1500 X30.4679 Y126.2372 Z-0.1000 S500
G1 F1500 X31.3004 Y125.8995 Z-0.1000 S500
G1 F1500 X31.3004 Y125.8995 Z-0.1000 S500
G1 F1500 X32.2100 Y125.4970 Z-0.1000 S500
G1 F1500 X33.0629 Y125.0134 Z-0.1000 S500
G1 F1500 X33.8365 Y124.4420 Z-0.1000 S500
G1 F1500 X33.8365 Y124.4420 Z-0.1000 S500
G1 F1500 X34.4852 Y123.8502 Z-0.1000 S500
G1 F1500 X35.0215 Y123.1822 Z-0.1000 S500
G1 F1500 X35.4363 Y122.4545 Z-0.1000 S500
G1 F1500 X35.4363 Y122.4545 Z-0.1000 S500
G1 F1500 X35.7632 Y121.5625 Z-0.1000 S500
G1 F1500 X35.9328 Y120.6390 Z-0.1000 S500
G1 F1500 X35.9825 Y119.7050 Z-0.1000 S500
G1 F1500 X35.9825 Y119.7050 Z-0.1000 S500
G1 F1500 X35.9381 Y118.9168 Z-0.1000 S500
G1 F1500 X35.7951 Y118.1372 Z-0.1000 S500
G1 F1500 X35.5401 Y117.3786 Z-0.1000 S500
G1 F1500 X35.1648 Y116.6571 Z-0.1000 S500
G1 F1500 X34.6693 Y115.9900 Z-0.1000 S500
G1 F1500 X34.0643 Y115.3913 Z-0.1000 S500
G1 F1500 X33.3683 Y114.8687 Z-0.1000 S500
G1 F1500 X33.3683 Y114.8687 Z-0.1000 S500
G1 F1500 X32.5408 Y114.3996 Z-0.1000 S500
G1 F1500 X31.6499 Y114.0231 Z-0.1000 S500
G1 F1500 X30.7160 Y113.7307 Z-0.1000 S500
G1 F1500 X29.7546 Y113.5118 Z-0.1000 S500
G1 F1500 X28.7761 Y113.3559 Z-0.1000 S500
G1 F1500 X27.7878 Y113.2536 Z-0.1000 S500
G1 F1500 X26.7944 Y113.1969 Z-0.1000 S500
G1 F1500 X25.7989 Y113.1792 Z-0.1000 S500
G1 F1500 X25.7989 Y113.1792 Z-0.1000 S500
G1 F1500 X24.7676 Y113.1990 Z-0.1000 S500
G1 F1500 X23.7389 Y113.2627 Z-0.1000 S500
G1 F1500 X22.7164 Y113.3780 Z-0.1000 S500
G1 F1500 X22.7164 Y113.3780 Z-0.1000 S500
G1 F1500 X21.8899 Y113.4912 Z-0.1000 S500
G1 F1500 X21.0695 Y113.6328 Z-0.1000 S500
G1 F1500 X20.2583 Y113.8086 Z-0.1000 S500
G1 F1500 X20.2583 Y113.8086 Z-0.1000 S500
G1 F1500 X19.3343 Y114.0560 Z-0.1000 S500
G1 F1500 X18.4245 Y114.3386 Z-0.1000 S500
G1 F1500 X18.4245 Y114.3386 Z-0.1000 S500
G1 F1500 X17.1759 Y114.8687 Z-0.1000 S500
G1 F1500 X18.6196 Y118.2806 Z-0.1000 S500
G1 F1500 X18.6196 Y118.2806 Z-0.1000 S500
G1 F1500 X19.5426 Y117.8973 Z-0.1000 S500
G1 F1500 X20.4967 Y117.5727 Z-0.1000 S500
G1 F1500 X21.4679 Y117.2868 Z-0.1000 S500
G1 F1500 X21.4679 Y117.2868 Z-0.1000 S500
G1 F1500 X22.5277 Y117.0481 Z-0.1000 S500
G1 F1500 X23.6097 Y116.8964 Z-0.1000 S500
G1 F1500 X24.7023 Y116.8148 Z-0.1000 S500
G1 F1500 X25.7989 Y116.7900 Z-0.1000 S500
G1 F1500 X25.7989 Y116.7900 Z-0.1000 S500
G1 F1500 X25.7989 Y116.7900 Z-0.1000 S500

G0 Z0; move to z-safe height
G0 X157.7902 Y117.4226

G0 Z0
G1 F300 Z-0.1000
G1 F1500 X157.7902 Y117.4226 Z-0.1000 S500
G1 F1500 X158.7951 Y117.4540 Z-0.1000 S500
G1 F1500 X159.7922 Y117.5652 Z-0.1000 S500
G1 F1500 X160.7616 Y117.7945 Z-0.1000 S500
G1 F1500 X161.6476 Y118.2028 Z-0.1000 S500
G1 F1500 X161.6476 Y118.2028 Z-0.1000 S500
G1 F1500 X162.3267 Y118.8046 Z-0.1000 S500
G1 F1500 X162.7342 Y119.5695 Z-0.1000 S500
G1 F1500 X162.8555 Y120.4077 Z-0.1000 S500
G1 F1500 X162.8555 Y120.4077 Z-0.1000 S500
G1 F1500 X162.7577 Y121.1636 Z-0.1000 S500
G1 F1500 X162.4269 Y121.8663 Z-0.1000 S500
G1 F1500 X162.4269 Y121.8663 Z-0.1000 S500
G1 F1500 X161.9139 Y122.4667 Z-0.1000 S500
G1 F1500 X161.2580 Y122.9517 Z-0.1000 S500
G1 F1500 X161.2580 Y122.9517 Z-0.1000 S500
G1 F1500 X160.3768 Y123.4615 Z-0.1000 S500
G1 F1500 X159.4267 Y123.8676 Z-0.1000 S500
G1 F1500 X159.4267 Y123.8676 Z-0.1000 S500
G1 F1500 X158.6082 Y124.1780 Z-0.1000 S500
G1 F1500 X157.7758 Y124.4590 Z-0.1000 S500
G1 F1500 X156.9331 Y124.7156 Z-0.1000 S500
G1 F1500 X156.9331 Y124.7156 Z-0.1000 S500
G1 F1500 X156.0157 Y125.0141 Z-0.1000 S500
G1 F1500 X155.1063 Y125.3305 Z-0.1000 S500
G1 F1500 X154.2056 Y125.6654 Z-0.1000 S500
G1 F1500 X154.2056 Y125.6654 Z-0.1000 S500
G1 F1500 X153.3945 Y126.0454 Z-0.1000 S500
G1 F1500 X152.6252 Y126.4865 Z-0.1000 S500
G1 F1500 X151.9068 Y126.9883 Z-0.1000 S500
G1 F1500 X151.9068 Y126.9883 Z-0.1000 S500
G1 F1500 X151.2876 Y127.5513 Z-0.1000 S500
G1 F1500 X150.7541 Y128.1773 Z-0.1000 S500
G1 F1500 X150.3093 Y128.8539 Z-0.1000 S500
G1 F1500 X150.3093 Y128.8539 Z-0.1000 S500
G1 F1500 X149.9637 Y129.6946 Z-0.1000 S500
G1 F1500 X149.7795 Y130.5734 Z-0.1000 S500
G1 F1500 X149.7249 Y131.4658 Z-0.1000 S500
G1 F1500 X149.7249 Y131.4658 Z-0.1000 S500
G1 F1500 X149.7677 Y132.2717 Z-0.1000 S500
G1 F1500 X149.9054 Y133.0695 Z-0.1000 S500
G1 F1500 X150.1508 Y133.8472 Z-0.1000 S500
G1 F1500 X150.5125 Y134.5896 Z-0.1000 S500
G1 F1500 X150.9913 Y135.2799 Z-0.1000 S500
G1 F1500 X151.5784 Y135.9036 Z-0.1000 S500
G1 F1500 X152.2575 Y136.4522 Z-0.1000 S500
G1 F1500 X152.2575 Y136.4522 Z-0.1000 S500
G1 F1500 X152.9980 Y136.9266 Z-0.1000 S500
G1 F1500 X153.7960 Y137.3242 Z-0.1000 S500
G1 F1500 X154.6384 Y137.6451 Z-0.1000 S500
G1 F1500 X155.5128 Y137.8930 Z-0.1000 S500
G1 F1500 X156.4087 Y138.0739 Z-0.1000 S500
G1 F1500 X157.3180 Y138.1948 Z-0.1000 S500
G1 F1500 X158.2344 Y138.2626 Z-0.1000 S500
G1 F1500 X159.1540 Y138.2839 Z-0.1000 S500
G1 F1500 X159.1540 Y138.2839 Z-0.1000 S500
G1 F1500 X160.0606 Y138.2669 Z-0.1000 S500
G1 F1500 X160.9653 Y138.2128 Z-0.1000 S500
G1 F1500 X161.8654 Y138.1167 Z-0.1000 S500
G1 F1500 X162.7569 Y137.9729 Z-0.1000 S500
G1 F1500 X163.6347 Y137.7751 Z-0.1000 S500
G1 F1500 X163.6347 Y137.7751 Z-0.1000 S500
G1 F1500 X164.7043 Y137.4942 Z-0.1000 S500
G1 F1500 X165.7507 Y137.1540 Z-0.1000 S500
G1 F1500 X166.7518 Y136.7236 Z-0.1000 S500
G1 F1500 X165.2322 Y133.2636 Z-0.1000 S500
G1 F1500 X165.2322 Y133.2636 Z-0.1000 S500
G1 F1500 X164.2941 Y133.6688 Z-0.1000 S500
G1 F1500 X163.3165 Y133.9955 Z-0.1000 S500
G1 F1500 X162.3100 Y134.2473 Z-0.1000 S500
G1 F1500 X162.3100 Y134.2473 Z-0.1000 S500
G1 F1500 X161.2440 Y134.4378 Z-0.1000 S500
G1 F1500 X160.1635 Y134.5500 Z-0.1000 S500
G1 F1500 X159.0760 Y134.5865 Z-0.1000 S500
G1 F1500 X159.0760 Y134.5865 Z-0.1000 S500
G1 F1500 X157.9872 Y134.5256 Z-0.1000 S500
G1 F1500 X156.9262 Y134.3081 Z-0.1000 S500
G1 F1500 X155.9590 Y133.8742 Z-0.1000 S500
G1 F1500 X155.9590 Y133.8742 Z-0.1000 S500
G1 F1500 X155.3459 Y133.3265 Z-0.1000 S500
G1 F1500 X154.9778 Y132.6327 Z-0.1000 S500
G1 F1500 X154.8680 Y131.8729 Z-0.1000 S500
G1 F1500 X154.8680 Y131.8729 Z-0.1000 S500
G1 F1500 X154.9477 Y131.1752 Z-0.1000 S500
G1 F1500 X155.2187 Y130.5161 Z-0.1000 S500
G1 F1500 X155.2187 Y130.5161 Z-0.1000 S500
G1 F1500 X155.6935 Y129.9830 Z-0.1000 S500
G1 F1500 X156.2707 Y129.5323 Z-0.1000 S500
G1 F1500 X156.2707 Y129.5323 Z-0.1000 S500
G1 F1500 X157.0485 Y129.0942 Z-0.1000 S500
G1 F1500 X157.8682 Y128.7183 Z-0.1000 S500
G1 F1500 X157.8682 Y128.7183 Z-0.1000 S500
G1 F1500 X158.8724 Y128.3430 Z-0.1000 S500
G1 F1500 X159.8943 Y128.0059 Z-0.1000 S500
G1 F1500 X159.8943 Y128.0059 Z-0.1000 S500
G1 F1500 X160.7556 Y127.7213 Z-0.1000 S500
G1 F1500 X161.6091 Y127.4190 Z-0.1000 S500
G1 F1500 X162.4527 Y127.0966 Z-0.1000 S500
G1 F1500 X163.2840 Y126.7508 Z-0.1000 S500
G1 F1500 X163.2840 Y126.7508 Z-0.1000 S500
G1 F1500 X164.1924 Y126.3386 Z-0.1000 S500
G1 F1500 X165.0441 Y125.8434 Z-0.1000 S500
G1 F1500 X165.8167 Y125.2583 Z-0.1000 S500
G1 F1500 X165.8167 Y125.2583 Z-0.1000 S500
G1 F1500 X166.4644 Y124.6523 Z-0.1000 S500
G1 F1500 X166.9999 Y123.9683 Z-0.1000 S500
G1 F1500 X167.4141 Y123.2231 Z-0.1000 S500
G1 F1500 X167.4141 Y123.2231 Z-0.1000 S500
G1 F1500 X167.7406 Y122.3097 Z-0.1000 S500
G1 F1500 X167.9100 Y121.3641 Z-0.1000 S500
G1 F1500 X167.9596 Y120.4077 Z-0.1000 S500
G1 F1500 X167.9596 Y120.4077 Z-0.1000 S500
G1 F1500 X167.9153 Y119.6005 Z-0.1000 S500
G1 F1500 X167.7724 Y118.8022 Z-0.1000 S500
G1 F1500 X167.5179 Y118.0254 Z-0.1000 S500
G1 F1500 X167.1430 Y117.2866 Z-0.1000 S500
G1 F1500 X166.6482 Y116.6034 Z-0.1000 S500
G1 F1500 X166.0441 Y115.9904 Z-0.1000 S500
G1 F1500 X165.3491 Y115.4552 Z-0.1000 S500
G1 F1500 X165.3491 Y115.4552 Z-0.1000 S500
G1 F1500 X164.5227 Y114.9749 Z-0.1000 S500
G1 F1500 X163.6331 Y114.5894 Z-0.1000 S500
G1 F1500 X162.7005 Y114.2900 Z-0.1000 S500
G1 F1500 X161.7404 Y114.0659 Z-0.1000 S500
G1 F1500 X160.7633 Y113.9062 Z-0.1000 S500
G1 F1500 X159.7763 Y113.8014 Z-0.1000 S500
G1 F1500 X158.7844 Y113.7433 Z-0.1000 S500
G1 F1500 X157.7902 Y113.7253 Z-0.1000 S500
G1 F1500 X157.7902 Y113.7253 Z-0.1000 S500
G1 F1500 X156.7604 Y113.7455 Z-0.1000 S500
G1 F1500 X155.7332 Y113.8108 Z-0.1000 S500
G1 F1500 X154.7121 Y113.9288 Z-0.1000 S500
G1 F1500 X154.7121 Y113.9288 Z-0.1000 S500
G1 F1500 X153.8868 Y114.0447 Z-0.1000 S500
G1 F1500 X153.0675 Y114.1897 Z-0.1000 S500
G1 F1500 X152.2575 Y114.3698 Z-0.1000 S500
G1 F1500 X152.2575 Y114.3698 Z-0.1000 S500
G1 F1500 X151.3347 Y114.6231 Z-0.1000 S500
G1 F1500 X150.4262 Y114.9125 Z-0.1000 S500
G1 F1500 X150.4262 Y114.9125 Z-0.1000 S500
G1 F1500 X149.1794 Y115.4552 Z-0.1000 S500
G1 F1500 X150.6210 Y118.9491 Z-0.1000 S500
G1 F1500 X150.6210 Y118.9491 Z-0.1000 S500
G1 F1500 X151.5428 Y118.5565 Z-0.1000 S500
G1 F1500 X152.4955 Y118.2242 Z-0.1000 S500
G1 F1500 X153.4653 Y117.9315 Z-0.1000 S500
G1 F1500 X153.4653 Y117.9315 Z-0.1000 S500
G1 F1500 X154.5237 Y117.6870 Z-0.1000 S500
G1 F1500 X155.6042 Y117.5317 Z-0.1000 S500
G1 F1500 X156.6953 Y117.4480 Z-0.1000 S500
G1 F1500 X157.7902 Y117.4226 Z-0.1000 S500
G1 F1500 X157.7902 Y117.4226 Z-0.1000 S500
G1 F1500 X157.7902 Y117.4226 Z-0.1000 S500

G0 Z0; move to z-safe height
G0 X344.8946 Y344.8481

G0 Z0
G1 F300 Z-0.1000
G1 F1500 X344.8946 Y370.3949 Z-0.1000 S500
G1 F1500 X362.7350 Y370.3949 Z-0.1000 S500
G1 F1500 X362.7350 Y366.4505 Z-0.1000 S500
G1 F1500 X350.0268 Y366.4505 Z-0.1000 S500
G1 F1500 X350.0268 Y359.9255 Z-0.1000 S500
G1 F1500 X361.3094 Y359.9255 Z-0.1000 S500
G1 F1500 X361.3094 Y355.9810 Z-0.1000 S500
G1 F1500 X350.0268 Y355.9810 Z-0.1000 S500
G1 F1500 X350.0268 Y344.8481 Z-0.1000 S500
G1 F1500 X344.8946 Y344.8481 Z-0.1000 S500
G1 F1500 X344.8946 Y344.8481 Z-0.1000 S500

G0 Z0; move to z-safe height
G0 X249.7964 Y344.8481

G0 Z0
G1 F300 Z-0.1000
G1 F1500 X249.7964 Y370.3949 Z-0.1000 S500
G1 F1500 X267.6369 Y370.3949 Z-0.1000 S500
G1 F1500 X267.6369 Y366.4505 Z-0.1000 S500
G1 F1500 X254.9286 Y366.4505 Z-0.1000 S500
G1 F1500 X254.9286 Y359.9255 Z-0.1000 S500
G1 F1500 X266.2113 Y359.9255 Z-0.1000 S500
G1 F1500 X266.2113 Y355.9810 Z-0.1000 S500
G1 F1500 X254.9286 Y355.9810 Z-0.1000 S500
G1 F1500 X254.9286 Y344.8481 Z-0.1000 S500
G1 F1500 X249.7964 Y344.8481 Z-0.1000 S500
G1 F1500 X249.7964 Y344.8481 Z-0.1000 S500

G0 Z0; move to z-safe height
G0 X223.0477 Y245.1661

G0 Z0
G1 F300 Z-0.1000
G1 F1500 X223.0477 Y245.1661 Z-0.1000 S500
G1 F1500 X222.6552 Y245.9375 Z-0.1000 S500
G1 F1500 X222.2663 Y246.7103 Z-0.1000 S500
G1 F1500 X221.8809 Y247.4846 Z-0.1000 S500
G1 F1500 X221.4989 Y248.2602 Z-0.1000 S500
G1 F1500 X221.1203 Y249.0372 Z-0.1000 S500
G1 F1500 X220.7451 Y249.8156 Z-0.1000 S500
G1 F1500 X220.3732 Y250.5952 Z-0.1000 S500
G1 F1500 X220.0046 Y251.3761 Z-0.1000 S500
G1 F1500 X219.6393 Y252.1583 Z-0.1000 S500
G1 F1500 X219.2771 Y252.9417 Z-0.1000 S500
G1 F1500 X218.9182 Y253.7263 Z-0.1000 S500
G1 F1500 X218.5624 Y254.5121 Z-0.1000 S500
G1 F1500 X218.2097 Y255.2990 Z-0.1000 S500
G1 F1500 X217.8600 Y256.0871 Z-0.1000 S500
G1 F1500 X217.5134 Y256.8762 Z-0.1000 S500
G1 F1500 X217.5134 Y256.8762 Z-0.1000 S500
G1 F1500 X217.1665 Y257.6852 Z-0.1000 S500
G1 F1500 X216.8222 Y258.4950 Z-0.1000 S500
G1 F1500 X216.4805 Y259.3058 Z-0.1000 S500
G1 F1500 X216.1415 Y260.1174 Z-0.1000 S500
G1 F1500 X215.8051 Y260.9300 Z-0.1000 S500
G1 F1500 X215.4714 Y261.7435 Z-0.1000 S500
G1 F1500 X215.1404 Y262.5579 Z-0.1000 S500
G1 F1500 X214.8120 Y263.3731 Z-0.1000 S500
G1 F1500 X214.4864 Y264.1893 Z-0.1000 S500
G1 F1500 X214.1634 Y265.0063 Z-0.1000 S500
G1 F1500 X213.8432 Y265.8242 Z-0.1000 S500
G1 F1500 X213.5258 Y266.6430 Z-0.1000 S500
G1 F1500 X213.2111 Y267.4626 Z-0.1000 S500
G1 F1500 X212.8991 Y268.2831 Z-0.1000 S500
G1 F1500 X212.5899 Y269.1045 Z-0.1000 S500
G1 F1500 X217.8951 Y269.1045 Z-0.1000 S500
G1 F1500 X217.8951 Y269.1045 Z-0.1000 S500
G1 F1500 X218.2069 Y268.2813 Z-0.1000 S500
G1 F1500 X218.5187 Y267.4580 Z-0.1000 S500
G1 F1500 X218.8304 Y266.6347 Z-0.1000 S500
G1 F1500 X219.1421 Y265.8114 Z-0.1000 S500
G1 F1500 X219.4537 Y264.9881 Z-0.1000 S500
G1 F1500 X219.7653 Y264.1648 Z-0.1000 S500
G1 F1500 X219.7653 Y264.1648 Z-0.1000 S500
G1 F1500 X220.0801 Y263.3348 Z-0.1000 S500
G1 F1500 X220.3962 Y262.5051 Z-0.1000 S500
G1 F1500 X220.7136 Y261.6759 Z-0.1000 S500
G1 F1500 X221.0323 Y260.8470 Z-0.1000 S500
G1 F1500 X221.3523 Y260.0186 Z-0.1000 S500
G1 F1500 X221.6737 Y259.1906 Z-0.1000 S500
G1 F1500 X221.6737 Y259.1906 Z-0.1000 S500
G1 F1500 X221.9850 Y258.4054 Z-0.1000 S500
G1 F1500 X222.2989 Y257.6211 Z-0.1000 S500
G1 F1500 X222.6155 Y256.8376 Z-0.1000 S500
G1 F1500 X222.9348 Y256.0550 Z-0.1000 S500
G1 F1500 X223.2570 Y255.2734 Z-0.1000 S500
G1 F1500 X223.5820 Y254.4928 Z-0.1000 S500
G1 F1500 X223.5820 Y254.4928 Z-0.1000 S500
G1 F1500 X223.9387 Y253.6506 Z-0.1000 S500
G1 F1500 X224.3034 Y252.8111 Z-0.1000 S500
G1 F1500 X224.6766 Y251.9748 Z-0.1000 S500
G1 F1500 X225.0592 Y251.1419 Z-0.1000 S500
G1 F1500 X225.4522 Y250.3131 Z-0.1000 S500
G1 F1500 X225.4522 Y250.3131 Z-0.1000 S500
G1 F1500 X225.8296 Y251.1381 Z-0.1000 S500
G1 F1500 X226.2010 Y251.9653 Z-0.1000 S500
G1 F1500 X226.5669 Y252.7945 Z-0.1000 S500
G1 F1500 X226.9279 Y253.6256 Z-0.1000 S500
G1 F1500 X227.2842 Y254.4582 Z-0.1000 S500
G1 F1500 X227.2842 Y254.4582 Z-0.1000 S500
G1 F1500 X227.6110 Y255.2441 Z-0.1000 S500
G1 F1500 X227.9341 Y256.0311 Z-0.1000 S500
G1 F1500 X228.2537 Y256.8193 Z-0.1000 S500
G1 F1500 X228.5700 Y257.6087 Z-0.1000 S500
G1 F1500 X228.8829 Y258.3991 Z-0.1000 S500
G1 F1500 X229.1926 Y259.1906 Z-0.1000 S500
G1 F1500 X229.1926 Y259.1906 Z-0.1000 S500
G1 F1500 X229.5251 Y260.0170 Z-0.1000 S500
G1 F1500 X229.8543 Y260.8445 Z-0.1000 S500
G1 F1500 X230.1803 Y261.6731 Z-0.1000 S500
G1 F1500 X230.5031 Y262.5027 Z-0.1000 S500
G1 F1500 X230.8227 Y263.3332 Z-0.1000 S500
G1 F1500 X231.1391 Y264.1648 Z-0.1000 S500
G1 F1500 X231.1391 Y264.1648 Z-0.1000 S500
G1 F1500 X231.4491 Y264.9867 Z-0.1000 S500
G1 F1500 X231.7573 Y265.8091 Z-0.1000 S500
G1 F1500 X232.0636 Y266.6321 Z-0.1000 S500
G1 F1500 X232.3681 Y267.4556 Z-0.1000 S500
G1 F1500 X232.6706 Y268.2798 Z-0.1000 S500
G1 F1500 X232.9711 Y269.1045 Z-0.1000 S500
G1 F1500 X238.1236 Y269.1045 Z-0.1000 S500
G1 F1500 X238.1236 Y269.1045 Z-0.1000 S500
G1 F1500 X237.8097 Y268.2838 Z-0.1000 S500
G1 F1500 X237.4934 Y267.4638 Z-0.1000 S500
G1 F1500 X237.1746 Y266.6446 Z-0.1000 S500
G1 F1500 X236.8534 Y265.8262 Z-0.1000 S500
G1 F1500 X236.5297 Y265.0086 Z-0.1000 S500
G1 F1500 X236.2037 Y264.1918 Z-0.1000 S500
G1 F1500 X235.8752 Y263.3757 Z-0.1000 S500
G1 F1500 X235.5443 Y262.5605 Z-0.1000 S500
G1 F1500 X235.2111 Y261.7460 Z-0.1000 S500
G1 F1500 X234.8754 Y260.9324 Z-0.1000 S500
G1 F1500 X234.5374 Y260.1195 Z-0.1000 S500
G1 F1500 X234.1971 Y259.3075 Z-0.1000 S500
G1 F1500 X233.8544 Y258.4963 Z-0.1000 S500
G1 F1500 X233.5093 Y257.6858 Z-0.1000 S500
G1 F1500 X233.1619 Y256.8762 Z-0.1000 S500
G1 F1500 X233.1619 Y256.8762 Z-0.1000 S500
G1 F1500 X232.8198 Y256.0864 Z-0.1000 S500
G1 F1500 X232.4744 Y255.2978 Z-0.1000 S500
G1 F1500 X232.1257 Y254.5104 Z-0.1000 S500
G1 F1500 X231.7735 Y253.7242 Z-0.1000 S500
G1 F1500 X231.4180 Y252.9393 Z-0.1000 S500
G1 F1500 X231.0590 Y252.1557 Z-0.1000 S500
G1 F1500 X230.6965 Y251.3734 Z-0.1000 S500
G1 F1500 X230.3304 Y250.5924 Z-0.1000 S500
G1 F1500 X229.9608 Y249.8128 Z-0.1000 S500
G1 F1500 X229.5876 Y249.0347 Z-0.1000 S500
G1 F1500 X229.2107 Y248.2579 Z-0.1000 S500
G1 F1500 X228.8301 Y247.4827 Z-0.1000 S500
G1 F1500 X228.4458 Y246.7089 Z-0.1000 S500
G1 F1500 X228.0577 Y245.9367 Z-0.1000 S500
G1 F1500 X227.6659 Y245.1661 Z-0.1000 S500
G1 F1500 X223.0477 Y245.1661 Z-0.1000 S500
G1 F1500 X223.0477 Y245.1661 Z-0.1000 S500

G0 Z0; move to z-safe height
G0 X25.7526 Y83.6166

G0 Z0
G1 F300 Z-0.1000
G1 F1500 X25.7526 Y83.6166 Z-0.1000 S500
G1 F1500 X26.7487 Y83.6490 Z-0.1000 S500
G1 F1500 X27.7370 Y83.7636 Z-0.1000 S500
G1 F1500 X28.6979 Y83.9999 Z-0.1000 S500
G1 F1500 X29.5761 Y84.4206 Z-0.1000 S500
G1 F1500 X29.5761 Y84.4206 Z-0.1000 S500
G1 F1500 X30.2493 Y85.0407 Z-0.1000 S500
G1 F1500 X30.6532 Y85.8289 Z-0.1000 S500
G1 F1500 X30.7734 Y86.6927 Z-0.1000 S500
G1 F1500 X30.7734 Y86.6927 Z-0.1000 S500
G1 F1500 X30.6765 Y87.4716 Z-0.1000 S500
G1 F1500 X30.3486 Y88.1957 Z-0.1000 S500
G1 F1500 X30.3486 Y88.1957 Z-0.1000 S500
G1 F1500 X29.8401 Y88.8145 Z-0.1000 S500
G1 F1500 X29.1899 Y89.3143 Z-0.1000 S500
G1 F1500 X29.1899 Y89.3143 Z-0.1000 S500
G1 F1500 X28.3165 Y89.8395 Z-0.1000 S500
G1 F1500 X27.3747 Y90.2580 Z-0.1000 S500
G1 F1500 X27.3747 Y90.2580 Z-0.1000 S500
G1 F1500 X26.5634 Y90.5779 Z-0.1000 S500
G1 F1500 X25.7383 Y90.8675 Z-0.1000 S500
G1 F1500 X24.9029 Y91.1319 Z-0.1000 S500
G1 F1500 X24.9029 Y91.1319 Z-0.1000 S500
G1 F1500 X23.9936 Y91.4395 Z-0.1000 S500
G1 F1500 X23.0921 Y91.7656 Z-0.1000 S500
G1 F1500 X22.1994 Y92.1106 Z-0.1000 S500
G1 F1500 X22.1994 Y92.1106 Z-0.1000 S500
G1 F1500 X21.3953 Y92.5022 Z-0.1000 S500
G1 F1500 X20.6328 Y92.9567 Z-0.1000 S500
G1 F1500 X19.9207 Y93.4739 Z-0.1000 S500
G1 F1500 X19.9207 Y93.4739 Z-0.1000 S500
G1 F1500 X19.3070 Y94.0541 Z-0.1000 S500
G1 F1500 X18.7780 Y94.6991 Z-0.1000 S500
G1 F1500 X18.3372 Y95.3964 Z-0.1000 S500
G1 F1500 X18.3372 Y95.3964 Z-0.1000 S500
G1 F1500 X17.9946 Y96.2626 Z-0.1000 S500
G1 F1500 X17.8121 Y97.1683 Z-0.1000 S500
G1 F1500 X17.7579 Y98.0879 Z-0.1000 S500
G1 F1500 X17.7579 Y98.0879 Z-0.1000 S500
G1 F1500 X17.8003 Y98.9184 Z-0.1000 S500
G1 F1500 X17.9369 Y99.7404 Z-0.1000 S500
G1 F1500 X18.1801 Y100.5418 Z-0.1000 S500
G1 F1500 X18.5386 Y101.3069 Z-0.1000 S500
G1 F1500 X19.0132 Y102.0182 Z-0.1000 S500
G1 F1500 X19.5952 Y102.6609 Z-0.1000 S500
G1 F1500 X20.2683 Y103.2262 Z-0.1000 S500
G1 F1500 X20.2683 Y103.2262 Z-0.1000 S500
G1 F1500 X21.0023 Y103.7151 Z-0.1000 S500
G1 F1500 X21.7933 Y104.1248 Z-0.1000 S500
G1 F1500 X22.6284 Y104.4555 Z-0.1000 S500
G1 F1500 X23.4951 Y104.7109 Z-0.1000 S500
G1 F1500 X24.3832 Y104.8974 Z-0.1000 S500
G1 F1500 X25.2844 Y105.0219 Z-0.1000 S500
G1 F1500 X26.1929 Y105.0918 Z-0.1000 S500
G1 F1500 X27.1044 Y105.1138 Z-0.1000 S500
G1 F1500 X27.1044 Y105.1138 Z-0.1000 S500
G1 F1500 X28.0031 Y105.0962 Z-0.1000 S500
G1 F1500 X28.8998 Y105.0405 Z-0.1000 S500
G1 F1500 X29.7920 Y104.9415 Z-0.1000 S500
G1 F1500 X30.6758 Y104.7933 Z-0.1000 S500
G1 F1500 X31.5459 Y104.5895 Z-0.1000 S500
G1 F1500 X31.5459 Y104.5895 Z-0.1000 S500
G1 F1500 X32.6061 Y104.3000 Z-0.1000 S500
G1 F1500 X33.6433 Y103.9494 Z-0.1000 S500
G1 F1500 X34.6356 Y103.5059 Z-0.1000 S500
G1 F1500 X33.1294 Y99.9405 Z-0.1000 S500
G1 F1500 X33.1294 Y99.9405 Z-0.1000 S500
G1 F1500 X32.1995 Y100.3580 Z-0.1000 S500
G1 F1500 X31.2304 Y100.6946 Z-0.1000 S500
G1 F1500 X30.2327 Y100.9542 Z-0.1000 S500
G1 F1500 X30.2327 Y100.9542 Z-0.1000 S500
G1 F1500 X29.1761 Y101.1504 Z-0.1000 S500
G1 F1500 X28.1050 Y101.2660 Z-0.1000 S500
G1 F1500 X27.0271 Y101.3037 Z-0.1000 S500
G1 F1500 X27.0271 Y101.3037 Z-0.1000 S500
G1 F1500 X25.9478 Y101.2409 Z-0.1000 S500
G1 F1500 X24.8961 Y101.0167 Z-0.1000 S500
G1 F1500 X23.9374 Y100.5697 Z-0.1000 S500
G1 F1500 X23.9374 Y100.5697 Z-0.1000 S500
G1 F1500 X23.3297 Y100.0053 Z-0.1000 S500
G1 F1500 X22.9648 Y99.2903 Z-0.1000 S500
G1 F1500 X22.8560 Y98.5073 Z-0.1000 S500
G1 F1500 X22.8560 Y98.5073 Z-0.1000 S500
G1 F1500 X22.9350 Y97.7884 Z-0.1000 S500
G1 F1500 X23.2035 Y97.1091 Z-0.1000 S500
G1 F1500 X23.2035 Y97.1091 Z-0.1000 S500
G1 F1500 X23.6742 Y96.5598 Z-0.1000 S500
G1 F1500 X24.2463 Y96.0955 Z-0.1000 S500
G1 F1500 X24.2463 Y96.0955 Z-0.1000 S500
G1 F1500 X25.0173 Y95.6440 Z-0.1000 S500
G1 F1500 X25.8298 Y95.2565 Z-0.1000 S500
G1 F1500 X25.8298 Y95.2565 Z-0.1000 S500
