; LightBurn 1.0.04
; GRBL device profile, current position
; Bounds: X0 Y0 to X384.24 Y384.22
G00 G17 G40 G21 G54
G91
M4
; Cut @ 500 mm/min, 100% power
M8
G0X16.088Y46.755
; Layer C00
G1Y2.811S1000F500
G1X0.408Y0.672
G1X0.437Y0.698
G1X0.467Y0.725
G1X0.496Y0.752
G1X1.091Y1.583
G1X1.15Y1.619
G1X1.199Y1.646
G1X1.239Y1.663
G1X1.287Y1.637
G1X1.268Y1.566
G1X1.239Y1.521
G1X1.199Y1.432
G1X0.599Y0.692
G1X0.58Y0.651
G1X0.56Y0.612
G1X0.541Y0.571
G1X-13.092
G1Y3.808
G1X19.5
G1Y-3.309
G1X-0.333Y-0.333
G1X-0.35Y-0.357
G1X-0.367Y-0.381
G1X-0.385Y-0.406
G1X-0.402Y-0.43
G1X-0.418Y-0.455
G1X-0.437Y-0.479
G1X-1.384Y-1.543
G1X-0.946Y-1.087
G1X-0.961Y-1.137
G1X-0.975Y-1.185
G1X-1.956Y-2.428
G1X-1.937Y-2.518
G1X-0.916Y-1.247
G1X-0.863Y-1.217
G1X-0.808Y-1.185
G1X-0.754Y-1.154
G1X14.625
G1Y-3.808
G1X-20.601
G0X34.161Y0
; Layer C00
G1Y24.659
G1X17.495
G1Y-3.808
G1X-12.541
G1Y-6.084
G1X11.165
G1Y-3.736
G1X-11.165
G1Y-7.223
G1X13.485
G1Y-3.808
G1X-18.439
G0X31.429Y0
; Layer C00
G1Y24.659
G1X4.953
G1Y-9.856
G1X11.834
G1Y9.856
G1X4.954
G1Y-24.659
G1X-4.954
G1Y10.924
G1X-11.834
G1Y-10.924
G1X-4.953
G0X32.667Y0
; Layer C00
G1Y24.659
G1X4.049
G1X0.801Y-0.783
G1X0.831Y-0.854
G1X0.86Y-0.925
G1X0.889Y-0.996
G1X1.809Y-2.073
G1X1.808Y-2.162
G1X1.809Y-2.215
G1X2.57Y-3.318
G1X0.791Y-1.049
G1X0.742Y-1.015
G1X0.693Y-0.978
G1Y16.368
G1X4.915
G1Y-24.659
G1X-4.207
G1X-0.688Y1.032
G1X-0.727Y1.068
G1X-0.767Y1.103
G1X-0.806Y1.138
G1X-1.681Y2.349
G1X-1.739Y2.348
G1X-0.89Y1.181
G1X-0.899Y1.159
G1X-0.909Y1.136
G1X-0.919Y1.114
G1X-0.895Y1.092
G1X-0.875Y1.034
G1X-0.855Y0.977
G1X-0.835Y0.918
G1Y-17.649
G1X-4.875
G0X9.653Y-13.257
; Layer C00
G1X0.624Y0.16
G1X0.647Y0.099
G1X0.667Y0.034
G1X0.666Y-0.034
G1X0.647Y-0.098
G1X0.625Y-0.161
G1X0.598Y-0.219
G1X0.57Y-0.274
G1X0.537Y-0.327
G1X0.502Y-0.375
G1X0.463Y-0.421
G1X0.42Y-0.462
G1X0.375Y-0.502
G1X0.327Y-0.537
G1X0.274Y-0.57
G1X0.219Y-0.599
G1X0.161Y-0.624
G1X0.098Y-0.647
G1X0.034Y-0.666
G1X-0.033Y-0.666
G1X-0.099Y-0.647
G1X-0.161Y-0.625
G1X-0.219Y-0.598
G1X-0.274Y-0.57
G1X-0.326Y-0.537
G1X-0.375Y-0.502
G1X-0.421Y-0.462
G1X-0.463Y-0.421
G1X-0.501Y-0.375
G1X-0.538Y-0.327
G1X-0.569Y-0.274
G1X-0.599Y-0.219
G1X-0.625Y-0.161
G1X-0.647Y-0.099
G1X-0.666Y-0.034
G1X-0.666Y0.034
G1X-0.648Y0.099
G1X-0.624Y0.16
G1X-0.599Y0.219
G1X-0.569Y0.275
G1X-0.538Y0.326
G1X-0.501Y0.375
G1X-0.463Y0.421
G1X-0.421Y0.463
G1X-0.375Y0.501
G1X-0.326Y0.538
G1X-0.275Y0.569
G1X-0.219Y0.599
G1X-0.16Y0.624
G1X-0.099Y0.647
G1X-0.034Y0.667
G1X0.034Y0.666
G1X0.099Y0.647
G1X0.16Y0.624
G1X0.219Y0.599
G1X0.274Y0.569
G1X0.327Y0.537
G1X0.375Y0.502
G1X0.42Y0.463
G1X0.463Y0.42
G1X0.502Y0.376
G1X0.537Y0.326
G1X0.57Y0.275
G1X0.599Y0.219
G0X29.903Y-4.286
; Layer C00
G1X0.219Y0.599
G1X0.274Y0.569
G1X0.326Y0.537
G1X0.376Y0.502
G1X0.42Y0.463
G1X0.463Y0.42
G1X0.502Y0.376
G1X0.537Y0.326
G1X0.569Y0.275
G1X0.599Y0.219
G1X0.625Y0.16
G1X0.647Y0.099
G1X0.666Y0.034
G1X0.667Y-0.034
G1X0.647Y-0.098
G1X0.624Y-0.161
G1X0.599Y-0.219
G1X0.57Y-0.274
G1X0.537Y-0.327
G1X0.502Y-0.375
G1X0.462Y-0.421
G1X0.421Y-0.462
G1X0.375Y-0.502
G1X0.326Y-0.537
G1X0.275Y-0.57
G1X0.219Y-0.599
G1X0.16Y-0.624
G1X0.099Y-0.647
G1X0.034Y-0.666
G1X-0.034Y-0.666
G1X-0.098Y-0.647
G1X-0.161Y-0.625
G1X-0.219Y-0.598
G1X-0.274Y-0.57
G1X-0.327Y-0.537
G1X-0.375Y-0.502
G1X-0.42Y-0.462
G1X-0.463Y-0.421
G1X-0.502Y-0.375
G1X-0.537Y-0.327
G1X-0.57Y-0.274
G1X-0.598Y-0.219
G1X-0.625Y-0.161
G1X-0.647Y-0.099
G1X-0.667Y-0.034
G1X-0.666Y0.034
G1X-0.647Y0.099
G1X-0.624Y0.16
G1X-0.599Y0.219
G1X-0.57Y0.275
G1X-0.537Y0.326
G1X-0.502Y0.375
G1X-0.462Y0.421
G1X-0.421Y0.463
G1X-0.375Y0.501
G1X-0.326Y0.538
G1X-0.275Y0.569
G1X-0.219Y0.599
G1X-0.16Y0.624
G1X-0.099Y0.647
G1X-0.034Y0.667
G1X0.034Y0.666
G1X0.098Y0.647
G1X0.161Y0.624
G0X-4.412Y17.543
; Layer C00
G1Y24.659
G1X17.495
G1Y-3.808
G1X-12.541
G1Y-6.084
G1X11.165
G1Y-3.736
G1X-11.165
G1Y-7.223
G1X13.485
G1Y-3.808
G1X-18.439
G0X32.344Y5.434
; Layer C00
G1X-0.168Y0.437
G1X-0.275Y0.912
G1X-0.197Y0.956
G1X-0.118Y1.001
G1X-0.039Y1.045
G1Y15.407
G1X4.993
G1Y-14.98
G1X0.024Y-0.807
G1X0.074Y-0.749
G1X0.123Y-0.692
G1X0.172Y-0.634
G1X0.236Y-0.56
G1X0.275Y-0.507
G1X0.315Y-0.454
G1X0.353Y-0.4
G1X0.408Y-0.349
G1X0.438Y-0.301
G1X0.467Y-0.251
G1X0.496Y-0.202
G1X0.545Y-0.156
G1X0.575Y-0.111
G1X0.605Y-0.067
G1X0.634Y-0.022
G1X0.634Y0.022
G1X0.604Y0.067
G1X0.575Y0.111
G1X0.546Y0.156
G1X0.511Y0.202
G1X0.471Y0.251
G1X0.433Y0.301
G1X0.393Y0.349
G1X0.369Y0.4
G1X0.319Y0.454
G1X0.27Y0.507
G1X0.222Y0.56
G1X0.189Y0.634
G1X0.135Y0.692
G1X0.081Y0.749
G1X0.027Y0.807
G1Y14.98
G1X4.993
G1Y-15.407
G1X-0.042Y-1.045
G1X-0.125Y-1.001
G1X-0.209Y-0.956
G1X-0.293Y-0.912
G1X-0.168Y-0.437
G1X-0.19Y-0.423
G1X-0.213Y-0.409
G1X-0.235Y-0.394
G1X-0.256Y-0.38
G1X-0.279Y-0.365
G1X-0.301Y-0.351
G1X-0.323Y-0.336
G1X-0.336Y-0.32
G1X-0.36Y-0.303
G1X-0.382Y-0.285
G1X-0.406Y-0.266
G1X-0.43Y-0.25
G1X-0.453Y-0.231
G1X-0.476Y-0.213
G1X-0.499Y-0.196
G1X-0.523Y-0.167
G1X-0.546Y-0.144
G1X-0.569Y-0.123
G1X-0.593Y-0.1
G1X-0.616Y-0.078
G1X-0.64Y-0.055
G1X-0.663Y-0.034
G1X-0.686Y-0.011
G1X-0.685Y0.011
G1X-0.661Y0.034
G1X-0.636Y0.055
G1X-0.612Y0.078
G1X-0.588Y0.1
G1X-0.562Y0.123
G1X-0.538Y0.144
G1X-0.514Y0.167
G1X-0.491Y0.196
G1X-0.47Y0.213
G1X-0.449Y0.231
G1X-0.428Y0.25
G1X-0.407Y0.266
G1X-0.387Y0.285
G1X-0.365Y0.303
G1X-0.345Y0.32
G1X-0.314Y0.336
G1X-0.293Y0.351
G1X-0.272Y0.365
G1X-0.251Y0.38
G1X-0.23Y0.394
G1X-0.21Y0.409
G1X-0.188Y0.423
G0X31.752Y-5.434
; Layer C00
G1Y24.659
G1X4.05
G1X0.801Y-0.783
G1X0.83Y-0.854
G1X0.86Y-0.925
G1X0.89Y-0.996
G1X1.808Y-2.073
G1X1.809Y-2.162
G1X1.808Y-2.215
G1X2.57Y-3.318
G1X0.792Y-1.049
G1X0.742Y-1.015
G1X0.692Y-0.978
G1Y16.368
G1X4.915
G1Y-24.659
G1X-4.207
G1X-0.688Y1.032
G1X-0.727Y1.068
G1X-0.767Y1.103
G1X-0.806Y1.138
G1X-1.68Y2.349
G1X-1.74Y2.348
G1X-0.89Y1.181
G1X-0.899Y1.159
G1X-0.909Y1.136
G1X-0.919Y1.114
G1X-0.895Y1.092
G1X-0.874Y1.034
G1X-0.855Y0.977
G1X-0.836Y0.918
G1Y-17.649
G1X-4.875
G0X9.932Y-13.257
; Layer C00
G1X0.624Y0.16
G1X0.647Y0.099
G1X0.667Y0.034
G1X0.666Y-0.034
G1X0.647Y-0.098
G1X0.624Y-0.161
G1X0.599Y-0.219
G1X0.57Y-0.274
G1X0.537Y-0.327
G1X0.502Y-0.375
G1X0.462Y-0.421
G1X0.421Y-0.462
G1X0.375Y-0.502
G1X0.327Y-0.537
G1X0.274Y-0.57
G1X0.219Y-0.599
G1X0.161Y-0.624
G1X0.098Y-0.647
G1X0.034Y-0.666
G1X-0.033Y-0.666
G1X-0.099Y-0.647
G1X-0.161Y-0.625
G1X-0.219Y-0.598
G1X-0.274Y-0.57
G1X-0.326Y-0.537
G1X-0.375Y-0.502
G1X-0.421Y-0.462
G1X-0.463Y-0.421
G1X-0.501Y-0.375
G1X-0.538Y-0.327
G1X-0.569Y-0.274
G1X-0.599Y-0.219
G1X-0.625Y-0.161
G1X-0.647Y-0.099
G1X-0.666Y-0.034
G1X-0.667Y0.034
G1X-0.647Y0.099
G1X-0.624Y0.16
G1X-0.599Y0.219
G1X-0.569Y0.275
G1X-0.538Y0.326
G1X-0.501Y0.375
G1X-0.463Y0.421
G1X-0.421Y0.463
G1X-0.375Y0.501
G1X-0.326Y0.538
G1X-0.275Y0.569
G1X-0.219Y0.599
G1X-0.16Y0.624
G1X-0.099Y0.647
G1X-0.034Y0.667
G1X0.034Y0.666
G1X0.099Y0.647
G1X0.16Y0.624
G1X0.219Y0.599
G1X0.274Y0.569
G1X0.327Y0.537
G1X0.375Y0.502
G1X0.42Y0.463
G1X0.463Y0.42
G1X0.502Y0.376
G1X0.537Y0.326
G1X0.57Y0.275
G1X0.599Y0.219
G0X28.941Y-4.286
; Layer C00
G1X0.219Y0.599
G1X0.275Y0.569
G1X0.326Y0.537
G1X0.375Y0.502
G1X0.42Y0.463
G1X0.463Y0.42
G1X0.502Y0.376
G1X0.537Y0.326
G1X0.57Y0.275
G1X0.599Y0.219
G1X0.624Y0.16
G1X0.647Y0.099
G1X0.667Y0.034
G1X0.666Y-0.034
G1X0.647Y-0.098
G1X0.625Y-0.161
G1X0.598Y-0.219
G1X0.57Y-0.274
G1X0.537Y-0.327
G1X0.502Y-0.375
G1X0.463Y-0.421
G1X0.42Y-0.462
G1X0.375Y-0.502
G1X0.327Y-0.537
G1X0.274Y-0.57
G1X0.219Y-0.599
G1X0.161Y-0.624
G1X0.099Y-0.647
G1X0.033Y-0.666
G1X-0.033Y-0.666
G1X-0.099Y-0.647
G1X-0.161Y-0.625
G1X-0.219Y-0.598
G1X-0.274Y-0.57
G1X-0.326Y-0.537
G1X-0.375Y-0.502
G1X-0.421Y-0.462
G1X-0.463Y-0.421
G1X-0.501Y-0.375
G1X-0.538Y-0.327
G1X-0.569Y-0.274
G1X-0.599Y-0.219
G1X-0.625Y-0.161
G1X-0.647Y-0.099
G1X-0.666Y-0.034
G1X-0.666Y0.034
G1X-0.647Y0.099
G1X-0.625Y0.16
G1X-0.599Y0.219
G1X-0.569Y0.275
G1X-0.538Y0.326
G1X-0.501Y0.375
G1X-0.463Y0.421
G1X-0.421Y0.463
G1X-0.375Y0.501
G1X-0.326Y0.538
G1X-0.274Y0.569
G1X-0.22Y0.599
G1X-0.16Y0.624
G1X-0.099Y0.647
G1X-0.034Y0.667
G1X0.034Y0.666
G1X0.099Y0.647
G1X0.16Y0.624
G0X-3.119Y17.543
; Layer C00
G1Y24.659
G1X4.953
G1Y-20.78
G1X12.267
G1Y-3.879
G1X-17.22
G0X31.734Y5.434
; Layer C00
G1X-0.168Y0.437
G1X-0.275Y0.912
G1X-0.197Y0.956
G1X-0.118Y1.001
G1X-0.039Y1.045
G1Y15.407
G1X4.993
G1Y-14.98
G1X0.024Y-0.807
G1X0.074Y-0.749
G1X0.123Y-0.692
G1X0.172Y-0.634
G1X0.236Y-0.56
G1X0.275Y-0.507
G1X0.315Y-0.454
G1X0.353Y-0.4
G1X0.408Y-0.349
G1X0.438Y-0.301
G1X0.467Y-0.251
G1X0.496Y-0.202
G1X0.545Y-0.156
G1X0.575Y-0.111
G1X0.605Y-0.067
G1X0.634Y-0.022
G1X0.634Y0.022
G1X0.604Y0.067
G1X0.575Y0.111
G1X0.546Y0.156
G1X0.511Y0.202
G1X0.472Y0.251
G1X0.432Y0.301
G1X0.393Y0.349
G1X0.369Y0.4
G1X0.319Y0.454
G1X0.27Y0.507
G1X0.222Y0.56
G1X0.189Y0.634
G1X0.135Y0.692
G1X0.081Y0.749
G1X0.027Y0.807
G1Y14.98
G1X4.993
G1Y-15.407
G1X-0.042Y-1.045
G1X-0.125Y-1.001
G1X-0.209Y-0.956
G1X-0.292Y-0.912
G1X-0.169Y-0.437
G1X-0.19Y-0.423
G1X-0.213Y-0.409
G1X-0.234Y-0.394
G1X-0.257Y-0.38
G1X-0.279Y-0.365
G1X-0.301Y-0.351
G1X-0.323Y-0.336
G1X-0.336Y-0.32
G1X-0.36Y-0.303
G1X-0.382Y-0.285
G1X-0.406Y-0.266
G1X-0.43Y-0.25
G1X-0.452Y-0.231
G1X-0.477Y-0.213
G1X-0.499Y-0.196
G1X-0.523Y-0.167
G1X-0.546Y-0.144
G1X-0.569Y-0.123
G1X-0.593Y-0.1
G1X-0.616Y-0.078
G1X-0.64Y-0.055
G1X-0.663Y-0.034
G1X-0.685Y-0.011
G1X-0.686Y0.011
G1X-0.661Y0.034
G1X-0.636Y0.055
G1X-0.612Y0.078
G1X-0.587Y0.1
G1X-0.563Y0.123
G1X-0.538Y0.144
G1X-0.514Y0.167
G1X-0.491Y0.196
G1X-0.47Y0.213
G1X-0.449Y0.231
G1X-0.428Y0.25
G1X-0.407Y0.266
G1X-0.387Y0.285
G1X-0.365Y0.303
G1X-0.345Y0.32
G1X-0.314Y0.336
G1X-0.293Y0.351
G1X-0.272Y0.365
G1X-0.251Y0.38
G1X-0.23Y0.394
G1X-0.21Y0.409
G1X-0.188Y0.423
G0X32.165Y-5.434
; Layer C00
G1Y24.659
G1X4.954
G1Y-9.856
G1X11.834
G1Y9.856
G1X4.953
G1Y-24.659
G1X-4.953
G1Y10.924
G1X-11.834
G1Y-10.924
G1X-4.954
G0X39.139Y13.051
; Layer C00
G1X1.367
G1X0.769Y0.015
G1X0.714Y0.045
G1X0.659Y0.074
G1X0.603Y0.104
G1X0.548Y0.134
G1X0.492Y0.163
G1X0.438Y0.193
G1X0.382Y0.223
G1X0.332Y0.26
G1X0.287Y0.284
G1X0.244Y0.31
G1X0.199Y0.334
G1X0.155Y0.358
G1X0.111Y0.384
G1X0.066Y0.408
G1X0.022Y0.434
G1X-0.023Y0.468
G1X-0.071Y0.437
G1X-0.119Y0.405
G1X-0.166Y0.372
G1X-0.214Y0.341
G1X-0.26Y0.308
G1X-0.309Y0.276
G1X-0.356Y0.243
G1X-0.394Y0.214
G1X-0.425Y0.185
G1X-0.454Y0.156
G1X-0.485Y0.129
G1X-0.515Y0.099
G1X-0.545Y0.071
G1X-0.575Y0.043
G1X-0.604Y0.014
G1X-0.393Y-0.01
G1X-0.468Y-0.029
G1X-0.3Y0.027
G1X-0.332Y0.04
G1X-0.148
G1X-0.121Y-0.014
G1X-0.081Y-0.048
G1X-0.03Y-0.085
G1Y-4.72
G1X-6.283Y0.088
G1X0.059Y8.355
G1X0.949Y0.148
G1X1.024Y0.129
G1X1.114Y0.129
G1X2.201Y0.138
G1X1.037Y0.05
G1X0.491Y0.017
G1X0.458Y0.013
G1X0.427Y0.007
G1X0.396
G1X1.309Y-0.027
G1X1.246Y-0.089
G1X1.183Y-0.149
G1X1.12Y-0.208
G1X1.05Y-0.269
G1X0.974Y-0.334
G1X0.898Y-0.399
G1X0.822Y-0.463
G1X0.381Y-0.256
G1X0.356Y-0.273
G1X0.333Y-0.291
G1X0.309Y-0.308
G1X0.286Y-0.326
G1X0.261Y-0.342
G1X0.238Y-0.36
G1X0.215Y-0.378
G1X0.201Y-0.385
G1X0.175Y-0.402
G1X0.148Y-0.419
G1X0.121Y-0.437
G1X0.094Y-0.454
G1X0.067Y-0.472
G1X0.041Y-0.488
G1X0.013Y-0.507
G1X-0.017Y-0.528
G1X-0.053Y-0.516
G1X-0.087Y-0.504
G1X-0.121Y-0.491
G1X-0.157Y-0.479
G1X-0.191Y-0.466
G1X-0.226Y-0.454
G1X-0.261Y-0.442
G1X-0.302Y-0.423
G1X-0.347Y-0.396
G1X-0.393Y-0.371
G1X-0.439Y-0.344
G1X-0.484Y-0.319
G1X-0.531Y-0.293
G1X-0.576Y-0.266
G1X-0.622Y-0.241
G1X0.436Y-0.53
G1X0.449Y-0.559
G1X0.462Y-0.589
G1X0.474Y-0.619
G1X0.949Y-1.267
G1X0.924Y-1.346
G1X0.885Y-1.356
G1X0.835Y-1.376
G1X0.415Y-0.666
G1X0.382Y-0.651
G1X0.351Y-0.636
G1X0.32Y-0.621
G1X-6.528
G1X-0.607Y1.176
G1X-0.658Y1.15
G1X-0.709Y1.126
G1X-0.759Y1.102
G1X-0.775Y1.111
G1X-0.806Y1.116
G1X-0.838Y1.121
G1X-0.87Y1.126
G1X-3.239
G1Y-9.028
G1X-6.224
G1Y12.861
G1X6.224Y0.206
G0X-0.021Y20.036
; Layer C00
G1X-4.866
G1Y24.224
G1X16.916
G1Y-3.74
G1X-12.05
G1Y-6.187
G1X10.698
G1Y-3.741
G1X-10.699
G1Y-10.556
G0X-20.891Y0
; Layer C00
G1X-16.916
G1Y24.224
G1X4.866
G1Y-20.414
G1X12.05
G1Y-3.81
G0X-30.066Y5.469
; Layer C00
G1X-0.19Y-0.45
G1X-0.212Y-0.432
G1X-0.234Y-0.413
G1X-0.257Y-0.395
G1X-0.279Y-0.376
G1X-0.302Y-0.358
G1X-0.323Y-0.34
G1X-0.346Y-0.32
G1X-0.684Y-0.576
G1X-0.645Y-0.497
G1X-0.645Y-0.419
G1X-0.682Y-0.341
G1X-0.366Y-0.142
G1X-0.39Y-0.123
G1X-0.417Y-0.103
G1X-0.449Y-0.085
G1X-0.487Y-0.065
G1X-0.529Y-0.047
G1X-0.574Y-0.028
G1X-0.626Y-0.009
G1X-0.07Y3.609
G1X0.371Y0.064
G1X0.369Y0.125
G1X0.357Y0.175
G1X0.336Y0.21
G1X0.305Y0.235
G1X0.265Y0.245
G1X0.216Y0.245
G1X0.156Y0.232
G1X0.246Y0.473
G1X0.197Y0.507
G1X0.148Y0.541
G1X0.099Y0.576
G1X0.086Y0.604
G1X0.061Y0.626
G1X0.037Y0.65
G1X0.013Y0.673
G1X-0.013Y0.672
G1X-0.037Y0.65
G1X-0.061Y0.626
G1X-0.086Y0.604
G1X-0.099Y0.587
G1X-0.148Y0.546
G1X-0.197Y0.503
G1X-0.246Y0.462
G1X-0.153Y0.229
G1X-0.208Y0.241
G1X-0.26Y0.244
G1X-0.309Y0.239
G1X-0.353Y0.223
G1X-0.393Y0.198
G1X-0.43Y0.166
G1X-0.464Y0.123
G1X0.012Y3.477
G1X0.646Y-0.01
G1X0.597Y-0.028
G1X0.553Y-0.048
G1X0.513Y-0.066
G1X0.477Y-0.086
G1X0.444Y-0.105
G1X0.416Y-0.124
G1X0.392Y-0.143
G1X0.729Y-0.346
G1X0.681Y-0.424
G1X0.665Y-0.503
G1X0.683Y-0.583
G1X0.34Y-0.317
G1X0.318Y-0.336
G1X0.296Y-0.355
G1X0.275Y-0.373
G1X0.252Y-0.392
G1X0.231Y-0.411
G1X0.208Y-0.43
G1X0.187Y-0.448
G1X0.164Y-0.467
G1X0.143Y-0.486
G1X0.121Y-0.505
G1X0.098Y-0.523
G1X0.077Y-0.542
G1X0.055Y-0.561
G1X0.033Y-0.58
G1X0.011Y-0.598
G1X-0.011Y-0.599
G1X-0.034Y-0.58
G1X-0.056Y-0.562
G1X-0.078Y-0.543
G1X-0.1Y-0.524
G1X-0.123Y-0.506
G1X-0.145Y-0.488
G1X-0.168Y-0.469
G0X-11.241Y-1.99
; Layer C00
G1Y-3.503
G1X-0.653Y0.009
G1X-0.609Y0.027
G1X-0.572Y0.046
G1X-0.538Y0.064
G1X-0.506Y0.082
G1X-0.478Y0.101
G1X-0.451Y0.121
G1X-0.43Y0.139
G1X-0.802Y0.336
G1X-0.748Y0.415
G1X-0.717Y0.494
G1X-0.71Y0.575
G1X-0.34Y0.32
G1X-0.319Y0.34
G1X-0.296Y0.358
G1X-0.274Y0.376
G1X-0.253Y0.395
G1X-0.23Y0.413
G1X-0.208Y0.432
G1X-0.187Y0.45
G1X-0.165Y0.469
G1X-0.142Y0.488
G1X-0.121Y0.506
G1X-0.099Y0.524
G1X-0.076Y0.543
G1X-0.055Y0.562
G1X-0.033Y0.58
G1X-0.011Y0.599
G1X0.011Y0.598
G1X0.034Y0.58
G1X0.057Y0.561
G1X0.079Y0.542
G1X0.103Y0.523
G1X0.125Y0.505
G1X0.147Y0.486
G1X0.171Y0.467
G1X0.193Y0.448
G1X0.215Y0.43
G1X0.239Y0.411
G1X0.261Y0.392
G1X0.284Y0.373
G1X0.307Y0.355
G1X0.329Y0.336
G1X0.352Y0.317
G1X0.714Y0.582
G1X0.704Y0.5
G1X0.721Y0.42
G1X0.765Y0.34
G1X0.408Y0.142
G1X0.429Y0.121
G1X0.453Y0.103
G1X0.481Y0.083
G1X0.512Y0.065
G1X0.546Y0.046
G1X0.584Y0.028
G1X0.625Y0.009
G1X-0.029Y-3.503
G1X-0.566Y-0.121
G1X-0.5Y-0.161
G1X-0.436Y-0.193
G1X-0.374Y-0.217
G1X-0.317Y-0.232
G1X-0.261Y-0.241
G1X-0.209Y-0.242
G1X-0.159Y-0.234
G1X-0.228Y-0.46
G1X-0.191Y-0.497
G1X-0.154Y-0.536
G1X-0.117Y-0.574
G1X-0.065Y-0.604
G1X-0.046Y-0.626
G1X-0.028Y-0.65
G1X-0.009Y-0.672
G1X0.009Y-0.675
G1X0.028Y-0.655
G1X0.046Y-0.636
G1X0.065Y-0.618
G1X0.117Y-0.573
G1X0.154Y-0.536
G1X0.191Y-0.498
G1X0.228Y-0.459
G1X0.188Y-0.235
G1X0.28Y-0.254
G1X0.354Y-0.259
G1X0.409Y-0.249
G1X0.443Y-0.225
G1X0.46Y-0.187
G1X0.457Y-0.134
G1X0.434Y-0.068
G0X-23.151Y2.215
; Layer C00
G1X-0.676Y-2.86
G1X-0.71Y-2.794
G1X-3.294
G1X-0.533Y1.786
G1X-0.528Y1.825
G1X-0.525Y1.867
G1X-0.52Y1.906
G1X-0.516Y1.947
G1X-0.511Y1.988
G1X-0.508Y2.028
G1X-0.503Y2.068
G1X-0.509Y-2.088
G1X-0.513Y-2.037
G1X-0.516Y-1.983
G1X-0.52Y-1.931
G1X-0.521Y-1.89
G1X-0.522Y-1.859
G1X-0.521Y-1.829
G1X-0.522Y-1.798
G1X-3.293
G1X-0.722Y2.794
G1X-0.685Y2.86
G1X-0.646Y2.925
G1X-0.609Y2.991
G1X-0.564Y3.072
G1X-0.541Y3.133
G1X-0.516Y3.194
G1X-0.492Y3.255
G1X3.705
G1X0.336Y-2.403
G1X0.35Y-2.456
G1X0.384Y-2.464
G1X0.384Y-2.43
G1X0.412Y-2.342
G1X0.411Y-2.272
G1X0.206Y-1.096
G1X0.206Y-1.053
G1X0.206Y-1.01
G1X0.206Y-0.965
G1X0.521Y1.826
G1X0.522Y1.914
G1X0.542Y2.001
G1X0.528Y2.019
G1X0.508Y2.053
G1X0.48Y2.036
G1X0.473Y1.993
G1X0.433Y1.922
G1X2.964
G1X0.452Y-1.931
G1X0.481Y-2.019
G1X0.501Y-2.036
G1X0.514Y-2.053
G1X0.542Y-2.019
G1X0.528Y-2.001
G1X1.043Y-3.705
G1X0.204Y0.963
G1X0.201Y1.003
G1X0.197Y1.042
G1X0.194Y1.081
G1X0.384Y2.272
G1X0.385Y2.342
G1X0.377Y2.43
G1X0.364Y2.464
G1X0.37Y2.464
G1X0.343Y2.43
G1X3.568
G1X-0.494Y-3.255
G1X-0.522Y-3.194
G1X-0.548Y-3.133
G1X-0.577Y-3.072
G1X-0.607Y-2.991
G1X-0.641Y-2.925
G0X18.301Y16.426
; Layer C00
G1X-0.281Y0.222
G1X-0.194Y0.251
G1X-0.112Y0.294
G1X-0.036Y0.351
G1X0.036Y0.351
G1X0.111Y0.296
G1X0.194Y0.252
G1X0.282Y0.222
G1X0.385Y0.198
G1X0.417Y0.141
G1X0.452Y0.086
G1X0.492Y0.029
G1X0.474Y-0.029
G1X0.44Y-0.086
G1X0.41Y-0.143
G1X0.385Y-0.199
G1X0.163Y-0.11
G1X0.138Y-0.115
G1X0.114Y-0.121
G1X0.091Y-0.13
G1X0.116Y-0.293
G1X0.037Y-0.349
G1X-0.037Y-0.347
G1X-0.117Y-0.293
G1X-0.203Y-0.251
G1X-0.298Y-0.223
G1X-0.385Y-0.189
G1X-0.411Y-0.135
G1X-0.441Y-0.081
G1X-0.476Y-0.027
G1X-0.493Y0.027
G1X-0.452Y0.082
G1X-0.416Y0.134
G1X-0.385Y0.185
G0X7.558Y0.765
; Layer C00
G1X-0.036Y0.35
G1X0.036Y0.351
G1X0.112Y0.294
G1X0.194Y0.251
G1X0.281Y0.222
G1X0.385Y0.198
G1X0.416Y0.144
G1X0.452Y0.086
G1X0.493Y0.029
G1X0.489Y-0.026
G1X0.444Y-0.084
G1X0.402Y-0.141
G1X0.365Y-0.196
G1X0.01Y-0.01
G1X0.301Y-0.224
G1X0.207Y-0.252
G1X0.118Y-0.293
G1X0.037Y-0.349
G1X-0.037Y-0.348
G1X-0.118Y-0.294
G1X-0.205Y-0.252
G1X-0.299Y-0.224
G1X-0.371Y-0.185
G1X-0.404Y-0.134
G1X-0.447Y-0.081
G1X-0.492Y-0.028
G1X-0.493Y0.028
G1X-0.452Y0.081
G1X-0.417Y0.134
G1X-0.384Y0.185
G1X-0.281Y0.222
G1X-0.194Y0.252
G1X-0.112Y0.294
G0X-0.077Y10.548
; Layer C00
G1X-0.75Y0.014
G1X-0.73Y0.039
G1X-0.711Y0.066
G1X-0.691Y0.093
G1X-0.672Y0.119
G1X-0.652Y0.145
G1X-0.633Y0.172
G1X-0.613Y0.198
G1X-0.592Y0.224
G1X-0.569Y0.248
G1X-0.546Y0.272
G1X-0.523Y0.296
G1X-0.5Y0.321
G1X-0.476Y0.344
G1X-0.453Y0.369
G1X-0.431Y0.394
G1X-0.406Y0.425
G1X-0.382Y0.447
G1X-0.358Y0.469
G1X-0.333Y0.491
G1X-0.31Y0.514
G1X-0.284Y0.535
G1X-0.261Y0.557
G1X-0.236Y0.58
G1X-0.21Y0.601
G1X-0.182Y0.624
G1X-0.154Y0.645
G1X-0.126Y0.667
G1X-0.098Y0.69
G1X-0.07Y0.712
G1X-0.042Y0.733
G1X-0.014Y0.756
G1X0.016Y0.755
G1X0.048Y0.734
G1X0.079Y0.711
G1X0.11Y0.69
G1X0.143Y0.667
G1X0.174Y0.646
G1X0.206Y0.623
G1X0.237Y0.602
G1X0.274Y0.579
G1X0.298Y0.555
G1X0.321Y0.533
G1X0.343Y0.509
G1X0.367Y0.487
G1X0.39Y0.463
G1X0.414Y0.44
G1X0.436Y0.417
G1X0.458Y0.401
G1X0.477Y0.376
G1X0.496Y0.351
G1X0.516Y0.326
G1X0.536Y0.3
G1X0.555Y0.274
G1X0.574Y0.25
G1X0.594Y0.224
G1X0.609Y0.198
G1X0.62Y0.172
G1X0.631Y0.146
G1X0.642Y0.119
G1X0.653Y0.092
G1X0.664Y0.066
G1X0.675Y0.04
G1X0.685Y0.013
G1X0.818Y-0.015
G1X0.779Y-0.047
G1X0.74Y-0.077
G1X0.701Y-0.108
G1X0.66Y-0.11
G1X0.616Y-0.119
G1X0.571Y-0.128
G1X0.529Y-0.136
G1X0.484Y-0.143
G1X0.441Y-0.148
G1X0.396Y-0.152
G1X0.353Y-0.156
G1X0.307Y-0.148
G1X0.467Y-0.229
G1X0.161Y-0.082
G1X-1.441Y-3.63
G1X-0.247Y0.131
G1X-0.272Y0.129
G1X-0.297Y0.127
G1X-0.323Y0.124
G1X-0.349Y0.122
G1X-0.374Y0.12
G1X-0.4Y0.118
G1X-0.425Y0.116
G1X-0.877Y0.216
G1X-0.915Y0.154
G1X-0.954Y0.093
G1X-0.993Y0.03
G1X-0.862Y-0.035
G1X-0.832Y-0.106
G1X-0.803Y-0.176
G1X-0.774Y-0.247
G1X-0.735Y-0.299
G1X-0.687Y-0.37
G1X-0.637Y-0.441
G1X-0.589Y-0.511
G1X-0.516Y-0.581
G1X-0.458Y-0.653
G1X-0.399Y-0.722
G1X-0.341Y-0.793
G1X-0.146Y-0.423
G1X-0.127Y-0.439
G1X-0.107Y-0.455
G1X-0.087Y-0.472
G1X-0.068Y-0.488
G1X-0.049Y-0.505
G1X-0.029Y-0.522
G1X-0.01Y-0.538
G1X0.029Y-0.949
G1X0.088Y-0.91
G1X0.146Y-0.87
G1X0.204Y-0.831
G1X0.285Y-0.784
G1X0.348Y-0.732
G1X0.411Y-0.678
G1X0.475Y-0.626
G1X0.541Y-0.55
G1X0.608Y-0.489
G1X0.677Y-0.428
G1X0.744Y-0.366
G1X0.4Y-0.148
G1X0.418Y-0.129
G1X0.438Y-0.109
G1X0.458Y-0.089
G1X0.477Y-0.07
G1X0.497Y-0.049
G1X0.516Y-0.03
G1X0.535Y-0.01
G1X0.637Y0.007
G1X0.607Y0.022
G1X0.576Y0.035
G1X0.546Y0.051
G1X0.515Y0.064
G1X0.485Y0.079
G1X0.455Y0.093
G1X0.424Y0.107
G1X0.772Y0.243
G1X0.679Y0.233
G1X0.586Y0.225
G1X0.494Y0.216
G1X1.325Y-3.631
G1X-0.256Y-0.141
G1X-0.299Y-0.141
G1X-0.344Y-0.141
G1X-0.387Y-0.141
G1X-0.409Y-0.141
G1X-0.447Y-0.141
G1X-0.487Y-0.141
G1X-0.526Y-0.141
G1X-0.562Y-0.116
G1X-0.597Y-0.104
G1X-0.63Y-0.09
G1X-0.664Y-0.077
G1X-0.694Y-0.077
G1X-0.718Y-0.056
G1X-0.743Y-0.033
G1X-0.766Y-0.011
G0X20.012Y0.288
; Layer C00
G1Y24.426
G1X4.907
G1Y-9.763
G1X11.723
G1Y9.763
G1X4.907
G1Y-24.426
G1X-4.907
G1Y10.821
G1X-11.723
G1Y-10.821
G1X-4.907
G0X41.293Y-0.161
; Layer C00
G1Y20.585
G1X-8.295
G1Y3.841
G1X21.536
G1Y-3.841
G1X-8.295
G1Y-20.585
G1X-4.946
G0X-20.45Y33.02
; Layer C00
G1X-18.388
G1Y24.592
G1X17.448
G1Y-3.797
G1X-12.508
G1Y-6.068
G1X11.135
G1Y-3.726
G1X-11.135
G1Y-7.204
G1X13.448
G1Y-3.797
G0X18.977Y13.275
; Layer C00
G1X1.362
G1X0.767Y0.015
G1X0.712Y0.044
G1X0.657Y0.074
G1X0.602Y0.104
G1X0.546Y0.133
G1X0.492Y0.163
G1X0.436Y0.193
G1X0.381Y0.222
G1X0.331Y0.259
G1X0.287Y0.284
G1X0.243Y0.308
G1X0.198Y0.334
G1X0.155Y0.357
G1X0.11Y0.383
G1X0.067Y0.407
G1X0.022Y0.432
G1X-0.024Y0.468
G1X-0.071Y0.435
G1X-0.118Y0.404
G1X-0.166Y0.371
G1X-0.213Y0.34
G1X-0.26Y0.307
G1X-0.308Y0.275
G1X-0.354Y0.243
G1X-0.394Y0.213
G1X-0.423Y0.185
G1X-0.454Y0.156
G1X-0.483Y0.127
G1X-0.513Y0.1
G1X-0.544Y0.071
G1X-0.573Y0.042
G1X-0.603Y0.015
G1X-0.391Y-0.01
G1X-0.467Y-0.03
G1X-0.3Y0.028
G1X-0.331Y0.039
G1X-0.148
G1X-0.12Y-0.014
G1X-0.081Y-0.047
G1X-0.029Y-0.085
G1Y-4.707
G1X-6.267Y0.088
G1X0.059Y8.332
G1X0.946Y0.148
G1X1.022Y0.128
G1X1.111Y0.128
G1X2.195Y0.138
G1X1.035Y0.05
G1X0.488Y0.017
G1X0.458Y0.013
G1X0.426Y0.007
G1X0.394
G1X1.306Y-0.027
G1X1.242Y-0.089
G1X1.18Y-0.148
G1X1.117Y-0.207
G1X1.047Y-0.269
G1X0.971Y-0.334
G1X0.896Y-0.397
G1X0.82Y-0.462
G1X0.379Y-0.255
G1X0.356Y-0.273
G1X0.332Y-0.29
G1X0.308Y-0.307
G1X0.285Y-0.325
G1X0.261Y-0.341
G1X0.237Y-0.359
G1X0.214Y-0.377
G1X0.201Y-0.384
G1X0.174Y-0.401
G1X0.148Y-0.418
G1X0.12Y-0.436
G1X0.094Y-0.452
G1X0.067Y-0.471
G1X0.04Y-0.487
G1X0.014Y-0.505
G1X-0.017Y-0.527
G1X-0.052Y-0.514
G1X-0.087Y-0.503
G1X-0.122Y-0.489
G1X-0.156Y-0.478
G1X-0.191Y-0.465
G1X-0.225Y-0.453
G1X-0.26Y-0.441
G1X-0.301Y-0.421
G1X-0.346Y-0.396
G1X-0.392Y-0.369
G1X-0.438Y-0.344
G1X-0.483Y-0.318
G1X-0.529Y-0.292
G1X-0.575Y-0.266
G1X-0.62Y-0.24
G1X0.435Y-0.528
G1X0.448Y-0.557
G1X0.46Y-0.588
G1X0.473Y-0.617
G1X0.947Y-1.263
G1X0.921Y-1.343
G1X0.883Y-1.353
G1X0.832Y-1.372
G1X0.414Y-0.664
G1X0.381Y-0.649
G1X0.35Y-0.634
G1X0.319Y-0.62
G1X-6.51
G1X-0.606Y1.173
G1X-0.656Y1.147
G1X-0.706Y1.123
G1X-0.757Y1.099
G1X-0.773Y1.108
G1X-0.804Y1.113
G1X-0.836Y1.118
G1X-0.868Y1.123
G1X-3.229
G1Y-9.004
G1X-6.208
G1Y12.826
G1X6.208Y0.206
G0X0.833Y19.179
; Layer C00
G1Y24.702
G1X4.962
G1Y-24.702
G1X-4.962
G0X-19.572Y0.294
; Layer C00
G1X-18.472
G1Y24.703
G1X17.526
G1Y-3.814
G1X-12.564
G1Y-6.096
G1X11.186
G1Y-3.743
G1X-11.186
G1Y-7.236
G1X13.51
G1Y-3.814
G0X-33.804Y3.103
; Layer C00
G1X-0.725Y-2.849
G1X-3.358
G1X-0.544Y1.821
G1X-0.539Y1.862
G1X-0.535Y1.903
G1X-0.53Y1.944
G1X-0.526Y1.986
G1X-0.522Y2.027
G1X-0.517Y2.068
G1X-0.513Y2.109
G1X-0.52Y-2.13
G1X-0.523Y-2.076
G1X-0.526Y-2.023
G1X-0.53Y-1.97
G1X-0.532Y-1.927
G1X-0.532Y-1.896
G1X-0.531Y-1.865
G1X-0.532Y-1.833
G1X-3.359
G1X-0.736Y2.849
G1X-0.698Y2.917
G1X-0.659Y2.983
G1X-0.621Y3.05
G1X-0.576Y3.132
G1X-0.551Y3.195
G1X-0.526Y3.257
G1X-0.502Y3.32
G1X3.778
G1X0.343Y-2.451
G1X0.357Y-2.504
G1X0.391Y-2.513
G1X0.392Y-2.478
G1X0.42Y-2.388
G1X0.42Y-2.317
G1X0.21Y-1.118
G1X0.21Y-1.074
G1X0.21Y-1.029
G1X0.209Y-0.985
G1X0.532Y1.862
G1X0.532Y1.952
G1X0.553Y2.041
G1X0.538Y2.058
G1X0.518Y2.094
G1X0.49Y2.077
G1X0.483Y2.032
G1X0.44Y1.96
G1X3.023
G1X0.462Y-1.969
G1X0.49Y-2.059
G1X0.51Y-2.076
G1X0.525Y-2.094
G1X0.553Y-2.059
G1X0.539Y-2.041
G1X1.063Y-3.778
G1X0.208Y0.982
G1X0.205Y1.023
G1X0.201Y1.063
G1X0.198Y1.102
G1X0.392Y2.317
G1X0.392Y2.389
G1X0.384Y2.477
G1X0.371Y2.513
G1X0.378Y2.513
G1X0.35Y2.478
G1X3.638
G1X-0.504Y-3.32
G1X-0.531Y-3.257
G1X-0.56Y-3.195
G1X-0.588Y-3.132
G1X-0.619Y-3.05
G1X-0.654Y-2.983
G1X-0.689Y-2.917
G0X-6.126Y-11.189
; Layer C00
G1Y-24.591
G1X-4.94
G1Y24.591
G1X4.94
G0X-22.325Y0.072
; Layer C00
G1X-1.215Y-3.141
G1X-1.255Y-3.14
G1X-1.294Y-3.141
G1X-1.333Y-3.14
G1X-1.367Y-3.107
G1X-1.397Y-3.041
G1X-1.426Y-2.974
G1X-1.456Y-2.908
G1X-4.744
G1X-1.458Y2.908
G1X-1.434Y2.974
G1X-1.409Y3.041
G1X-1.384Y3.107
G1X-1.331Y3.14
G1X-1.286Y3.141
G1X-1.243Y3.14
G1X-1.198Y3.141
G1X5.45
G1X1.921Y-5.075
G1X0.98Y-2.573
G1X0.98Y-2.537
G1X0.981Y-2.448
G1X0.98Y-2.378
G1X0.487Y-1.146
G1X0.483Y-1.098
G1X0.478Y-1.049
G1X0.473Y-1
G1X0.456Y0.998
G1X0.465Y1.042
G1X0.476Y1.087
G1X0.485Y1.131
G1X0.98Y2.386
G1X0.98Y2.475
G1X1.01Y2.538
G1X0.99Y2.572
G1X0.961Y2.564
G1X0.921Y2.511
G1X5.293
G0X-4.003Y8.088
; Layer C00
G1X-20.638
G1Y2.816
G1X0.408Y0.673
G1X0.438Y0.699
G1X0.468Y0.726
G1X0.497Y0.753
G1X1.093Y1.587
G1X1.152Y1.622
G1X1.201Y1.648
G1X1.241Y1.667
G1X1.29Y1.639
G1X1.27Y1.569
G1X1.241Y1.524
G1X1.201Y1.434
G1X0.601Y0.693
G1X0.581Y0.653
G1X0.561Y0.613
G1X0.541Y0.572
G1X-13.115
G1Y3.814
G1X19.535
G1Y-3.315
G1X-0.333Y-0.333
G1X-0.351Y-0.357
G1X-0.368Y-0.382
G1X-0.385Y-0.407
G1X-0.403Y-0.431
G1X-0.419Y-0.456
G1X-0.437Y-0.48
G1X-1.387Y-1.545
G1X-0.948Y-1.089
G1X-0.963Y-1.139
G1X-0.977Y-1.187
G1X-1.959Y-2.433
G1X-1.94Y-2.522
G1X-0.918Y-1.25
G1X-0.864Y-1.218
G1X-0.81Y-1.188
G1X-0.756Y-1.156
G1X14.652
G1Y-3.814
G0X-30.434Y-7.731
; Layer C00
G1X-8.587Y-11.71
G1X0.734Y-0.908
G1X0.712Y-0.895
G1X0.69Y-0.883
G1X0.667Y-0.871
G1X0.646Y-0.859
G1X0.624Y-0.847
G1X0.601Y-0.834
G1X1.147Y-1.63
G1X0.543Y-0.79
G1X0.52Y-0.771
G1X0.497Y-0.754
G1X0.473Y-0.737
G1X0.451Y-0.718
G1X0.427Y-0.701
G1X0.403Y-0.683
G1X-5.802
G1X-0.606Y1.073
G1X-0.678Y1.127
G1X-0.753Y1.18
G1X-0.826Y1.233
G1X-0.872Y1.249
G1X-0.892Y1.226
G1X-0.911Y1.204
G1X-0.932Y1.182
G1X-0.402Y-0.483
G1X-0.421Y-0.528
G1X-0.441Y-0.572
G1X-0.461Y-0.617
G1X-0.911Y-1.295
G1X-0.932Y-1.331
G1X-0.872Y-1.295
G1X-0.814Y-1.26
G1X-0.372Y-0.596
G1X-0.333Y-0.548
G1X-0.294Y-0.499
G1X-0.255Y-0.45
G1X-5.607
G1X0.917Y1.517
G1X0.985Y1.535
G1X1.053Y1.552
G1X1.123Y1.57
G1X1.181Y1.615
G1X1.23Y1.65
G1X1.279Y1.685
G1X1.328Y1.721
G1X-8.704Y11.746
G1X5.881
G1X5.999Y-8.41
G1X5.921Y8.41
G1X5.646
G0X-3.526Y7.289
; Layer C00
G1X-18.472
G1Y24.703
G1X17.527
G1Y-3.814
G1X-12.565
G1Y-6.096
G1X11.186
G1Y-3.743
G1X-11.186
G1Y-7.236
G1X13.51
G1Y-3.814
G0X-32.571Y5.495
; Layer C00
G1X-0.187Y-0.385
G1X-0.216Y-0.365
G1X-0.24Y-0.337
G1X-0.262Y-0.32
G1X-0.283Y-0.304
G1X-0.304Y-0.288
G1X-0.325Y-0.272
G1X-0.346Y-0.255
G1X-0.368Y-0.239
G1X-0.389Y-0.222
G1X-0.813Y-0.382
G1X-0.893Y-0.327
G1X-0.971Y-0.27
G1X-1.05Y-0.214
G1X-1.086Y-0.147
G1X-1.128Y-0.105
G1X-1.171Y-0.063
G1X-1.213Y-0.021
G1X-1.002Y0.012
G1X-1.019Y0.035
G1X-1.038Y0.058
G1X-1.056Y0.082
G1X-1.061Y0.086
G1X-1.056Y0.109
G1X-1.05Y0.133
G1X-1.044Y0.156
G1Y3.359
G1X6.872Y0.01
G1X0.284
G1X0.916Y-0.038
G1X0.738Y-0.009
G1X1.004Y0.028
G1X0.98Y0.084
G1X0.469Y0.086
G1X0.439Y0.11
G1X0.409Y0.133
G1X0.378Y0.156
G1X0.369Y0.203
G1X0.333Y0.235
G1X0.296Y0.268
G1X0.26Y0.3
G1X0.212Y0.357
G1X0.151Y0.399
G1X0.091Y0.44
G1X0.03Y0.482
G1X-0.022Y0.405
G1X-0.066Y0.374
G1X-0.109Y0.343
G1X-0.154Y0.314
G1X-0.197Y0.283
G1X-0.241Y0.253
G1X-0.286Y0.222
G1X-0.329Y0.193
G1X-0.353Y0.174
G1X-0.385Y0.152
G1X-0.414Y0.128
G1X-0.445Y0.105
G1X-0.475Y0.081
G1X-0.505Y0.059
G1X-0.536Y0.035
G1X-0.565Y0.011
G1X-3.195
G1X-0.04Y-4.261
G1X-5.873Y0.03
G1X-0.041Y2.9
G1X-0.017Y0.686
G1X-0.009Y0.635
G1Y0.601
G1Y0.584
G1Y0.586
G1X0.021Y1.93
G1X8.283Y0.109
G1X0.552Y0.017
G1X0.516Y0.038
G1X0.482Y0.059
G1X0.447Y0.08
G1X0.412Y0.103
G1X0.378Y0.125
G1X0.342Y0.15
G1X0.308Y0.174
G1X0.272Y0.204
G1X0.236Y0.222
G1X0.2Y0.24
G1X0.163Y0.256
G1X0.127Y0.275
G1X0.091Y0.292
G1X0.055Y0.309
G1X0.018Y0.327
G1X-0.021Y0.389
G1X-0.064Y0.347
G1X-0.106Y0.306
G1X-0.148Y0.263
G1X-0.185Y0.245
G1X-0.214Y0.212
G1X-0.245Y0.179
G1X-0.276Y0.147
G1X-0.302Y0.135
G1X-0.327Y0.107
G1X-0.351Y0.079
G1X-0.375Y0.052
G1X-0.787Y0.084
G1X-0.81Y0.027
G1X-0.69Y-0.009
G1X-0.714Y-0.028
G1X-0.69Y-0.047
G1X-0.617Y-0.065
G1X0.04Y-3.325
G1X-6Y0.023
G1X0.006Y1.226
G1Y5.656
G1X0.868Y0.107
G1X0.91Y0.098
G1X0.953Y0.088
G1X2.009Y0.161
G1X1.007Y0.058
G1X1.002Y0.035
G1X0.995Y0.012
G1X0.827Y-0.009
G1X0.788Y-0.026
G1X0.749Y-0.044
G1X0.71Y-0.061
G1X0.67Y-0.079
G1X0.631Y-0.096
G1X0.591Y-0.113
G1X0.552Y-0.131
G1X0.518Y-0.137
G1X0.49Y-0.148
G1X0.46Y-0.159
G1X0.432Y-0.172
G1X0.403Y-0.183
G1X0.374Y-0.194
G1X0.346Y-0.206
G1X0.317Y-0.218
G1X0.29Y-0.218
G1X0.267Y-0.225
G1X0.242Y-0.232
G1X0.218Y-0.239
G1X0.193Y-0.246
G1X0.17Y-0.252
G1X0.145Y-0.26
G1X0.121Y-0.267
G1X0.19Y-0.541
G1X0.137Y-0.54
G1X0.081Y-0.541
G1X0.027Y-0.541
G1X-0.016Y-0.404
G1X-0.05Y-0.393
G1X-0.083Y-0.38
G1X-0.117Y-0.37
G1X-0.15Y-0.358
G1X-0.183Y-0.346
G1X-0.216Y-0.334
G1X-0.249Y-0.323
G1X-0.266Y-0.309
G1X-0.288Y-0.292
G1X-0.311Y-0.276
G1X-0.334Y-0.26
G1X-0.356Y-0.244
G1X-0.379Y-0.227
G1X-0.401Y-0.211
G1X-0.425Y-0.194
G1X0.732Y-0.224
G1X0.669Y-0.242
G1X0.607Y-0.261
G1X0.546Y-0.28
G1X0.483Y-0.298
G1X0.421Y-0.317
G1X0.36Y-0.336
G1X0.297Y-0.354
G1X0.261Y-0.366
G1X0.226Y-0.37
G1X0.191Y-0.375
G1X0.157Y-0.38
G1X0.122Y-0.385
G1X0.087Y-0.389
G1X0.052Y-0.394
G1X0.017Y-0.398
G1X-0.014Y-0.512
G1X-0.043Y-0.49
G1X-0.072Y-0.47
G1X-0.101Y-0.448
G1X-0.129Y-0.428
G1X-0.158Y-0.407
G0X-0.264Y-12.713
; Layer C00
G1Y-3.796
G1X-12.507
G1Y-6.068
G1X11.135
G1Y-3.726
G1X-11.135
G1Y-7.204
G1X13.448
G1Y-3.797
G1X-18.388
G1Y24.591
G1X17.447
G0X-31.064Y0.143
; Layer C00
G1X-1.333Y-1.375
G1X-1.412Y-1.428
G1X-1.47Y-1.464
G1X-1.51Y-1.481
G1X-1.539Y-1.455
G1X-3.077Y-2.874
G1X-1.5Y-1.349
G1X0.826Y-0.592
G1X0.83Y-0.641
G1X0.836Y-0.69
G1X0.841Y-0.738
G1X0.857Y-0.761
G1X0.848Y-0.792
G1X0.838Y-0.822
G1X0.828Y-0.854
G1X0.814Y-0.863
G1X0.794Y-0.885
G1X0.774Y-0.907
G1X1.502Y-1.852
G1X0.713Y-0.922
G1X0.679Y-0.923
G1X0.645Y-0.923
G1X-5.842
G1X-0.529Y0.719
G1X-0.569Y0.736
G1X-0.608Y0.754
G1X-0.646Y0.772
G1X-0.677Y0.774
G1X-0.696Y0.761
G1X-0.715Y0.747
G1X-0.735Y0.734
G1X-0.733Y0.719
G1X-0.748Y0.701
G1X-0.762Y0.683
G1X-0.776Y0.665
G1X-0.782Y0.634
G1X-0.777Y0.59
G1X-0.772Y0.546
G1X-0.767Y0.501
G1Y-11.036
G1X-4.94
G1Y24.591
G1X4.94
G1Y-10.148
G1X1.323Y1.206
G1X1.382Y1.278
G1X1.402Y1.348
G1X1.382Y1.349
G1X1.372Y1.357
G1X1.294Y1.304
G1X0.613Y0.623
G1X1.661Y1.683
G1X5.921
G0X-15.382Y20.64
; Layer C00
G1X1.369
G1X0.771Y0.015
G1X0.715Y0.045
G1X0.66Y0.074
G1X0.604Y0.104
G1X0.549Y0.134
G1X0.494Y0.163
G1X0.438Y0.194
G1X0.382Y0.223
G1X0.333Y0.26
G1X0.288Y0.285
G1X0.244Y0.31
G1X0.2Y0.335
G1X0.155Y0.36
G1X0.111Y0.384
G1X0.067Y0.409
G1X0.022Y0.434
G1X-0.024Y0.47
G1X-0.071Y0.437
G1X-0.119Y0.406
G1X-0.166Y0.373
G1X-0.214Y0.341
G1X-0.262Y0.308
G1X-0.309Y0.277
G1X-0.356Y0.244
G1X-0.395Y0.214
G1X-0.426Y0.185
G1X-0.455Y0.157
G1X-0.486Y0.128
G1X-0.515Y0.1
G1X-0.546Y0.071
G1X-0.576Y0.043
G1X-0.606Y0.014
G1X-0.393Y-0.01
G1X-0.469Y-0.029
G1X-0.301Y0.027
G1X-0.333Y0.04
G1X-0.148
G1X-0.121Y-0.014
G1X-0.081Y-0.048
G1X-0.03Y-0.085
G1Y-4.728
G1X-6.294Y0.088
G1X0.059Y8.37
G1X0.95Y0.148
G1X1.027Y0.129
G1X1.115Y0.129
G1X2.205Y0.139
G1X1.04Y0.05
G1X0.491Y0.017
G1X0.459Y0.012
G1X0.428Y0.008
G1X0.396
G1X1.312Y-0.028
G1X1.248Y-0.089
G1X1.185Y-0.149
G1X1.122Y-0.208
G1X1.052Y-0.27
G1X0.976Y-0.335
G1X0.899Y-0.399
G1X0.824Y-0.464
G1X0.381Y-0.256
G1X0.357Y-0.274
G1X0.334Y-0.291
G1X0.31Y-0.309
G1X0.286Y-0.326
G1X0.262Y-0.343
G1X0.238Y-0.361
G1X0.215Y-0.378
G1X0.202Y-0.386
G1X0.175Y-0.403
G1X0.148Y-0.42
G1X0.121Y-0.437
G1X0.094Y-0.455
G1X0.068Y-0.473
G1X0.04Y-0.489
G1X0.014Y-0.507
G1X-0.018Y-0.53
G1X-0.052Y-0.517
G1X-0.087Y-0.504
G1X-0.122Y-0.492
G1X-0.157Y-0.48
G1X-0.192Y-0.467
G1X-0.226Y-0.455
G1X-0.262Y-0.443
G1X-0.301Y-0.423
G1X-0.348Y-0.397
G1X-0.394Y-0.372
G1X-0.439Y-0.345
G1X-0.486Y-0.319
G1X-0.532Y-0.293
G1X-0.577Y-0.268
G1X-0.623Y-0.241
G1X0.437Y-0.53
G1X0.45Y-0.56
G1X0.462Y-0.591
G1X0.476Y-0.619
G1X0.95Y-1.27
G1X0.925Y-1.348
G1X0.888Y-1.359
G1X0.836Y-1.378
G1X0.415Y-0.667
G1X0.383Y-0.652
G1X0.352Y-0.638
G1X0.32Y-0.622
G1X-6.54
G1X-0.608Y1.178
G1X-0.659Y1.153
G1X-0.71Y1.128
G1X-0.76Y1.103
G1X-0.776Y1.113
G1X-0.808Y1.118
G1X-0.84Y1.123
G1X-0.871Y1.128
G1X-3.245
G1Y-9.044
G1X-6.235
G1Y12.884
G1X6.235Y0.207
G0X-19.617Y-3.973
; Layer C00
G1X0.242Y-0.632
G1X0.172Y-0.697
G1X0.103Y-0.764
G1X0.035Y-0.829
G1X-0.042Y-0.804
G1X-0.123Y-0.758
G1X-0.206Y-0.712
G1X-0.289Y-0.665
G1X-0.371Y-0.619
G1X-0.454Y-0.573
G1X-0.536Y-0.527
G1X-0.619Y-0.481
G1X-0.688Y-0.421
G1X-0.764Y-0.364
G1X-0.841Y-0.309
G1X-0.917Y-0.252
G1X-0.993Y-0.197
G1X-1.07Y-0.14
G1X-1.146Y-0.084
G1X-1.223Y-0.028
G1X-0.829Y0.013
G1X-0.795Y0.04
G1X-0.761Y0.066
G1X-0.727Y0.092
G1X-0.672Y0.095
G1X-0.637Y0.107
G1X-0.604Y0.121
G1X-0.568Y0.135
G1X-0.515Y0.14
G1X-0.48Y0.141
G1X-0.446Y0.141
G1X-0.411Y0.141
G1X-0.374Y0.154
G1X-0.335Y0.145
G1X-0.295Y0.136
G1X-0.256Y0.128
G1X1.457Y3.625
G1X0.579Y-0.264
G1X0.672Y-0.264
G1X0.766Y-0.264
G1X0.859Y-0.264
G1X0.465Y-0.123
G1X0.488Y-0.108
G1X0.511Y-0.09
G1X0.535Y-0.075
G1X0.558Y-0.057
G1X0.582Y-0.042
G1X0.605Y-0.024
G1X0.629Y-0.009
G1X0.647Y0.013
G1X0.601Y0.038
G1X0.556Y0.063
G1X0.51Y0.089
G1X0.465Y0.114
G1X0.419Y0.139
G1X0.373Y0.164
G1X0.328Y0.19
G1X0.287Y0.213
G1X0.248Y0.234
G1X0.209Y0.254
G1X0.172Y0.276
G1X0.134Y0.296
G1X0.095Y0.318
G1X0.057Y0.338
G1X0.02Y0.359
G1X-0.028Y0.425
G1X-0.081Y0.393
G1X-0.135Y0.363
G1X-0.19Y0.333
G1X-0.221Y0.308
G1X-0.271Y0.29
G1X-0.32Y0.273
G1X-0.369Y0.255
G1X-0.397Y0.257
G1X-0.441Y0.245
G1X-0.485Y0.23
G1X-0.529Y0.218
G1X-0.571Y0.227
G1X-0.611Y0.222
G1X-0.65Y0.218
G1X-0.689Y0.213
G1X-1.398Y0.475
G1X-1.359Y0.511
G1X-0.633Y0.297
G1X-0.598Y0.328
G1X-0.564Y0.358
G1X-0.53Y0.39
G1X-0.47Y0.424
G1X-0.426Y0.464
G1X-0.381Y0.504
G1X-0.338Y0.544
G1X-0.258Y0.591
G1X-0.185Y0.649
G1X-0.111Y0.706
G1X-0.036Y0.764
G1X0.04Y0.805
G1X0.12Y0.759
G1X0.2Y0.714
G1X0.28Y0.67
G1X0.36Y0.624
G1X0.44Y0.579
G1X0.52Y0.534
G1X0.6Y0.489
G1X0.669Y0.446
G1X0.727Y0.386
G1X0.785Y0.326
G1X0.842Y0.268
G1X0.901Y0.208
G1X0.958Y0.148
G1X1.016Y0.089
G1X1.074Y0.03
G1X1.243Y-0.033
G1X1.17Y-0.099
G1X1.096Y-0.165
G1X1.021Y-0.231
G1X0.489Y-0.125
G1X0.462Y-0.128
G1X0.434Y-0.132
G1X0.408Y-0.134
G1X0.38Y-0.138
G1X0.353Y-0.142
G1X0.326Y-0.144
G1X0.3Y-0.148
G1X-1.537Y-3.591
G1X-0.687Y0.315
G1X-0.721Y0.275
G1X-0.756Y0.235
G1X-0.79Y0.196
G1X-0.795Y0.154
G1X-0.81Y0.11
G1X-0.825Y0.066
G1X-0.84Y0.022
G1X-0.488Y-0.011
G1X-0.462Y-0.035
G1X-0.434Y-0.058
G1X-0.408Y-0.081
G1X-0.38Y-0.104
G1X-0.354Y-0.127
G1X-0.326Y-0.15
G1X-0.299Y-0.173
G1X-0.258Y-0.194
G1X-0.224Y-0.213
G1X-0.19Y-0.232
G1X-0.155Y-0.25
G1X-0.121Y-0.269
G1X-0.086Y-0.287
G1X-0.052Y-0.307
G1X-0.017Y-0.325
G1X0.022Y-0.391
G1X0.067Y-0.366
G1X0.11Y-0.338
G1X0.156Y-0.313
G1X0.214Y-0.275
G1X0.248Y-0.261
G1X0.284Y-0.249
G1X0.317Y-0.235
G1X0.367Y-0.225
G1X0.391Y-0.215
G1X0.417Y-0.207
G1X0.44Y-0.198
G1X0.985Y-0.379
G1X2.002Y-0.679
G1X0.883Y-0.324
G1X0.83Y-0.328
G1X0.776Y-0.332
G1X0.736Y-0.334
G1X0.672Y-0.37
G1X0.608Y-0.405
G1X0.544Y-0.44
G1X0.5Y-0.462
G1X0.436Y-0.506
G1X0.371Y-0.549
G1X0.308Y-0.594
G0X-5.657Y-17.168
; Layer C00
G1Y-24.591
G1X-4.941
G1Y24.591
G1X4.941
G0X-27.186Y0.071
; Layer C00
G1Y-3.796
G1X-12.507
G1Y-6.068
G1X11.135
G1Y-3.726
G1X-11.135
G1Y-7.204
G1X13.448
G1Y-3.797
G1X-18.388
G1Y24.591
G1X17.447
G0X-1.913Y7.798
; Layer C00
G1X-0.689Y1.034
G1X-0.729Y1.07
G1X-0.768Y1.105
G1X-0.807Y1.14
G1X-1.684Y2.353
G1X-1.743Y2.353
G1X-0.891Y1.183
G1X-0.901Y1.16
G1X-0.911Y1.139
G1X-0.92Y1.116
G1X-0.896Y1.094
G1X-0.877Y1.036
G1X-0.856Y0.978
G1X-0.837Y0.92
G1Y-17.681
G1X-4.884
G1Y24.703
G1X4.057
G1X0.802Y-0.784
G1X0.832Y-0.856
G1X0.862Y-0.926
G1X0.891Y-0.998
G1X1.812Y-2.077
G1X1.811Y-2.165
G1X1.812Y-2.219
G1X2.575Y-3.324
G1X0.793Y-1.052
G1X0.743Y-1.016
G1X0.694Y-0.98
G1Y16.397
G1X4.923
G1Y-24.703
G1X-4.214
G0X-37.485Y-0.147
; Layer C00
G1X-4.962
G1Y24.703
G1X4.962
G1Y-24.703
G0X-26.122Y0.074
; Layer C00
G1X-18.472
G1Y24.703
G1X17.527
G1Y-3.815
G1X-12.564
G1Y-6.095
G1X11.185
G1Y-3.743
G1X-11.185
G1Y-7.236
G1X13.509
G1Y-3.814
G0X-5.533Y-8.264
; Layer C00
G1X0.607Y-0.219
G1X0.582Y-0.245
G1X0.557Y-0.271
G1X0.531Y-0.298
G1X0.506Y-0.324
G1X0.481Y-0.35
G1X0.456Y-0.376
G1X0.43Y-0.393
G1X0.405Y-0.42
G1X0.379Y-0.448
G1X0.354Y-0.475
G1X0.329Y-0.503
G1X0.304Y-0.53
G1X0.278Y-0.558
G1X0.253Y-0.585
G1X0.237Y-0.604
G1X0.206Y-0.636
G1X0.174Y-0.667
G1X0.142Y-0.698
G1X0.111Y-0.729
G1X0.079Y-0.76
G1X0.047Y-0.792
G1X0.016Y-0.823
G1X-0.017Y-0.842
G1X-0.052Y-0.812
G1X-0.087Y-0.78
G1X-0.122Y-0.749
G1X-0.157Y-0.718
G1X-0.191Y-0.687
G1X-0.226Y-0.655
G1X-0.261Y-0.625
G1X-0.279Y-0.585
G1X-0.306Y-0.558
G1X-0.333Y-0.53
G1X-0.36Y-0.503
G1X-0.386Y-0.475
G1X-0.414Y-0.448
G1X-0.44Y-0.42
G1X-0.468Y-0.393
G1X-0.492Y-0.367
G1X-0.517Y-0.342
G1X-0.54Y-0.317
G1X-0.563Y-0.291
G1X-0.588Y-0.267
G1X-0.611Y-0.242
G1X-0.635Y-0.218
G1X-0.659Y-0.192
G1X-0.666Y-0.159
G1X-0.684Y-0.138
G1X-0.701Y-0.116
G1X-0.719Y-0.096
G1X-0.736Y-0.074
G1X-0.754Y-0.053
G1X-0.771Y-0.032
G1X-0.788Y-0.01
G1X-0.832Y0.01
G1X-0.825Y0.029
G1X-0.819Y0.05
G1X-0.813Y0.07
G1X-0.8Y0.073
G1X-0.832Y0.097
G1X-0.863Y0.122
G1X-0.895Y0.148
G1X0.059Y10.772
G1X6.165Y0.009
G1Y-7.068
G1X0.265Y-0.03
G1X0.291Y-0.01
G1X0.557
G1X0.52Y0.01
G1X0.498Y0.03
G1X0.476Y0.05
G1X0.454Y0.069
G1X0.432Y0.09
G1X0.409Y0.11
G1X0.388Y0.13
G1X0.365Y0.15
G1X0.696Y0.349
G1X0.62Y0.409
G1X0.544Y0.469
G1X0.468Y0.529
G1X0.421Y0.584
G1X0.351Y0.634
G1X0.281Y0.683
G1X0.212Y0.734
G1X0.177Y0.796
G1X0.127Y0.831
G1X0.076Y0.865
G1X0.025Y0.901
G1X-0.019Y0.793
G1X-0.057Y0.784
G1X-0.095Y0.773
G1X-0.133Y0.764
G1X-0.18Y0.736
G1X-0.237Y0.691
G1X-0.294Y0.646
G1X-0.351Y0.602
G1X-0.415Y0.548
G1X-0.484Y0.49
G1X-0.553Y0.429
G1X-0.623Y0.369
G1X-0.341Y0.168
G1X-0.364Y0.146
G1X-0.389Y0.124
G1X-0.412Y0.101
G1X-0.435Y0.078
G1X-0.46Y0.056
G1X-0.483Y0.034
G1X-0.507Y0.011
G1X-0.43Y-0.009
G1X-0.48Y-0.031
G1X-0.481Y-0.02
G1X-0.43Y-0.059
G1X-0.059Y-6.625
G1X-6.165Y-0.01
G1Y10.426
G1X1.046Y0.165
G1X1.016Y0.135
G1X0.983Y0.105
G1X0.952Y0.075
G1X0.921Y0.052
G1X0.888Y0.037
G1X0.857Y0.023
G1X0.826Y0.007
G1X0.763Y-0.011
G1X0.745Y-0.034
G1X0.729Y-0.056
G1X0.71Y-0.078
G1X0.694Y-0.101
G1X0.676Y-0.124
G1X0.658Y-0.146
G1X0.642Y-0.168
G1X0.632Y-0.193
G0X25.033Y-10.991
; Layer C00
G1X-6.208Y-0.206
G1Y-12.825
G1X6.208
G1Y9.003
G1X3.23
G1X0.867Y-1.123
G1X0.836Y-1.118
G1X0.804Y-1.113
G1X0.773Y-1.108
G1X0.757Y-1.098
G1X0.706Y-1.123
G1X0.656Y-1.148
G1X0.606Y-1.172
G1X6.51
G1X-0.318Y0.619
G1X-0.351Y0.635
G1X-0.381Y0.649
G1X-0.413Y0.664
G1X-0.833Y1.372
G1X-0.883Y1.352
G1X-0.921Y1.343
G1X-0.946Y1.264
G1X-0.474Y0.617
G1X-0.46Y0.587
G1X-0.448Y0.558
G1X-0.435Y0.528
G1X0.62Y0.24
G1X0.575Y0.266
G1X0.529Y0.292
G1X0.484Y0.318
G1X0.437Y0.343
G1X0.392Y0.37
G1X0.346Y0.395
G1X0.301Y0.422
G1X0.26Y0.44
G1X0.225Y0.453
G1X0.191Y0.465
G1X0.156Y0.478
G1X0.122Y0.49
G1X0.087Y0.502
G1X0.052Y0.515
G1X0.017Y0.527
G1X-0.013Y0.504
G1X-0.041Y0.488
G1X-0.067Y0.47
G1X-0.093Y0.453
G1X-0.121Y0.435
G1X-0.148Y0.419
G1X-0.174Y0.401
G1X-0.201Y0.384
G1X-0.214Y0.376
G1X-0.237Y0.359
G1X-0.261Y0.342
G1X-0.285Y0.324
G1X-0.308Y0.308
G1X-0.332Y0.29
G1X-0.356Y0.272
G1X-0.379Y0.256
G1X-0.82Y0.461
G1X-0.896Y0.398
G1X-0.971Y0.333
G1X-1.047Y0.269
G1X-1.117Y0.207
G1X-1.18Y0.148
G1X-1.242Y0.089
G1X-1.306Y0.03
G1X-0.394
G1X-0.426Y-0.01
G1X-0.457Y-0.012
G1X-0.489Y-0.018
G1X-1.035Y-0.049
G1X-2.195Y-0.138
G1X-1.11Y-0.128
G1X-1.022Y-0.129
G1X-0.947Y-0.148
G1X-0.059Y-8.332
G1X6.267Y-0.088
G1Y4.708
G1X0.029Y0.084
G1X0.081Y0.048
G1X0.12Y0.017
G1X0.148
G1X0.331Y-0.043
G1X0.3Y-0.028
G1X0.467Y0.03
G1X0.391Y0.01
G1X0.603Y-0.014
G1X0.573Y-0.043
G1X0.544Y-0.071
G1X0.513Y-0.099
G1X0.483Y-0.128
G1X0.454Y-0.156
G1X0.423Y-0.184
G1X0.394Y-0.213
G1X0.355Y-0.243
G1X0.307Y-0.275
G1X0.26Y-0.308
G1X0.213Y-0.339
G1X0.166Y-0.372
G1X0.118Y-0.403
G1X0.071Y-0.436
G1X0.024Y-0.467
G1X-0.022Y-0.432
G1X-0.067Y-0.408
G1X-0.11Y-0.382
G1X-0.155Y-0.358
G1X-0.198Y-0.333
G1X-0.243Y-0.309
G1X-0.287Y-0.283
G1X-0.331Y-0.26
G1X-0.381Y-0.222
G1X-0.436Y-0.192
G1X-0.491Y-0.163
G1X-0.547Y-0.133
G1X-0.602Y-0.104
G1X-0.656Y-0.074
G1X-0.712Y-0.045
G1X-0.768Y-0.014
G1X-1.362
G0X-5.447Y-22.101
; Layer C00
G1X17.331
G1Y-3.772
G1X-12.423
G1Y-6.027
G1X11.06
G1Y-3.701
G1X-11.06
G1Y-7.155
G1X13.357
G1Y-3.771
G1X-18.265
G1Y24.426
G0X-15.645Y-1.994
; Layer C00
G1X-1.521Y-3.379
G1X-0.681Y0.296
G1X-0.714Y0.259
G1X-0.749Y0.222
G1X-0.783Y0.184
G1X-0.787Y0.145
G1X-0.803Y0.103
G1X-0.816Y0.062
G1X-0.832Y0.021
G1X-0.484Y-0.011
G1X-0.457Y-0.032
G1X-0.431Y-0.055
G1X-0.403Y-0.076
G1X-0.377Y-0.098
G1X-0.35Y-0.119
G1X-0.323Y-0.141
G1X-0.296Y-0.164
G1X-0.256Y-0.182
G1X-0.222Y-0.201
G1X-0.188Y-0.217
G1X-0.154Y-0.236
G1X-0.119Y-0.253
G1X-0.086Y-0.271
G1X-0.051Y-0.288
G1X-0.017Y-0.306
G1X0.022Y-0.368
G1X0.066Y-0.344
G1X0.11Y-0.319
G1X0.153Y-0.294
G1X0.212Y-0.259
G1X0.247Y-0.246
G1X0.28Y-0.234
G1X0.315Y-0.222
G1X0.363Y-0.211
G1X0.388Y-0.203
G1X0.412Y-0.194
G1X0.436Y-0.187
G1X0.976Y-0.356
G1X1.982Y-0.639
G1X0.876Y-0.305
G1X0.822Y-0.308
G1X0.768Y-0.313
G1X0.729Y-0.315
G1X0.666Y-0.347
G1X0.602Y-0.381
G1X0.539Y-0.414
G1X0.495Y-0.435
G1X0.432Y-0.476
G1X0.368Y-0.518
G1X0.305Y-0.559
G1X0.239Y-0.594
G1X0.171Y-0.657
G1X0.102Y-0.718
G1X0.034Y-0.78
G1X-0.041Y-0.757
G1X-0.122Y-0.713
G1X-0.205Y-0.67
G1X-0.285Y-0.626
G1X-0.368Y-0.583
G1X-0.449Y-0.54
G1X-0.531Y-0.495
G1X-0.613Y-0.453
G1X-0.682Y-0.396
G1X-0.757Y-0.343
G1X-0.833Y-0.29
G1X-0.908Y-0.238
G1X-0.984Y-0.185
G1X-1.06Y-0.132
G1X-1.135Y-0.079
G1X-1.211Y-0.026
G1X-0.821Y0.012
G1X-0.788Y0.037
G1X-0.754Y0.063
G1X-0.719Y0.087
G1X-0.666Y0.089
G1X-0.631Y0.101
G1X-0.598Y0.114
G1X-0.563Y0.126
G1X-0.51Y0.133
G1X-0.475Y0.132
G1X-0.442Y0.133
G1X-0.407Y0.132
G1X-0.371Y0.145
G1X-0.331Y0.137
G1X-0.293Y0.128
G1X-0.254Y0.12
G1X1.444Y3.412
G1X0.573Y-0.248
G1X0.666Y-0.249
G1X0.758Y-0.248
G1X0.851Y-0.249
G1X0.461Y-0.116
G1X0.483Y-0.101
G1X0.507Y-0.085
G1X0.529Y-0.07
G1X0.553Y-0.055
G1X0.577Y-0.038
G1X0.599Y-0.024
G1X0.623Y-0.008
G1X0.64Y0.012
G1X0.596Y0.036
G1X0.55Y0.06
G1X0.506Y0.083
G1X0.46Y0.107
G1X0.415Y0.131
G1X0.37Y0.155
G1X0.325Y0.178
G1X0.284Y0.201
G1X0.245Y0.22
G1X0.208Y0.239
G1X0.17Y0.26
G1X0.133Y0.279
G1X0.094Y0.298
G1X0.057Y0.319
G1X0.019Y0.338
G1X-0.027Y0.399
G1X-0.08Y0.371
G1X-0.135Y0.341
G1X-0.187Y0.313
G1X-0.22Y0.29
G1X-0.268Y0.273
G1X-0.317Y0.257
G1X-0.366Y0.24
G1X-0.392Y0.242
G1X-0.437Y0.23
G1X-0.48Y0.217
G1X-0.525Y0.205
G1X-0.565Y0.214
G1X-0.605Y0.209
G1X-0.644Y0.205
G1X-0.683Y0.201
G1X-1.385Y0.447
G1X-1.346Y0.48
G1X-0.627Y0.28
G1X-0.592Y0.308
G1X-0.559Y0.337
G1X-0.524Y0.367
G1X-0.466Y0.4
G1X-0.422Y0.436
G1X-0.378Y0.474
G1X-0.334Y0.512
G1X-0.256Y0.557
G1X-0.183Y0.611
G1X-0.11Y0.664
G1X-0.036Y0.719
G1X0.039Y0.757
G1X0.119Y0.715
G1X0.198Y0.672
G1X0.278Y0.63
G1X0.357Y0.587
G1X0.435Y0.545
G1X0.516Y0.503
G1X0.594Y0.46
G1X0.663Y0.419
G1X0.72Y0.364
G1X0.777Y0.307
G1X0.835Y0.252
G1X0.891Y0.195
G1X0.95Y0.14
G1X1.006Y0.084
G1X1.064Y0.028
G1X1.232Y-0.031
G1X1.158Y-0.093
G1X1.085Y-0.156
G1X1.012Y-0.217
G1X0.484Y-0.118
G1X0.457Y-0.12
G1X0.431Y-0.124
G1X0.403Y-0.127
G1X0.377Y-0.13
G1X0.35Y-0.133
G1X0.323Y-0.136
G1X0.296Y-0.139
G0X-6.449Y-30.557
; Layer C00
G1X1.147Y-0.099
G1X1.074Y-0.164
G1X1.002Y-0.229
G1X0.479Y-0.124
G1X0.452Y-0.127
G1X0.426Y-0.131
G1X0.4Y-0.134
G1X0.373Y-0.137
G1X0.346Y-0.14
G1X0.32Y-0.144
G1X0.293Y-0.147
G1X-1.506Y-3.565
G1X-0.674Y0.312
G1X-0.707Y0.273
G1X-0.741Y0.234
G1X-0.775Y0.195
G1X-0.779Y0.153
G1X-0.795Y0.109
G1X-0.808Y0.065
G1X-0.823Y0.022
G1X-0.479Y-0.011
G1X-0.453Y-0.035
G1X-0.426Y-0.057
G1X-0.4Y-0.08
G1X-0.372Y-0.104
G1X-0.347Y-0.126
G1X-0.32Y-0.149
G1X-0.293Y-0.172
G1X-0.253Y-0.193
G1X-0.22Y-0.211
G1X-0.186Y-0.23
G1X-0.152Y-0.248
G1X-0.118Y-0.267
G1X-0.085Y-0.286
G1X-0.051Y-0.304
G1X-0.016Y-0.323
G1X0.021Y-0.389
G1X0.065Y-0.363
G1X0.109Y-0.336
G1X0.152Y-0.31
G1X0.21Y-0.273
G1X0.244Y-0.26
G1X0.278Y-0.247
G1X0.311Y-0.234
G1X0.36Y-0.223
G1X0.383Y-0.214
G1X0.408Y-0.205
G1X0.432Y-0.197
G1X0.966Y-0.376
G1X1.962Y-0.675
G1X0.867Y-0.321
G1X0.813Y-0.325
G1X0.761Y-0.33
G1X0.722Y-0.332
G1X0.659Y-0.367
G1X0.596Y-0.402
G1X0.533Y-0.437
G1X0.49Y-0.459
G1X0.427Y-0.503
G1X0.365Y-0.546
G1X0.302Y-0.59
G1X0.236Y-0.627
G1X0.169Y-0.692
G1X0.102Y-0.758
G1X0.034Y-0.824
G1X-0.041Y-0.798
G1X-0.121Y-0.753
G1X-0.202Y-0.707
G1X-0.283Y-0.661
G1X-0.364Y-0.615
G1X-0.445Y-0.569
G1X-0.526Y-0.523
G1X-0.606Y-0.477
G1X-0.675Y-0.418
G1X-0.749Y-0.362
G1X-0.825Y-0.307
G1X-0.899Y-0.25
G1X-0.974Y-0.195
G1X-1.049Y-0.139
G1X-1.123Y-0.084
G1X-1.199Y-0.028
G1X-0.813Y0.013
G1X-0.78Y0.04
G1X-0.746Y0.065
G1X-0.712Y0.092
G1X-0.659Y0.094
G1X-0.625Y0.107
G1X-0.592Y0.12
G1X-0.557Y0.133
G1X-0.505Y0.14
G1X-0.47Y0.14
G1X-0.437Y0.14
G1X-0.403Y0.14
G1X-0.367Y0.152
G1X-0.329Y0.145
G1X-0.289Y0.135
G1X-0.251Y0.127
G1X1.429Y3.6
G1X0.567Y-0.262
G1X0.659Y-0.262
G1X0.751Y-0.262
G1X0.842Y-0.263
G1X0.456Y-0.122
G1X0.478Y-0.107
G1X0.502Y-0.09
G1X0.524Y-0.074
G1X0.547Y-0.057
G1X0.571Y-0.041
G1X0.593Y-0.025
G1X0.616Y-0.008
G1X0.635Y0.013
G1X0.589Y0.037
G1X0.545Y0.063
G1X0.5Y0.088
G1X0.456Y0.113
G1X0.411Y0.138
G1X0.366Y0.164
G1X0.322Y0.188
G1X0.281Y0.211
G1X0.243Y0.233
G1X0.205Y0.252
G1X0.169Y0.274
G1X0.131Y0.294
G1X0.093Y0.316
G1X0.056Y0.336
G1X0.019Y0.356
G1X-0.026Y0.422
G1X-0.08Y0.391
G1X-0.133Y0.36
G1X-0.186Y0.33
G1X-0.217Y0.306
G1X-0.265Y0.288
G1X-0.314Y0.271
G1X-0.362Y0.254
G1X-0.389Y0.255
G1X-0.432Y0.243
G1X-0.476Y0.229
G1X-0.518Y0.217
G1X-0.56Y0.225
G1X-0.599Y0.22
G1X-0.637Y0.216
G1X-0.676Y0.212
G1X-1.371Y0.472
G1X-1.333Y0.507
G1X-0.62Y0.295
G1X-0.587Y0.326
G1X-0.553Y0.356
G1X-0.519Y0.386
G1X-0.461Y0.422
G1X-0.417Y0.461
G1X-0.374Y0.5
G1X-0.331Y0.54
G1X-0.254Y0.588
G1X-0.181Y0.644
G1X-0.108Y0.701
G1X-0.036Y0.758
G1X0.039Y0.799
G1X0.117Y0.755
G1X0.197Y0.709
G1X0.274Y0.665
G1X0.353Y0.62
G1X0.432Y0.575
G1X0.51Y0.53
G1X0.588Y0.486
G1X0.656Y0.442
G1X0.713Y0.384
G1X0.769Y0.324
G1X0.826Y0.265
G1X0.883Y0.207
G1X0.94Y0.147
G1X0.996Y0.089
G1X1.053Y0.029
G1X1.219Y-0.032
G0X28.683Y-1.051
; Layer C00
G1X4.867
G1Y-24.224
G1X-4.867
G1Y24.224
G0X26.847Y-0
; Layer C00
G1X17.187
G1Y-3.74
G1X-12.321
G1Y-5.978
G1X10.969
G1Y-3.67
G1X-10.969
G1Y-7.096
G1X13.248
G1Y-3.74
G1X-18.114
G1Y24.224
G0X6.072Y9.696
; Layer C00
G1X-0.613Y0.198
G1X-0.592Y0.224
G1X-0.569Y0.248
G1X-0.546Y0.272
G1X-0.522Y0.296
G1X-0.5Y0.321
G1X-0.476Y0.344
G1X-0.454Y0.369
G1X-0.43Y0.394
G1X-0.406Y0.425
G1X-0.383Y0.447
G1X-0.357Y0.469
G1X-0.334Y0.492
G1X-0.309Y0.513
G1X-0.285Y0.535
G1X-0.26Y0.557
G1X-0.236Y0.58
G1X-0.21Y0.601
G1X-0.182Y0.624
G1X-0.154Y0.645
G1X-0.126Y0.668
G1X-0.098Y0.689
G1X-0.07Y0.712
G1X-0.042Y0.733
G1X-0.014Y0.756
G1X0.016Y0.755
G1X0.047Y0.734
G1X0.079Y0.712
G1X0.111Y0.689
G1X0.142Y0.668
G1X0.174Y0.645
G1X0.206Y0.623
G1X0.237Y0.602
G1X0.275Y0.579
G1X0.297Y0.555
G1X0.321Y0.533
G1X0.344Y0.509
G1X0.367Y0.487
G1X0.39Y0.463
G1X0.413Y0.44
G1X0.436Y0.417
G1X0.458Y0.401
G1X0.477Y0.376
G1X0.497Y0.351
G1X0.516Y0.326
G1X0.535Y0.3
G1X0.555Y0.275
G1X0.574Y0.249
G1X0.594Y0.224
G1X0.609Y0.198
G1X0.621Y0.172
G1X0.631Y0.146
G1X0.642Y0.119
G1X0.652Y0.092
G1X0.664Y0.066
G1X0.675Y0.04
G1X0.686Y0.013
G1X0.818Y-0.015
G1X0.779Y-0.047
G1X0.74Y-0.077
G1X0.701Y-0.108
G1X0.659Y-0.11
G1X0.616Y-0.119
G1X0.572Y-0.127
G1X0.528Y-0.137
G1X0.485Y-0.143
G1X0.44Y-0.148
G1X0.397Y-0.152
G1X0.353Y-0.156
G1X0.307Y-0.148
G1X0.467Y-0.229
G1X0.16Y-0.081
G1X-1.441Y-3.631
G1X-0.246Y0.131
G1X-0.272Y0.129
G1X-0.298Y0.127
G1X-0.323Y0.124
G1X-0.348Y0.122
G1X-0.375Y0.121
G1X-0.399Y0.117
G1X-0.426Y0.116
G1X-0.876Y0.216
G1X-0.915Y0.154
G1X-0.954Y0.093
G1X-0.993Y0.03
G1X-0.862Y-0.035
G1X-0.832Y-0.106
G1X-0.804Y-0.176
G1X-0.774Y-0.246
G1X-0.735Y-0.3
G1X-0.686Y-0.37
G1X-0.638Y-0.441
G1X-0.589Y-0.511
G1X-0.516Y-0.581
G1X-0.458Y-0.652
G1X-0.399Y-0.723
G1X-0.34Y-0.793
G1X-0.147Y-0.422
G1X-0.126Y-0.439
G1X-0.107Y-0.456
G1X-0.088Y-0.472
G1X-0.068Y-0.488
G1X-0.049Y-0.505
G1X-0.029Y-0.522
G1X-0.01Y-0.538
G1X0.03Y-0.949
G1X0.087Y-0.91
G1X0.146Y-0.87
G1X0.205Y-0.831
G1X0.285Y-0.784
G1X0.348Y-0.731
G1X0.411Y-0.679
G1X0.475Y-0.626
G1X0.54Y-0.55
G1X0.609Y-0.489
G1X0.676Y-0.428
G1X0.745Y-0.365
G1X0.399Y-0.149
G1X0.419Y-0.129
G1X0.438Y-0.109
G1X0.458Y-0.089
G1X0.477Y-0.07
G1X0.496Y-0.049
G1X0.516Y-0.03
G1X0.536Y-0.01
G1X0.637Y0.007
G1X0.606Y0.022
G1X0.577Y0.036
G1X0.546Y0.05
G1X0.515Y0.064
G1X0.485Y0.079
G1X0.454Y0.093
G1X0.425Y0.107
G1X0.771Y0.243
G1X0.679Y0.233
G1X0.587Y0.225
G1X0.494Y0.216
G1X1.324Y-3.631
G1X-0.255Y-0.141
G1X-0.3Y-0.141
G1X-0.343Y-0.141
G1X-0.387Y-0.141
G1X-0.409Y-0.141
G1X-0.448Y-0.141
G1X-0.487Y-0.141
G1X-0.525Y-0.141
G1X-0.563Y-0.116
G1X-0.596Y-0.104
G1X-0.63Y-0.09
G1X-0.665Y-0.077
G1X-0.694Y-0.077
G1X-0.718Y-0.055
G1X-0.742Y-0.034
G1X-0.767Y-0.011
G1X-0.749Y0.014
G1X-0.731Y0.039
G1X-0.71Y0.066
G1X-0.692Y0.093
G1X-0.671Y0.119
G1X-0.653Y0.145
G1X-0.633Y0.172
G0X24.852Y-0.681
; Layer C00
G1Y24.426
G1X4.907
G1Y-9.764
G1X11.722
G1Y9.764
G1X4.907
G1Y-24.426
G1X-4.907
G1Y10.82
G1X-11.722
G1Y-10.82
G1X-4.907
G0X2.455Y-10.395
; Layer C00
G1X0.934Y0.087
G1X1.97Y0.157
G1X0.988Y0.058
G1X0.982Y0.034
G1X0.976Y0.011
G1X0.811Y-0.008
G1X0.773Y-0.026
G1X0.734Y-0.043
G1X0.696Y-0.06
G1X0.657Y-0.077
G1X0.619Y-0.094
G1X0.579Y-0.112
G1X0.542Y-0.128
G1X0.508Y-0.134
G1X0.48Y-0.145
G1X0.451Y-0.156
G1X0.424Y-0.168
G1X0.395Y-0.18
G1X0.367Y-0.191
G1X0.339Y-0.202
G1X0.311Y-0.213
G1X0.546Y-0.435
G1X0.451Y-0.461
G1X0.356Y-0.489
G1X0.261Y-0.517
G1X0.187Y-0.53
G1X0.133Y-0.53
G1X0.08Y-0.53
G1X0.027Y-0.53
G1X-0.016Y-0.397
G1X-0.049Y-0.385
G1X-0.082Y-0.373
G1X-0.114Y-0.363
G1X-0.147Y-0.35
G1X-0.179Y-0.34
G1X-0.212Y-0.328
G1X-0.245Y-0.316
G1X-0.26Y-0.303
G1X-0.283Y-0.287
G1X-0.305Y-0.27
G1X-0.327Y-0.255
G1X-0.349Y-0.239
G1X-0.372Y-0.223
G1X-0.394Y-0.207
G1X-0.416Y-0.19
G1X0.717Y-0.22
G1X0.657Y-0.237
G1X0.595Y-0.256
G1X0.535Y-0.275
G1X0.474Y-0.292
G1X0.413Y-0.311
G1X0.352Y-0.329
G1X0.292Y-0.347
G1X0.256Y-0.359
G1X0.222Y-0.363
G1X0.187Y-0.368
G1X0.154Y-0.373
G1X0.119Y-0.377
G1X0.085Y-0.381
G1X0.052Y-0.387
G1X0.017Y-0.39
G1X-0.014Y-0.502
G1X-0.043Y-0.481
G1X-0.07Y-0.46
G1X-0.099Y-0.44
G1X-0.127Y-0.42
G1X-0.155Y-0.398
G1X-0.183Y-0.379
G1X-0.211Y-0.357
G1X-0.236Y-0.33
G1X-0.257Y-0.315
G1X-0.277Y-0.298
G1X-0.298Y-0.282
G1X-0.319Y-0.266
G1X-0.34Y-0.25
G1X-0.36Y-0.235
G1X-0.381Y-0.218
G1X-0.798Y-0.375
G1X-0.876Y-0.32
G1X-0.952Y-0.265
G1X-1.029Y-0.21
G1X-1.065Y-0.144
G1X-1.107Y-0.103
G1X-1.148Y-0.061
G1X-1.19Y-0.021
G1X-0.982Y0.012
G1X-0.999Y0.034
G1X-1.018Y0.057
G1X-1.035Y0.08
G1X-1.041Y0.084
G1X-1.036Y0.108
G1X-1.029Y0.13
G1X-1.024Y0.153
G1Y3.294
G1X6.739Y0.009
G1X0.278
G1X0.898Y-0.037
G1X0.724Y-0.009
G1X0.985Y0.028
G1X0.961Y0.082
G1X0.46Y0.085
G1X0.43Y0.107
G1X0.401Y0.13
G1X0.37Y0.154
G1X0.362Y0.198
G1X0.327Y0.231
G1X0.29Y0.263
G1X0.256Y0.295
G1X0.207Y0.349
G1X0.149Y0.391
G1X0.089Y0.432
G1X0.029Y0.473
G1X-0.021Y0.396
G1X-0.065Y0.367
G1X-0.107Y0.337
G1X-0.151Y0.308
G1X-0.193Y0.277
G1X-0.237Y0.248
G1X-0.28Y0.218
G1X-0.322Y0.189
G1X-0.347Y0.171
G1X-0.377Y0.149
G1X-0.407Y0.126
G1X-0.436Y0.102
G1X-0.465Y0.08
G1X-0.496Y0.057
G1X-0.525Y0.035
G1X-0.555Y0.011
G1X-3.132
G1X-0.04Y-4.178
G1X-5.759Y0.029
G1X-0.04Y2.843
G1X-0.016Y0.673
G1X-0.01Y0.623
G1Y0.59
G1Y0.573
G1Y0.573
G1X0.021Y1.893
G1X8.123Y0.107
G1X0.54Y0.017
G1X0.507Y0.037
G1X0.472Y0.058
G1X0.439Y0.078
G1X0.404Y0.101
G1X0.37Y0.123
G1X0.336Y0.147
G1X0.302Y0.171
G1X0.267Y0.2
G1X0.231Y0.218
G1X0.196Y0.235
G1X0.16Y0.251
G1X0.125Y0.27
G1X0.089Y0.286
G1X0.053Y0.303
G1X0.018Y0.321
G1X-0.021Y0.381
G1X-0.062Y0.341
G1X-0.104Y0.299
G1X-0.145Y0.258
G1X-0.181Y0.24
G1X-0.211Y0.208
G1X-0.24Y0.176
G1X-0.27Y0.144
G1X-0.297Y0.133
G1X-0.32Y0.105
G1X-0.344Y0.077
G1X-0.368Y0.051
G1X-0.771Y0.082
G1X-0.795Y0.027
G1X-0.677Y-0.009
G1X-0.7Y-0.027
G1X-0.676Y-0.046
G1X-0.606Y-0.064
G1X0.04Y-3.26
G1X-5.884Y0.022
G1X0.006Y1.202
G1Y5.546
G1X0.851Y0.105
G1X0.893Y0.096
G0X31.974Y1.38
; Layer C00
G1X17.187
G1Y-3.74
G1X-12.321
G1Y-5.978
G1X10.969
G1Y-3.67
G1X-10.969
G1Y-7.096
G1X13.248
G1Y-3.74
G1X-18.114
G1Y24.224
G0X4.21Y10.093
; Layer C00
G1X-0.596Y0.117
G1X-0.563Y0.129
G1X-0.509Y0.136
G1X-0.475Y0.136
G1X-0.441Y0.135
G1X-0.406Y0.136
G1X-0.37Y0.148
G1X-0.332Y0.14
G1X-0.292Y0.132
G1X-0.253Y0.123
G1X1.441Y3.494
G1X0.573Y-0.255
G1X0.665Y-0.254
G1X0.757Y-0.255
G1X0.85Y-0.254
G1X0.46Y-0.119
G1X0.482Y-0.104
G1X0.506Y-0.087
G1X0.529Y-0.072
G1X0.552Y-0.055
G1X0.576Y-0.04
G1X0.598Y-0.024
G1X0.622Y-0.008
G1X0.64Y0.012
G1X0.595Y0.037
G1X0.549Y0.061
G1X0.505Y0.085
G1X0.46Y0.11
G1X0.414Y0.134
G1X0.37Y0.158
G1X0.324Y0.183
G1X0.283Y0.205
G1X0.246Y0.226
G1X0.207Y0.245
G1X0.17Y0.266
G1X0.132Y0.285
G1X0.095Y0.306
G1X0.056Y0.326
G1X0.019Y0.346
G1X-0.027Y0.409
G1X-0.08Y0.38
G1X-0.134Y0.35
G1X-0.187Y0.32
G1X-0.219Y0.297
G1X-0.268Y0.279
G1X-0.317Y0.263
G1X-0.365Y0.246
G1X-0.392Y0.248
G1X-0.436Y0.236
G1X-0.48Y0.222
G1X-0.523Y0.21
G1X-0.565Y0.218
G1X-0.604Y0.215
G1X-0.643Y0.209
G1X-0.682Y0.206
G1X-1.383Y0.458
G1X-1.345Y0.492
G1X-0.625Y0.286
G1X-0.592Y0.316
G1X-0.558Y0.346
G1X-0.523Y0.375
G1X-0.466Y0.409
G1X-0.421Y0.447
G1X-0.377Y0.486
G1X-0.334Y0.523
G1X-0.256Y0.571
G1X-0.182Y0.625
G1X-0.11Y0.681
G1X-0.036Y0.735
G1X0.039Y0.776
G1X0.119Y0.732
G1X0.198Y0.688
G1X0.277Y0.645
G1X0.356Y0.602
G1X0.435Y0.558
G1X0.515Y0.515
G1X0.593Y0.471
G1X0.662Y0.429
G1X0.719Y0.372
G1X0.776Y0.315
G1X0.834Y0.258
G1X0.89Y0.2
G1X0.948Y0.143
G1X1.005Y0.086
G1X1.063Y0.028
G1X1.229Y-0.031
G1X1.157Y-0.096
G1X1.084Y-0.159
G1X1.01Y-0.222
G1X0.484Y-0.121
G1X0.456Y-0.123
G1X0.43Y-0.127
G1X0.403Y-0.13
G1X0.377Y-0.133
G1X0.349Y-0.136
G1X0.323Y-0.139
G1X0.295Y-0.143
G1X-1.519Y-3.46
G1X-0.68Y0.303
G1X-0.713Y0.265
G1X-0.748Y0.227
G1X-0.781Y0.189
G1X-0.787Y0.148
G1X-0.801Y0.106
G1X-0.816Y0.064
G1X-0.83Y0.021
G1X-0.484Y-0.011
G1X-0.456Y-0.033
G1X-0.43Y-0.056
G1X-0.403Y-0.078
G1X-0.376Y-0.1
G1X-0.35Y-0.123
G1X-0.322Y-0.144
G1X-0.296Y-0.167
G1X-0.256Y-0.187
G1X-0.222Y-0.205
G1X-0.187Y-0.224
G1X-0.154Y-0.241
G1X-0.119Y-0.259
G1X-0.085Y-0.277
G1X-0.051Y-0.295
G1X-0.017Y-0.314
G1X0.022Y-0.377
G1X0.065Y-0.352
G1X0.11Y-0.326
G1X0.153Y-0.301
G1X0.212Y-0.265
G1X0.246Y-0.253
G1X0.28Y-0.239
G1X0.314Y-0.227
G1X0.363Y-0.216
G1X0.387Y-0.208
G1X0.412Y-0.199
G1X0.436Y-0.191
G1X0.974Y-0.365
G1X1.98Y-0.655
G1X0.874Y-0.312
G1X0.821Y-0.315
G1X0.767Y-0.321
G1X0.728Y-0.322
G1X0.665Y-0.356
G1X0.601Y-0.39
G1X0.538Y-0.424
G1X0.495Y-0.445
G1X0.431Y-0.488
G1X0.367Y-0.53
G1X0.305Y-0.572
G1X0.238Y-0.609
G1X0.171Y-0.672
G1X0.102Y-0.736
G1X0.034Y-0.799
G1X-0.04Y-0.775
G1X-0.123Y-0.73
G1X-0.204Y-0.686
G1X-0.285Y-0.641
G1X-0.367Y-0.597
G1X-0.449Y-0.552
G1X-0.53Y-0.508
G1X-0.612Y-0.463
G1X-0.681Y-0.406
G1X-0.756Y-0.351
G1X-0.832Y-0.297
G1X-0.907Y-0.244
G1X-0.982Y-0.189
G1X-1.058Y-0.135
G1X-1.134Y-0.081
G1X-1.209Y-0.027
G1X-0.821Y0.013
G1X-0.786Y0.038
G1X-0.753Y0.063
G1X-0.718Y0.089
G1X-0.665Y0.091
G1X-0.631Y0.104
G0X27.232Y-10.093
; Layer C00
G1X3.978
G1X0.787Y-0.769
G1X0.816Y-0.839
G1X0.845Y-0.909
G1X0.874Y-0.979
G1X1.777Y-2.036
G1X1.776Y-2.123
G1X1.777Y-2.176
G1X2.525Y-3.26
G1X0.777Y-1.031
G1X0.729Y-0.996
G1X0.681Y-0.961
G1Y16.079
G1X4.827
G1Y-24.224
G1X-4.132
G1X-0.676Y1.014
G1X-0.715Y1.048
G1X-0.753Y1.084
G1X-0.791Y1.119
G1X-1.651Y2.307
G1X-1.709Y2.307
G1X-0.874Y1.16
G1X-0.884Y1.138
G1X-0.893Y1.116
G1X-0.903Y1.095
G1X-0.878Y1.072
G1X-0.86Y1.016
G1X-0.84Y0.959
G1X-0.82Y0.903
G1Y-17.338
G1X-4.79
G1Y24.224
G0X34.564Y-0
; Layer C00
G1X19.156
G1Y-3.251
G1X-0.327Y-0.327
G1X-0.344Y-0.35
G1X-0.361Y-0.375
G1X-0.378Y-0.399
G1X-0.394Y-0.422
G1X-0.412Y-0.447
G1X-0.428Y-0.471
G1X-1.361Y-1.515
G1X-0.929Y-1.068
G1X-0.944Y-1.117
G1X-0.958Y-1.164
G1X-1.921Y-2.386
G1X-1.903Y-2.473
G1X-0.9Y-1.225
G1X-0.847Y-1.195
G1X-0.794Y-1.165
G1X-0.741Y-1.134
G1X14.367
G1Y-3.74
G1X-20.238
G1Y2.762
G1X0.401Y0.659
G1X0.43Y0.686
G1X0.458Y0.712
G1X0.488Y0.739
G1X1.071Y1.555
G1X1.13Y1.591
G1X1.178Y1.616
G1X1.217Y1.635
G1X1.265Y1.607
G1X1.245Y1.539
G1X1.217Y1.494
G1X1.178Y1.407
G1X0.589Y0.679
G1X0.569Y0.64
G1X0.551Y0.601
G1X0.531Y0.562
G1X-12.861
G1Y3.74
G0X-1.851Y8.854
; Layer C00
G1Y24.426
G1X4.011
G1X0.793Y-0.776
G1X0.823Y-0.846
G1X0.852Y-0.916
G1X0.881Y-0.987
G1X1.792Y-2.053
G1X1.791Y-2.141
G1X1.791Y-2.194
G1X2.547Y-3.287
G1X0.783Y-1.04
G1X0.735Y-1.005
G1X0.687Y-0.969
G1Y16.214
G1X4.868
G1Y-24.426
G1X-4.167
G1X-0.682Y1.022
G1X-0.72Y1.057
G1X-0.76Y1.093
G1X-0.798Y1.128
G1X-1.665Y2.326
G1X-1.723Y2.326
G1X-0.881Y1.17
G1X-0.891Y1.148
G1X-0.901Y1.126
G1X-0.91Y1.103
G1X-0.886Y1.082
G1X-0.867Y1.024
G1X-0.847Y0.967
G1X-0.827Y0.91
G1Y-17.482
G1X-4.829
G0X-26.587Y13.957
; Layer C00
G1X1.354
G1X0.762Y0.014
G1X0.707Y0.045
G1X0.652Y0.073
G1X0.598Y0.103
G1X0.543Y0.132
G1X0.488Y0.162
G1X0.433Y0.191
G1X0.378Y0.221
G1X0.329Y0.258
G1X0.285Y0.281
G1X0.241Y0.307
G1X0.198Y0.331
G1X0.153Y0.355
G1X0.11Y0.38
G1X0.066Y0.405
G1X0.022Y0.429
G1X-0.024Y0.464
G1X-0.07Y0.433
G1X-0.118Y0.401
G1X-0.164Y0.369
G1X-0.212Y0.337
G1X-0.258Y0.305
G1X-0.306Y0.273
G1X-0.352Y0.242
G1X-0.391Y0.211
G1X-0.421Y0.184
G1X-0.45Y0.155
G1X-0.48Y0.126
G1X-0.51Y0.099
G1X-0.54Y0.071
G1X-0.569Y0.042
G1X-0.599Y0.014
G1X-0.389Y-0.01
G1X-0.463Y-0.029
G1X-0.298Y0.027
G1X-0.329Y0.039
G1X-0.147
G1X-0.119Y-0.014
G1X-0.081Y-0.046
G1X-0.029Y-0.085
G1Y-4.675
G1X-6.224Y0.087
G1X0.058Y8.276
G1X0.94Y0.147
G1X1.015Y0.128
G1X1.103Y0.127
G1X2.181Y0.137
G1X1.027Y0.049
G1X0.486Y0.018
G1X0.454Y0.012
G1X0.423Y0.007
G1X0.392
G1X1.297Y-0.027
G1X1.234Y-0.088
G1X1.172Y-0.147
G1X1.109Y-0.206
G1X1.04Y-0.267
G1X0.965Y-0.331
G1X0.89Y-0.395
G1X0.814Y-0.458
G1X0.377Y-0.254
G1X0.353Y-0.271
G1X0.33Y-0.288
G1X0.306Y-0.305
G1X0.283Y-0.323
G1X0.259Y-0.339
G1X0.236Y-0.357
G1X0.212Y-0.374
G1X0.2Y-0.381
G1X0.173Y-0.398
G1X0.147Y-0.416
G1X0.12Y-0.433
G1X0.093Y-0.449
G1X0.066Y-0.467
G1X0.04Y-0.485
G1X0.014Y-0.501
G1X-0.018Y-0.523
G1X-0.051Y-0.511
G1X-0.086Y-0.499
G1X-0.121Y-0.487
G1X-0.155Y-0.474
G1X-0.19Y-0.462
G1X-0.224Y-0.45
G1X-0.258Y-0.438
G1X-0.299Y-0.418
G1X-0.344Y-0.393
G1X-0.389Y-0.367
G1X-0.434Y-0.342
G1X-0.481Y-0.315
G1X-0.525Y-0.29
G1X-0.571Y-0.264
G1X-0.617Y-0.239
G1X0.433Y-0.524
G1X0.445Y-0.554
G1X0.457Y-0.584
G1X0.47Y-0.613
G1X0.94Y-1.255
G1X0.915Y-1.334
G1X0.877Y-1.343
G1X0.827Y-1.363
G1X0.411Y-0.659
G1X0.379Y-0.645
G1X0.347Y-0.63
G1X0.317Y-0.616
G1X-6.467
G1X-0.601Y1.165
G1X-0.652Y1.14
G1X-0.702Y1.115
G1X-0.751Y1.091
G1X-0.768Y1.101
G1X-0.799Y1.105
G1X-0.83Y1.111
G1X-0.862Y1.115
G1X-3.208
G1Y-8.943
G1X-6.166
G1Y12.74
G1X6.166Y0.204
G0X67.801Y-3.535
; Layer C00
G1X0.286Y1.282
G1X0.287Y1.243
G1X0.335Y1.214
G1X0.334Y1.193
G1X0.765Y2.447
G1X0.442Y1.292
G1X0.466Y1.352
G1X0.454Y-1.352
G1X0.406Y-1.292
G1X0.406Y-1.223
G1X0.359Y-1.224
G1X0.358Y-1.193
G1X0.311Y-1.214
G1X0.286Y-1.243
G1X0.287Y-1.282
G1X-3.213Y0.097
G0X-0Y0
; Layer C00
G1X-0.988Y-4.22
G1X5.204Y0.098
G1X1.386Y-5.643
G1X6.308
G1X-0.492Y1.74
G1X-0.496Y1.708
G1X-0.501Y1.676
G1X-0.506Y1.644
G1X-0.51Y1.611
G1X-0.514Y1.58
G1X-0.519Y1.548
G1X-1.554Y4.492
G1X-1.036Y2.893
G1X-1.043Y2.809
G1X-1.048Y2.725
G1X-6.404
G1X-1.012Y-2.703
G1X-1.031Y-2.782
G1X-1.048Y-2.861
G1X-1.066Y-2.94
G1X-0.537Y-1.5
G1X-0.535Y-1.541
G1X-0.534Y-1.581
G1X-0.533Y-1.622
G1X-0.53Y-1.663
G1X-0.53Y-1.704
G1X-0.528Y-1.744
G1X-0.526Y-1.785
G1X6.117
G1X2.437Y9.668
G0X-1.319Y89.193
; Layer C00
G1X-4.907
G1Y24.422
G1X17.056
G1Y-3.771
G1X-12.149
G1Y-6.237
G1X10.786
G1Y-3.771
G1X-10.786
G1Y-10.643
G0X-20.724Y-0.778
; Layer C00
G1X-17.056
G1Y24.423
G1X4.907
G1Y-20.582
G1X12.149
G1Y-3.841
G0X-32.27Y0.614
; Layer C00
G1X-18.262
G1Y24.423
G1X17.328
G1Y-3.771
G1X-12.422
G1Y-6.026
G1X11.059
G1Y-3.701
G1X-11.059
G1Y-7.154
G1X13.356
G1Y-3.771
G0X-42.396Y8.897
; Layer C00
G1X3.213Y-0.097
G1X-0.287Y1.282
G1X-0.287Y1.243
G1X-0.31Y1.213
G1X-0.359Y1.194
G1X-0.358Y1.223
G1X-0.406Y1.223
G1X-0.406Y1.292
G1X-0.454Y1.351
G1X-0.466Y-1.351
G1X-0.442Y-1.292
G1X-0.764Y-2.446
G1X-0.335Y-1.194
G1X-0.334Y-1.213
G1X-0.287Y-1.243
G1X-0.287Y-1.282
G0X0Y-0
; Layer C00
G1X-2.436Y-9.667
G1X-6.116
G1X0.526Y1.785
G1X0.528Y1.744
G1X0.529Y1.703
G1X0.531Y1.663
G1X0.532Y1.622
G1X0.534Y1.581
G1X0.535Y1.541
G1X0.537Y1.5
G1X1.066Y2.939
G1X1.048Y2.861
G1X1.031Y2.781
G1X1.012Y2.703
G1X6.403
G1X1.048Y-2.725
G1X1.042Y-2.809
G1X1.036Y-2.892
G1X1.554Y-4.492
G1X0.519Y-1.547
G1X0.514Y-1.58
G1X0.51Y-1.611
G1X0.505Y-1.644
G1X0.501Y-1.675
G1X0.497Y-1.708
G1X0.492Y-1.74
G1X-6.307
G1X-1.386Y5.642
G1X-5.204Y-0.097
G1X0.988Y4.219
G0X-22.605Y-1.191
; Layer C00
G1X0.051Y-0.389
G1X0.017Y-0.394
G1X-0.014Y-0.506
G1X-0.042Y-0.485
G1X-0.071Y-0.464
G1X-0.1Y-0.444
G1X-0.128Y-0.423
G1X-0.156Y-0.402
G1X-0.185Y-0.381
G1X-0.213Y-0.36
G1X-0.238Y-0.333
G1X-0.258Y-0.317
G1X-0.28Y-0.301
G1X-0.301Y-0.284
G1X-0.321Y-0.269
G1X-0.342Y-0.252
G1X-0.364Y-0.236
G1X-0.384Y-0.22
G1X-0.805Y-0.378
G1X-0.882Y-0.322
G1X-0.96Y-0.268
G1X-1.038Y-0.212
G1X-1.074Y-0.145
G1X-1.116Y-0.104
G1X-1.157Y-0.062
G1X-1.199Y-0.02
G1X-0.99Y0.011
G1X-1.008Y0.035
G1X-1.026Y0.057
G1X-1.044Y0.081
G1X-1.05Y0.085
G1X-1.044Y0.108
G1X-1.038Y0.132
G1X-1.032Y0.154
G1Y3.321
G1X6.794Y0.009
G1X0.281
G1X0.905Y-0.037
G1X0.73Y-0.009
G1X0.993Y0.028
G1X0.969Y0.083
G1X0.464Y0.085
G1X0.434Y0.108
G1X0.403Y0.132
G1X0.374Y0.154
G1X0.365Y0.201
G1X0.329Y0.232
G1X0.293Y0.265
G1X0.257Y0.297
G1X0.21Y0.353
G1X0.149Y0.394
G1X0.09Y0.435
G1X0.03Y0.477
G1X-0.022Y0.4
G1X-0.065Y0.37
G1X-0.108Y0.339
G1X-0.152Y0.31
G1X-0.195Y0.28
G1X-0.239Y0.25
G1X-0.282Y0.22
G1X-0.325Y0.19
G1X-0.35Y0.173
G1X-0.38Y0.15
G1X-0.409Y0.127
G1X-0.44Y0.103
G1X-0.47Y0.081
G1X-0.499Y0.057
G1X-0.53Y0.035
G1X-0.559Y0.012
G1X-3.158
G1X-0.04Y-4.213
G1X-5.807Y0.029
G1X-0.039Y2.867
G1X-0.017Y0.678
G1X-0.01Y0.628
G1Y0.595
G1Y0.577
G1Y0.579
G1X0.022Y1.908
G1X8.189Y0.108
G1X0.545Y0.017
G1X0.51Y0.038
G1X0.477Y0.057
G1X0.442Y0.08
G1X0.407Y0.101
G1X0.373Y0.125
G1X0.339Y0.147
G1X0.304Y0.172
G1X0.27Y0.203
G1X0.233Y0.219
G1X0.197Y0.237
G1X0.162Y0.254
G1X0.125Y0.271
G1X0.09Y0.289
G1X0.054Y0.305
G1X0.018Y0.324
G1X-0.021Y0.384
G1X-0.063Y0.344
G1X-0.105Y0.301
G1X-0.146Y0.261
G1X-0.183Y0.242
G1X-0.212Y0.209
G1X-0.242Y0.178
G1X-0.272Y0.145
G1X-0.299Y0.133
G1X-0.323Y0.106
G1X-0.347Y0.079
G1X-0.371Y0.05
G1X-0.778Y0.083
G1X-0.802Y0.028
G1X-0.681Y-0.009
G1X-0.706Y-0.028
G1X-0.682Y-0.046
G1X-0.61Y-0.065
G1X0.039Y-3.287
G1X-5.932Y0.022
G1X0.006Y1.212
G1Y5.592
G1X0.858Y0.106
G1X0.9Y0.097
G1X0.942Y0.087
G1X1.986Y0.159
G1X0.996Y0.058
G1X0.99Y0.034
G1X0.984Y0.012
G1X0.818Y-0.009
G1X0.779Y-0.026
G1X0.741Y-0.043
G1X0.701Y-0.06
G1X0.663Y-0.078
G1X0.623Y-0.095
G1X0.585Y-0.112
G1X0.546Y-0.13
G1X0.512Y-0.135
G1X0.484Y-0.146
G1X0.455Y-0.158
G1X0.427Y-0.169
G1X0.399Y-0.181
G1X0.37Y-0.192
G1X0.342Y-0.204
G1X0.313Y-0.216
G1X0.55Y-0.437
G1X0.455Y-0.466
G1X0.359Y-0.493
G1X0.263Y-0.52
G1X0.188Y-0.535
G1X0.135Y-0.534
G1X0.081Y-0.535
G1X0.027Y-0.534
G1X-0.017Y-0.4
G1X-0.049Y-0.388
G1X-0.082Y-0.377
G1X-0.116Y-0.365
G1X-0.148Y-0.354
G1X-0.181Y-0.342
G1X-0.213Y-0.331
G1X-0.247Y-0.319
G1X-0.263Y-0.305
G1X-0.284Y-0.289
G1X-0.308Y-0.273
G1X-0.33Y-0.257
G1X-0.352Y-0.241
G1X-0.374Y-0.224
G1X-0.397Y-0.209
G1X-0.42Y-0.192
G1X0.723Y-0.221
G1X0.662Y-0.24
G1X0.6Y-0.258
G1X0.539Y-0.277
G1X0.478Y-0.294
G1X0.417Y-0.314
G1X0.355Y-0.331
G1X0.294Y-0.351
G1X0.258Y-0.361
G1X0.223Y-0.367
G1X0.19Y-0.371
G1X0.154Y-0.375
G1X0.121Y-0.38
G1X0.086Y-0.385
G0X-34.222Y-4.354
; Layer C00
G1Y-3.842
G1X-17.055
G1Y24.423
G1X4.906
G1Y-20.581
G1X12.149
G0X-41.793Y5.382
; Layer C00
G1X3.213Y-0.098
G1X-0.286Y1.283
G1X-0.287Y1.242
G1X-0.311Y1.214
G1X-0.358Y1.193
G1X-0.358Y1.223
G1X-0.406Y1.223
G1X-0.407Y1.293
G1X-0.454Y1.351
G1X-0.465Y-1.351
G1X-0.442Y-1.293
G1X-0.765Y-2.446
G1X-0.334Y-1.193
G1X-0.335Y-1.214
G1X-0.286Y-1.242
G1X-0.287Y-1.283
G0X-0Y0
; Layer C00
G1X-2.437Y-9.666
G1X-6.116
G1X0.527Y1.785
G1X0.527Y1.744
G1X0.53Y1.703
G1X0.531Y1.663
G1X0.532Y1.622
G1X0.534Y1.581
G1X0.535Y1.541
G1X0.537Y1.5
G1X1.066Y2.939
G1X1.048Y2.86
G1X1.03Y2.782
G1X1.013Y2.703
G1X6.402
G1X1.048Y-2.725
G1X1.042Y-2.809
G1X1.037Y-2.892
G1X1.553Y-4.492
G1X0.519Y-1.548
G1X0.515Y-1.579
G1X0.509Y-1.611
G1X0.506Y-1.644
G1X0.501Y-1.676
G1X0.496Y-1.707
G1X0.492Y-1.74
G1X-6.307
G1X-1.385Y5.642
G1X-5.204Y-0.098
G1X0.987Y4.22
G0X-21.714Y-9.06
; Layer C00
G1X-4.907
G1Y10.819
G1X-11.72
G1Y-10.819
G1X-4.907
G1Y24.422
G1X4.907
G1Y-9.762
G1X11.72
G1Y9.762
G1X4.907
G1Y-24.422
G0X-8.474Y33.494
; Layer C00
G1X-3.903
G1X-1.2Y2.83
G1X-1.179Y2.895
G1X-1.159Y2.96
G1X-1.139Y3.025
G1X-1.095Y3.057
G1X-1.058Y3.057
G1X-1.023Y3.057
G1X-0.985Y3.057
G1X4.483
G1X1.581Y-4.94
G1X0.806Y-2.504
G1X0.807Y-2.47
G1X0.806Y-2.383
G1X0.806Y-2.315
G1X0.402Y-1.116
G1X0.397Y-1.068
G1X0.393Y-1.022
G1X0.389Y-0.973
G1X0.375Y0.971
G1X0.383Y1.015
G1X0.391Y1.058
G1X0.399Y1.101
G1X0.807Y2.323
G1X0.806Y2.409
G1X0.831Y2.47
G1X0.814Y2.504
G1X0.79Y2.496
G1X0.758Y2.444
G1X4.355
G1X-1Y-3.057
G1X-1.032Y-3.057
G1X-1.064Y-3.057
G1X-1.097Y-3.057
G1X-1.125Y-3.025
G1X-1.149Y-2.96
G1X-1.174Y-2.895
G1X-1.197Y-2.83
G0X20.933Y4.435
; Layer C00
G1X-0.242Y0.533
G1X-0.219Y0.556
G1X-0.196Y0.58
G1X-0.173Y0.604
G1X-0.15Y0.628
G1X-0.127Y0.652
G1X-0.104Y0.675
G1X-0.081Y0.699
G1X-0.057Y0.724
G1X-0.035Y0.747
G1X-0.012Y0.771
G1X0.012Y0.77
G1X0.036Y0.747
G1X0.06Y0.723
G1X0.084Y0.698
G1X0.107Y0.674
G1X0.131Y0.65
G1X0.156Y0.626
G1X0.179Y0.601
G1X0.203Y0.578
G1X0.227Y0.553
G1X0.25Y0.529
G1X0.275Y0.505
G1X0.298Y0.481
G1X0.323Y0.457
G1X0.346Y0.433
G1X0.37Y0.408
G1X0.378Y0.388
G1X0.372Y0.361
G1X0.37Y0.335
G1X0.37Y0.31
G1X0.375Y0.283
G1X0.384Y0.257
G1X0.394Y0.232
G1X0.41Y0.207
G1X0.429Y0.182
G1X0.451Y0.156
G1X0.476Y0.133
G1X0.505Y0.107
G1X0.539Y0.084
G1X0.574Y0.059
G1X0.614Y0.035
G1X0.657Y0.012
G1X-0.031Y-4.511
G1X-0.595Y-0.157
G1X-0.525Y-0.207
G1X-0.458Y-0.248
G1X-0.394Y-0.279
G1X-0.333Y-0.3
G1X-0.275Y-0.31
G1X-0.219Y-0.311
G1X-0.168Y-0.302
G1X-0.239Y-0.592
G1X-0.201Y-0.641
G1X-0.162Y-0.69
G1X-0.123Y-0.738
G1X-0.068Y-0.778
G1X-0.049Y-0.808
G1X-0.029Y-0.836
G1X-0.009Y-0.866
G1X0.009Y-0.869
G1X0.029Y-0.844
G1X0.049Y-0.819
G1X0.068Y-0.795
G1X0.123Y-0.739
G1X0.162Y-0.69
G1X0.201Y-0.641
G1X0.239Y-0.592
G1X0.086Y-0.147
G1X0.112Y-0.155
G1X0.137Y-0.162
G1X0.158Y-0.165
G1X0.372Y-0.333
G1X0.43Y-0.321
G1X0.466Y-0.29
G1X0.483Y-0.241
G1X0.48Y-0.173
G1X0.457Y-0.087
G1Y-4.512
G1X-0.686Y0.012
G1X-0.641Y0.035
G1X-0.602Y0.058
G1X-0.565Y0.083
G1X-0.532Y0.106
G1X-0.502Y0.13
G1X-0.475Y0.155
G1X-0.451Y0.18
G1X-0.431Y0.204
G1X-0.413Y0.229
G1X-0.399Y0.254
G1X-0.387Y0.28
G1X-0.379Y0.305
G1X-0.375Y0.331
G1X-0.372Y0.357
G1X-0.374Y0.383
G1X-0.358Y0.413
G1X-0.335Y0.437
G1X-0.311Y0.461
G1X-0.288Y0.485
G1X-0.266Y0.508
G0X11.806Y-0.792
; Layer C00
G1X0.39Y0.083
G1X0.388Y0.162
G1X0.375Y0.224
G1X0.353Y0.271
G1X0.321Y0.302
G1X0.279Y0.317
G1X0.227Y0.315
G1X0.164Y0.298
G1X0.259Y0.609
G1X0.207Y0.653
G1X0.155Y0.697
G1X0.104Y0.742
G1X0.091Y0.778
G1X0.064Y0.807
G1X0.039Y0.837
G1X0.013Y0.866
G1X-0.013Y0.866
G1X-0.039Y0.836
G1X-0.064Y0.808
G1X-0.091Y0.778
G1X-0.104Y0.755
G1X-0.155Y0.703
G1X-0.207Y0.648
G1X-0.259Y0.594
G1X-0.161Y0.296
G1X-0.219Y0.31
G1X-0.273Y0.315
G1X-0.325Y0.307
G1X-0.371Y0.287
G1X-0.413Y0.256
G1X-0.453Y0.213
G1X-0.487Y0.159
G1X0.012Y4.477
G1X0.679Y-0.012
G1X0.629Y-0.036
G1X0.581Y-0.061
G1X0.539Y-0.086
G1X0.501Y-0.11
G1X0.467Y-0.135
G1X0.438Y-0.16
G1X0.412Y-0.185
G1X0.392Y-0.21
G1X0.374Y-0.235
G1X0.362Y-0.26
G1X0.354Y-0.286
G1X0.349Y-0.312
G1X0.35Y-0.336
G1X0.355Y-0.363
G1X0.363Y-0.388
G1X0.358Y-0.408
G1X0.334Y-0.433
G1X0.312Y-0.457
G1X0.288Y-0.481
G1X0.265Y-0.505
G1X0.243Y-0.529
G1X0.219Y-0.553
G1X0.196Y-0.578
G1X0.173Y-0.601
G1X0.15Y-0.626
G1X0.127Y-0.65
G1X0.104Y-0.674
G1X0.08Y-0.699
G1X0.058Y-0.722
G1X0.035Y-0.747
G1X0.011Y-0.77
G1X-0.011Y-0.771
G1X-0.036Y-0.747
G1X-0.058Y-0.724
G1X-0.083Y-0.699
G1X-0.105Y-0.675
G1X-0.129Y-0.652
G1X-0.153Y-0.628
G1X-0.176Y-0.604
G1X-0.199Y-0.58
G1X-0.223Y-0.556
G1X-0.247Y-0.533
G1X-0.27Y-0.508
G1X-0.293Y-0.485
G1X-0.317Y-0.461
G1X-0.341Y-0.437
G1X-0.364Y-0.413
G1X-0.366Y-0.383
G1X-0.352Y-0.358
G1X-0.342Y-0.333
G1X-0.337Y-0.308
G1X-0.336Y-0.282
G1X-0.342Y-0.257
G1X-0.351Y-0.232
G1X-0.365Y-0.208
G1X-0.385Y-0.182
G1X-0.41Y-0.158
G1X-0.438Y-0.133
G1X-0.473Y-0.109
G1X-0.512Y-0.085
G1X-0.555Y-0.06
G1X-0.605Y-0.036
G1X-0.658Y-0.012
G1X-0.073Y4.648
G0X27.252Y9.306
; Layer C00
G1X1.326
G1X0.747Y0.014
G1X0.693Y0.043
G1X0.64Y0.072
G1X0.585Y0.101
G1X0.532Y0.13
G1X0.478Y0.158
G1X0.425Y0.188
G1X0.371Y0.216
G1X0.322Y0.252
G1X0.279Y0.277
G1X0.237Y0.3
G1X0.193Y0.324
G1X0.151Y0.349
G1X0.107Y0.372
G1X0.065Y0.396
G1X0.021Y0.421
G1X-0.023Y0.455
G1X-0.069Y0.424
G1X-0.115Y0.393
G1X-0.161Y0.362
G1X-0.207Y0.33
G1X-0.254Y0.299
G1X-0.299Y0.268
G1X-0.346Y0.237
G1X-0.383Y0.207
G1X-0.412Y0.179
G1X-0.441Y0.152
G1X-0.471Y0.125
G1X-0.499Y0.096
G1X-0.529Y0.07
G1X-0.558Y0.041
G1X-0.588Y0.014
G1X-0.38Y-0.01
G1X-0.455Y-0.029
G1X-0.291Y0.027
G1X-0.323Y0.038
G1X-0.144
G1X-0.117Y-0.013
G1X-0.078Y-0.046
G1X-0.029Y-0.082
G1Y-4.583
G1X-6.1Y0.086
G1X0.057Y8.11
G1X0.921Y0.145
G1X0.995Y0.124
G1X1.081Y0.125
G1X2.137Y0.135
G1X1.007Y0.048
G1X0.476Y0.017
G1X0.445Y0.012
G1X0.415Y0.007
G1X0.383
G1X1.272Y-0.026
G1X1.209Y-0.087
G1X1.149Y-0.144
G1X1.087Y-0.202
G1X1.019Y-0.262
G1X0.946Y-0.324
G1X0.872Y-0.387
G1X0.798Y-0.449
G1X0.369Y-0.249
G1X0.346Y-0.265
G1X0.324Y-0.283
G1X0.3Y-0.299
G1X0.277Y-0.316
G1X0.254Y-0.332
G1X0.231Y-0.35
G1X0.208Y-0.366
G1X0.196Y-0.374
G1X0.169Y-0.39
G1X0.144Y-0.408
G1X0.117Y-0.424
G1X0.092Y-0.44
G1X0.065Y-0.458
G1X0.039Y-0.475
G1X0.013Y-0.491
G1X-0.017Y-0.513
G1X-0.051Y-0.501
G1X-0.084Y-0.489
G1X-0.118Y-0.477
G1X-0.152Y-0.464
G1X-0.186Y-0.453
G1X-0.219Y-0.441
G1X-0.254Y-0.429
G1X-0.292Y-0.41
G1X-0.337Y-0.385
G1X-0.382Y-0.36
G1X-0.426Y-0.335
G1X-0.47Y-0.309
G1X-0.515Y-0.284
G1X-0.56Y-0.259
G1X-0.604Y-0.234
G1X0.424Y-0.514
G1X0.436Y-0.543
G1X0.448Y-0.572
G1X0.461Y-0.6
G1X0.921Y-1.23
G1X0.896Y-1.307
G1X0.86Y-1.317
G1X0.811Y-1.336
G1X0.402Y-0.646
G1X0.371Y-0.632
G1X0.341Y-0.617
G1X0.31Y-0.603
G1X-6.337
G1X-0.59Y1.141
G1X-0.638Y1.117
G1X-0.688Y1.093
G1X-0.737Y1.069
G1X-0.752Y1.079
G1X-0.783Y1.084
G1X-0.814Y1.088
G1X-0.844Y1.093
G1X-3.144
G1Y-8.764
G1X-6.043
G1Y12.485
G1X6.043Y0.2
G0X-5.205Y19.208
; Layer C00
G1Y24.597
G1X17.451
G1Y-3.798
G1X-12.51
G1Y-6.069
G1X11.138
G1Y-3.727
G1X-11.138
G1Y-7.205
G1X13.451
G1Y-3.798
G1X-18.392
G0X30.575Y-7.726
; Layer C00
G1X5.649
G1X0.685Y-1.345
G1X0.718Y-1.341
G1X0.751Y-1.336
G1X0.785Y-1.332
G1X0.811Y-1.326
G1X0.83Y-1.317
G1X0.849Y-1.308
G1X0.869Y-1.3
G1X1.698Y2.608
G1X1.66Y2.643
G1X0.802Y1.332
G1X0.763Y1.336
G1X0.726Y1.341
G1X0.687Y1.345
G1X5.343
G1X-1.081Y-1.829
G1X-1.104Y-1.824
G1X-1.128Y-1.82
G1X-1.153Y-1.816
G1X-1.166Y-1.8
G1X-1.21Y-1.809
G1X-1.252Y-1.818
G1X-1.295Y-1.827
G1Y-9.395
G1X-4.809
G1Y9.326
G1X-1.298Y1.844
G1X-1.26Y1.835
G1X-1.221Y1.827
G1X-1.183Y1.817
G1X-1.152Y1.816
G1X-1.128Y1.82
G1X-1.105Y1.824
G1X-1.081Y1.829
G0X9.352Y8.359
; Layer C00
G1Y24.597
G1X4.941
G1Y-24.597
G1X-4.941
G0X24.828Y-8.731
; Layer C00
G1X3.843
G1X0.371Y-0.693
G1X0.392Y-0.767
G1X0.413Y-0.84
G1X0.433Y-0.913
G1X0.446Y-0.963
G1X0.449Y-0.988
G1X0.454Y-1.015
G1X0.458Y-1.041
G1X0.911Y-2.098
G1X0.895Y-2.151
G1X0.45Y-1.051
G1X0.429Y-1.012
G1X0.408Y-0.974
G1X0.388Y-0.935
G1X1.643Y3.972
G1X0.895Y2.151
G1X0.911Y2.098
G1X0.458Y1.041
G1X0.454Y1.015
G1X0.45Y0.988
G1X0.445Y0.963
G1X0.433Y0.913
G1X0.413Y0.84
G1X0.392Y0.767
G1X0.371Y0.693
G1X3.745
G1X0.146Y-1.334
G1X0.141Y-1.378
G1X0.138Y-1.42
G1X0.134Y-1.464
G1X0.246Y-2.98
G1X0.427Y-6.157
G1X0.181Y-3.126
G1X0.18Y-3.074
G1X0.148Y-3.006
G1X-4.073
G1X-0.07Y2.105
G1X-0.078Y2.136
G1X-0.086Y2.165
G1X-0.189Y4.389
G1X-0.119Y2.159
G1X-0.144Y2.124
G1X-0.168Y2.09
G1X-0.189Y-0.416
G1X-0.427Y-0.95
G1X-0.489Y-1.099
G1X-0.258Y-0.592
G1X-0.267Y-0.617
G1X-0.275Y-0.644
G1X-0.567Y-1.304
G1X-0.583Y-1.355
G1X-0.558Y-1.365
G1X-0.559Y-1.33
G1X-0.509Y-1.243
G1X-0.476Y-1.175
G1X-0.788Y-1.9
G1X-3.088
G1X-0.361Y0.881
G1X-0.427Y1.054
G1X-0.485Y1.174
G1X-0.534Y1.244
G1X-0.541Y1.33
G1X-0.575Y1.364
G1X-0.559Y1.356
G1X-0.558Y1.304
G1X-0.542Y1.235
G1X-0.509Y1.148
G1X-0.238Y0.547
G1X-0.222Y0.498
G1X-0.205Y0.452
G1X-0.189Y0.403
G1X-0.171Y-2.09
G1X-0.15Y-2.124
G1X-0.129Y-2.159
G1X-0.109Y-2.193
G1X-0.08Y-2.196
G1X-0.076Y-2.165
G1X-0.072Y-2.136
G1X-0.067Y-2.105
G1X-4.073
G1X0.067Y1.499
G1X0.072Y1.524
G1X0.076Y1.55
G1X0.08Y1.576
G1X0.197Y3.161
G1X0.197Y3.126
G1X0.117Y1.559
G1X0.122Y1.533
G1X0.125Y1.506
G1X0.129Y1.482
G1X0.134Y1.44
G1X0.137Y1.383
G1X0.142Y1.328
G1X0.146Y1.272
G0X7.941Y8.64
; Layer C00
G1X-1.458Y2.909
G1X-1.434Y2.974
G1X-1.41Y3.042
G1X-1.384Y3.108
G1X-1.331Y3.141
G1X-1.287Y3.141
G1X-1.243Y3.141
G1X-1.198Y3.141
G1X5.451
G1X1.921Y-5.075
G1X0.981Y-2.574
G1X0.98Y-2.537
G1X0.98Y-2.449
G1X0.981Y-2.378
G1X0.488Y-1.147
G1X0.483Y-1.098
G1X0.477Y-1.05
G1X0.473Y-1
G1X0.456Y0.998
G1X0.466Y1.043
G1X0.476Y1.087
G1X0.485Y1.131
G1X0.98Y2.387
G1X0.981Y2.476
G1X1.01Y2.537
G1X0.99Y2.574
G1X0.961Y2.564
G1X0.921Y2.511
G1X5.295
G1X-1.216Y-3.141
G1X-1.255Y-3.141
G1X-1.294Y-3.141
G1X-1.334Y-3.141
G1X-1.367Y-3.108
G1X-1.397Y-3.042
G1X-1.427Y-2.974
G1X-1.456Y-2.909
G1X-4.745
G0X23.729Y-9.252
; Layer C00
G1X3.655
G1X0.331Y-2.286
G1X0.346Y-2.336
G1X0.379Y-2.344
G1X0.379Y-2.311
G1X0.406Y-2.228
G1X0.406Y-2.162
G1X0.203Y-1.043
G1X0.203Y-1.002
G1X0.203Y-0.96
G1X0.203Y-0.919
G1X0.514Y1.738
G1X0.514Y1.82
G1X0.535Y1.904
G1X0.521Y1.921
G1X0.501Y1.953
G1X0.474Y1.937
G1X0.467Y1.896
G1X0.426Y1.829
G1X2.924
G1X0.446Y-1.838
G1X0.474Y-1.92
G1X0.494Y-1.937
G1X0.508Y-1.954
G1X0.534Y-1.92
G1X0.521Y-1.904
G1X1.029Y-3.525
G1X0.202Y0.917
G1X0.197Y0.954
G1X0.195Y0.991
G1X0.191Y1.029
G1X0.379Y2.161
G1X0.379Y2.228
G1X0.372Y2.312
G1X0.359Y2.344
G1X0.366Y2.344
G1X0.338Y2.311
G1X3.519
G1X-0.487Y-3.096
G1X-0.515Y-3.039
G1X-0.541Y-2.98
G1X-0.568Y-2.922
G1X-0.599Y-2.846
G1X-0.633Y-2.782
G1X-0.667Y-2.721
G1X-0.7Y-2.658
G1X-3.249
G1X-0.525Y1.698
G1X-0.522Y1.737
G1X-0.517Y1.776
G1X-0.513Y1.814
G1X-0.509Y1.852
G1X-0.505Y1.891
G1X-0.5Y1.929
G1X-0.496Y1.968
G1X-0.503Y-1.987
G1X-0.506Y-1.937
G1X-0.509Y-1.888
G1X-0.513Y-1.837
G1X-0.514Y-1.798
G1X-0.514Y-1.768
G1X-0.515Y-1.74
G1X-0.514Y-1.71
G1X-3.249
G1X-0.712Y2.658
G1X-0.675Y2.721
G1X-0.638Y2.782
G1X-0.6Y2.846
G1X-0.557Y2.922
G1X-0.533Y2.98
G1X-0.509Y3.039
G1X-0.486Y3.096
G0X8.846Y9.162
; Layer C00
G1Y24.597
G1X4.941
G1Y-24.597
G1X-4.941
G0X25.947Y-0.09
; Layer C00
G1Y24.596
G1X17.451
G1Y-3.797
G1X-12.51
G1Y-6.07
G1X11.137
G1Y-3.727
G1X-11.137
G1Y-7.205
G1X13.451
G1Y-3.797
G1X-18.392
G0X-2.472Y-8.918
; Layer C00
G1X5.305
G1X1.87Y-4.94
G1X0.954Y-2.504
G1X0.954Y-2.47
G1X0.955Y-2.383
G1X0.954Y-2.315
G1X0.474Y-1.116
G1X0.47Y-1.069
G1X0.465Y-1.021
G1X0.461Y-0.973
G1X0.444Y0.971
G1X0.453Y1.015
G1X0.463Y1.058
G1X0.472Y1.101
G1X0.954Y2.323
G1X0.954Y2.409
G1X0.983Y2.47
G1X0.964Y2.504
G1X0.935Y2.496
G1X0.897Y2.444
G1X5.152
G1X-1.183Y-3.057
G1X-1.221Y-3.057
G1X-1.26Y-3.057
G1X-1.297Y-3.057
G1X-1.331Y-3.025
G1X-1.36Y-2.96
G1X-1.388Y-2.895
G1X-1.417Y-2.83
G1X-4.619
G1X-1.419Y2.83
G1X-1.395Y2.895
G1X-1.372Y2.96
G1X-1.348Y3.025
G1X-1.295Y3.057
G1X-1.253Y3.057
G1X-1.209Y3.057
G1X-1.166Y3.057
G0X34.855Y0.949
; Layer C00
G1X3.931
G1X0.778Y-0.76
G1X0.806Y-0.829
G1X0.835Y-0.898
G1X0.864Y-0.968
G1X1.755Y-2.012
G1X1.756Y-2.098
G1X1.756Y-2.151
G1X2.495Y-3.221
G1X0.768Y-1.019
G1X0.72Y-0.984
G1X0.673Y-0.95
G1Y15.89
G1X4.771
G1Y-23.939
G1X-4.084
G1X-0.668Y1.002
G1X-0.706Y1.036
G1X-0.744Y1.071
G1X-0.783Y1.106
G1X-1.631Y2.279
G1X-1.689Y2.28
G1X-0.864Y1.147
G1X-0.873Y1.124
G1X-0.882Y1.104
G1X-0.893Y1.081
G1X-0.868Y1.06
G1X-0.849Y1.004
G1X-0.83Y0.948
G1X-0.811Y0.892
G1Y-17.134
G1X-4.733
G1Y23.939
G0X5.744Y21.25
; Layer C00
G1X1.363
G1X0.767Y0.015
G1X0.712Y0.045
G1X0.657Y0.074
G1X0.602Y0.103
G1X0.547Y0.134
G1X0.491Y0.163
G1X0.436Y0.192
G1X0.381Y0.222
G1X0.331Y0.26
G1X0.287Y0.283
G1X0.243Y0.309
G1X0.199Y0.333
G1X0.155Y0.358
G1X0.11Y0.383
G1X0.066Y0.407
G1X0.022Y0.432
G1X-0.023Y0.468
G1X-0.071Y0.436
G1X-0.118Y0.403
G1X-0.166Y0.372
G1X-0.213Y0.339
G1X-0.26Y0.308
G1X-0.308Y0.275
G1X-0.355Y0.243
G1X-0.393Y0.213
G1X-0.424Y0.184
G1X-0.454Y0.157
G1X-0.483Y0.127
G1X-0.513Y0.1
G1X-0.544Y0.071
G1X-0.573Y0.042
G1X-0.604Y0.014
G1X-0.391Y-0.009
G1X-0.467Y-0.03
G1X-0.299Y0.028
G1X-0.332Y0.039
G1X-0.148
G1X-0.12Y-0.014
G1X-0.081Y-0.047
G1X-0.029Y-0.085
G1Y-4.708
G1X-6.268Y0.087
G1X0.059Y8.334
G1X0.946Y0.148
G1X1.023Y0.129
G1X1.11Y0.128
G1X2.196Y0.138
G1X1.035Y0.05
G1X0.489Y0.017
G1X0.457Y0.012
G1X0.426Y0.008
G1X0.394
G1X1.307Y-0.027
G1X1.243Y-0.089
G1X1.179Y-0.148
G1X1.117Y-0.208
G1X1.048Y-0.269
G1X0.971Y-0.333
G1X0.896Y-0.397
G1X0.821Y-0.462
G1X0.379Y-0.256
G1X0.356Y-0.272
G1X0.332Y-0.291
G1X0.308Y-0.307
G1X0.285Y-0.324
G1X0.261Y-0.342
G1X0.237Y-0.36
G1X0.214Y-0.376
G1X0.201Y-0.384
G1X0.174Y-0.401
G1X0.148Y-0.418
G1X0.121Y-0.436
G1X0.093Y-0.453
G1X0.068Y-0.47
G1X0.04Y-0.488
G1X0.013Y-0.505
G1X-0.017Y-0.527
G1X-0.052Y-0.515
G1X-0.087Y-0.502
G1X-0.121Y-0.49
G1X-0.157Y-0.478
G1X-0.191Y-0.465
G1X-0.225Y-0.453
G1X-0.26Y-0.441
G1X-0.301Y-0.421
G1X-0.346Y-0.396
G1X-0.392Y-0.369
G1X-0.438Y-0.344
G1X-0.483Y-0.318
G1X-0.53Y-0.292
G1X-0.574Y-0.266
G1X-0.621Y-0.24
G1X0.435Y-0.528
G1X0.448Y-0.558
G1X0.461Y-0.588
G1X0.473Y-0.617
G1X0.946Y-1.264
G1X0.922Y-1.343
G1X0.883Y-1.352
G1X0.833Y-1.373
G1X0.413Y-0.664
G1X0.382Y-0.649
G1X0.35Y-0.635
G1X0.319Y-0.619
G1X-6.512
G1X-0.606Y1.172
G1X-0.656Y1.148
G1X-0.707Y1.123
G1X-0.757Y1.099
G1X-0.773Y1.108
G1X-0.804Y1.114
G1X-0.836Y1.118
G1X-0.868Y1.123
G1X-3.23
G1Y-9.005
G1X-6.209
G1Y12.828
G1X6.209Y0.206
G0X26.628Y7.355
; Layer C00
G1Y3.869
G1X21.687
G1Y-3.869
G1X-8.353
G1Y-20.728
G1X-4.981
G1Y20.728
G1X-8.353
G0X1.734Y12.492
; Layer C00
G1Y2.788
G1X0.404Y0.666
G1X0.434Y0.693
G1X0.463Y0.719
G1X0.492Y0.746
G1X1.082Y1.57
G1X1.141Y1.606
G1X1.189Y1.632
G1X1.228Y1.65
G1X1.278Y1.623
G1X1.257Y1.553
G1X1.229Y1.509
G1X1.189Y1.42
G1X0.594Y0.686
G1X0.576Y0.647
G1X0.555Y0.606
G1X0.536Y0.567
G1X-12.985
G1Y3.776
G1X19.341
G1Y-3.282
G1X-0.33Y-0.329
G1X-0.347Y-0.354
G1X-0.364Y-0.379
G1X-0.382Y-0.402
G1X-0.398Y-0.427
G1X-0.416Y-0.451
G1X-0.432Y-0.476
G1X-1.374Y-1.529
G1X-0.938Y-1.079
G1X-0.953Y-1.127
G1X-0.968Y-1.176
G1X-1.939Y-2.408
G1X-1.921Y-2.497
G1X-0.909Y-1.238
G1X-0.855Y-1.206
G1X-0.802Y-1.176
G1X-0.748Y-1.145
G1X14.505
G1Y-3.776
G1X-20.432
G0X-12.392Y0
; Layer C00
G1X-4.172
G1X-0.683Y1.024
G1X-0.721Y1.058
G1X-0.76Y1.094
G1X-0.8Y1.13
G1X-1.667Y2.329
G1X-1.725Y2.329
G1X-0.883Y1.172
G1X-0.892Y1.149
G1X-0.901Y1.127
G1X-0.912Y1.105
G1X-0.887Y1.083
G1X-0.868Y1.026
G1X-0.848Y0.968
G1X-0.828Y0.911
G1Y-17.505
G1X-4.836
G1Y24.457
G1X4.017
G1X0.794Y-0.776
G1X0.824Y-0.847
G1X0.853Y-0.918
G1X0.882Y-0.988
G1X1.794Y-2.056
G1X1.794Y-2.144
G1X1.794Y-2.196
G1X2.549Y-3.291
G1X0.785Y-1.041
G1X0.736Y-1.006
G1X0.687Y-0.971
G1Y16.234
G1X4.874
G1Y-24.457
G0X-43.786Y9.728
; Layer C00
G1X3.217Y-0.098
G1X-0.287Y1.284
G1X-0.287Y1.245
G1X-0.311Y1.215
G1X-0.359Y1.195
G1X-0.359Y1.225
G1X-0.406Y1.224
G1X-0.407Y1.294
G1X-0.454Y1.354
G1X-0.467Y-1.354
G1X-0.443Y-1.294
G1X-0.765Y-2.449
G1X-0.335Y-1.195
G1X-0.335Y-1.215
G1X-0.287Y-1.245
G1X-0.287Y-1.284
G0X-0Y0
; Layer C00
G1X-2.44Y-9.68
G1X-6.125
G1X0.527Y1.787
G1X0.529Y1.747
G1X0.53Y1.705
G1X0.531Y1.665
G1X0.533Y1.625
G1X0.535Y1.583
G1X0.536Y1.543
G1X0.537Y1.502
G1X1.068Y2.944
G1X1.05Y2.864
G1X1.031Y2.786
G1X1.014Y2.706
G1X6.412
G1X1.05Y-2.729
G1X1.043Y-2.812
G1X1.038Y-2.897
G1X1.556Y-4.498
G1X0.519Y-1.55
G1X0.515Y-1.581
G1X0.511Y-1.614
G1X0.506Y-1.646
G1X0.502Y-1.678
G1X0.497Y-1.71
G1X0.493Y-1.742
G1X-6.316
G1X-1.388Y5.65
G1X-5.211Y-0.098
G1X0.989Y4.226
G0X-22.503Y2.395
; Layer C00
G1X-0.612Y-2.907
G1X-0.647Y-2.843
G1X-0.681Y-2.78
G1X-0.715Y-2.715
G1X-3.319
G1X-0.537Y1.735
G1X-0.533Y1.774
G1X-0.529Y1.814
G1X-0.524Y1.854
G1X-0.52Y1.892
G1X-0.515Y1.932
G1X-0.511Y1.971
G1X-0.507Y2.01
G1X-0.514Y-2.03
G1X-0.517Y-1.979
G1X-0.52Y-1.928
G1X-0.524Y-1.877
G1X-0.525Y-1.837
G1X-0.526Y-1.807
G1X-0.525Y-1.777
G1X-0.526Y-1.747
G1X-3.319
G1X-0.727Y2.715
G1X-0.69Y2.78
G1X-0.652Y2.843
G1X-0.613Y2.907
G1X-0.569Y2.985
G1X-0.545Y3.045
G1X-0.52Y3.105
G1X-0.496Y3.164
G1X3.734
G1X0.339Y-2.336
G1X0.352Y-2.387
G1X0.388Y-2.395
G1X0.387Y-2.361
G1X0.415Y-2.276
G1X0.414Y-2.209
G1X0.208Y-1.066
G1X0.207Y-1.023
G1X0.208Y-0.981
G1X0.207Y-0.939
G1X0.526Y1.775
G1X0.525Y1.861
G1X0.546Y1.945
G1X0.533Y1.962
G1X0.511Y1.996
G1X0.484Y1.979
G1X0.477Y1.936
G1X0.436Y1.869
G1X2.987
G1X0.456Y-1.877
G1X0.484Y-1.962
G1X0.505Y-1.979
G1X0.519Y-1.996
G1X0.546Y-1.962
G1X0.532Y-1.945
G1X1.051Y-3.602
G1X0.206Y0.937
G1X0.202Y0.974
G1X0.199Y1.013
G1X0.195Y1.051
G1X0.388Y2.209
G1X0.387Y2.276
G1X0.38Y2.361
G1X0.367Y2.395
G1X0.373Y2.395
G1X0.346Y2.362
G1X3.595
G1X-0.498Y-3.164
G1X-0.525Y-3.105
G1X-0.553Y-3.045
G1X-0.581Y-2.985
G0X-8.252Y21.574
; Layer C00
G1X-5.173
G1Y21.528
G1X-8.676
G1Y4.018
G1X22.525
G1Y-4.018
G1X-8.676
G1Y-21.528
G0X18.931Y-0
; Layer C00
G1Y25.546
G1X4.195
G1X0.83Y-0.811
G1X0.861Y-0.884
G1X0.891Y-0.959
G1X0.921Y-1.032
G1X1.874Y-2.147
G1X1.874Y-2.24
G1X0.947Y-1.145
G1X0.926Y-1.15
G1X0.906Y-1.154
G1X0.886Y-1.159
G1X0.871Y-1.124
G1X0.82Y-1.088
G1X0.769Y-1.05
G1X0.717Y-1.014
G1Y16.957
G1X5.092
G1Y-25.546
G1X-4.358
G1X-0.713Y1.069
G1X-0.754Y1.106
G1X-0.794Y1.142
G1X-0.835Y1.18
G1X-1.741Y2.433
G1X-1.803Y2.433
G1X-0.921Y1.223
G1X-0.932Y1.201
G1X-0.942Y1.177
G1X-0.952Y1.155
G1X-0.927Y1.131
G1X-0.906Y1.071
G1X-0.886Y1.012
G1X-0.865Y0.951
G1Y-18.284
G1X-5.051
G0X36.247Y-0
; Layer C00
G1Y25.546
G1X17.841
G1Y-3.944
G1X-12.709
G1Y-6.525
G1X11.283
G1Y-3.944
G1X-11.283
G1Y-11.133
G1X-5.132
G0X30.643Y5.285
; Layer C00
G1X-0.199Y0.751
G1X-0.119Y0.786
G1X-0.04Y0.822
G1Y12.103
G1X5.045
G1Y-11.768
G1X0.025Y-0.634
G1X0.074Y-0.589
G1X0.125Y-0.543
G1X0.173Y-0.498
G1X0.239Y-0.44
G1X0.278Y-0.399
G1X0.318Y-0.356
G1X0.357Y-0.315
G1X0.412Y-0.274
G1X0.442Y-0.236
G1X0.472Y-0.197
G1X0.501Y-0.159
G1X0.552Y-0.123
G1X0.58Y-0.087
G1X0.611Y-0.052
G1X0.641Y-0.018
G1X0.64Y0.018
G1X0.611Y0.052
G1X0.581Y0.087
G1X0.551Y0.123
G1X0.517Y0.159
G1X0.476Y0.197
G1X0.437Y0.236
G1X0.398Y0.274
G1X0.372Y0.315
G1X0.323Y0.356
G1X0.273Y0.399
G1X0.223Y0.44
G1X0.191Y0.498
G1X0.137Y0.543
G1X0.082Y0.589
G1X0.027Y0.634
G1Y11.768
G1X5.045
G1Y-12.103
G1X-0.042Y-0.822
G1X-0.127Y-0.786
G1X-0.211Y-0.751
G1X-0.295Y-0.716
G1X-0.17Y-0.344
G1X-0.193Y-0.332
G1X-0.214Y-0.321
G1X-0.238Y-0.31
G1X-0.259Y-0.298
G1X-0.282Y-0.287
G1X-0.304Y-0.276
G1X-0.326Y-0.264
G1X-0.34Y-0.252
G1X-0.363Y-0.237
G1X-0.387Y-0.224
G1X-0.41Y-0.21
G1X-0.434Y-0.195
G1X-0.457Y-0.182
G1X-0.481Y-0.168
G1X-0.505Y-0.154
G1X-0.528Y-0.131
G1X-0.552Y-0.113
G1X-0.575Y-0.096
G1X-0.599Y-0.079
G1X-0.623Y-0.061
G1X-0.646Y-0.044
G1X-0.67Y-0.026
G1X-0.693Y-0.009
G1X-0.692Y0.009
G1X-0.668Y0.026
G1X-0.643Y0.044
G1X-0.619Y0.061
G1X-0.593Y0.079
G1X-0.569Y0.096
G1X-0.543Y0.113
G1X-0.519Y0.131
G1X-0.496Y0.154
G1X-0.475Y0.168
G1X-0.454Y0.182
G1X-0.432Y0.195
G1X-0.412Y0.21
G1X-0.39Y0.224
G1X-0.37Y0.237
G1X-0.348Y0.252
G1X-0.613Y0.54
G1X-0.529Y0.585
G1X-0.444Y0.631
G1X-0.36Y0.676
G1X-0.278Y0.716
G0X5.876Y16.562
; Layer C00
G1X-0.484Y0.095
G1X-0.449Y0.157
G1X-0.415Y0.22
G1X-0.186Y0.132
G1X-0.161Y0.142
G1X-0.137Y0.155
G1X-0.112Y0.165
G1X-0.087Y0.177
G1X-0.062Y0.188
G1X-0.037Y0.2
G1X-0.012Y0.211
G1X0.012Y0.211
G1X0.037Y0.199
G1X0.062Y0.189
G1X0.087Y0.177
G1X0.112Y0.165
G1X0.137Y0.154
G1X0.161Y0.143
G1X0.186Y0.132
G1X0.415Y0.232
G1X0.449Y0.166
G1X0.484Y0.099
G1X0.519Y0.034
G1X0.519Y-0.034
G1X0.484Y-0.099
G1X0.45Y-0.166
G1X0.414Y-0.232
G1X0.196Y-0.132
G1X0.169Y-0.143
G1X0.144Y-0.154
G1X0.117Y-0.165
G1X0.091Y-0.177
G1X0.065Y-0.189
G1X0.04Y-0.199
G1X0.013Y-0.211
G1X-0.013Y-0.211
G1X-0.04Y-0.2
G1X-0.065Y-0.188
G1X-0.091Y-0.177
G1X-0.117Y-0.165
G1X-0.144Y-0.155
G1X-0.169Y-0.142
G1X-0.196Y-0.132
G1X-0.414Y-0.22
G1X-0.45Y-0.157
G1X-0.484Y-0.095
G1X-0.519Y-0.031
G1X-0.519Y0.031
G0X6.153Y1.243
; Layer C00
G1X-0.062Y0.188
G1X-0.038Y0.2
G1X-0.012Y0.211
G1X0.012Y0.211
G1X0.038Y0.199
G1X0.062Y0.189
G1X0.087Y0.177
G1X0.111Y0.165
G1X0.137Y0.154
G1X0.161Y0.143
G1X0.187Y0.132
G1X0.431Y0.232
G1X0.462Y0.166
G1X0.492Y0.099
G1X0.521Y0.034
G1X0.519Y-0.034
G1X0.484Y-0.099
G1X0.45Y-0.166
G1X0.414Y-0.232
G1X0.186Y-0.132
G1X0.162Y-0.143
G1X0.136Y-0.154
G1X0.112Y-0.165
G1X0.087Y-0.177
G1X0.062Y-0.189
G1X0.037Y-0.199
G1X0.013Y-0.211
G1X-0.013Y-0.211
G1X-0.037Y-0.2
G1X-0.062Y-0.188
G1X-0.087Y-0.177
G1X-0.112Y-0.165
G1X-0.136Y-0.155
G1X-0.162Y-0.142
G1X-0.186Y-0.132
G1X-0.414Y-0.22
G1X-0.45Y-0.157
G1X-0.484Y-0.095
G1X-0.519Y-0.031
G1X-0.521Y0.031
G1X-0.492Y0.095
G1X-0.461Y0.157
G1X-0.432Y0.22
G1X-0.187Y0.132
G1X-0.161Y0.142
G1X-0.137Y0.155
G1X-0.111Y0.165
G1X-0.087Y0.177
G0X19.831Y2.456
; Layer C00
G1X4.195
G1X0.83Y-0.811
G1X0.86Y-0.884
G1X0.891Y-0.959
G1X0.922Y-1.032
G1X1.873Y-2.147
G1X1.874Y-2.24
G1X0.947Y-1.145
G1X0.927Y-1.15
G1X0.906Y-1.154
G1X0.886Y-1.159
G1X0.871Y-1.124
G1X0.819Y-1.088
G1X0.769Y-1.05
G1X0.718Y-1.014
G1Y16.957
G1X5.091
G1Y-25.546
G1X-4.358
G1X-0.712Y1.069
G1X-0.754Y1.106
G1X-0.794Y1.142
G1X-0.835Y1.18
G1X-1.742Y2.433
G1X-1.802Y2.433
G1X-0.922Y1.223
G1X-0.931Y1.201
G1X-0.942Y1.177
G1X-0.952Y1.155
G1X-0.927Y1.131
G1X-0.906Y1.071
G1X-0.886Y1.012
G1X-0.866Y0.951
G1Y-18.284
G1X-5.05
G1Y25.546
G0X32.595Y0
; Layer C00
G1X17.841
G1Y-3.944
G1X-12.708
G1Y-6.525
G1X11.282
G1Y-3.944
G1X-11.282
G1Y-11.133
G1X-5.133
G1Y25.546
G0X11.069Y-34.905
; Layer C00
G1X0.658Y0.066
G1X0.668Y0.04
G1X0.678Y0.013
G1X0.909Y-0.015
G1X0.855Y-0.046
G1X0.802Y-0.078
G1X0.748Y-0.108
G1X0.714Y-0.11
G1X0.661Y-0.119
G1X0.607Y-0.128
G1X0.553Y-0.137
G1X0.502Y-0.143
G1X0.453Y-0.148
G1X0.405Y-0.152
G1X0.356Y-0.157
G1X0.324Y-0.148
G1X0.27Y-0.125
G1X0.217Y-0.104
G1X0.163Y-0.081
G1X-1.481Y-3.636
G1X-0.622Y0.305
G1X-0.694Y0.278
G1X-0.768Y0.251
G1X-0.841Y0.225
G1X-0.87Y0.201
G1X-0.894Y0.143
G1X-0.919Y0.086
G1X-0.943Y0.029
G1X-1.013Y-0.037
G1X-0.952Y-0.111
G1X-0.891Y-0.184
G1X-0.829Y-0.259
G1X-0.769Y-0.333
G1X-0.708Y-0.406
G1X-0.647Y-0.48
G1X-0.587Y-0.555
G1X-0.511Y-0.611
G1X-0.444Y-0.668
G1X-0.375Y-0.726
G1X-0.307Y-0.783
G1X-0.239Y-0.84
G1X-0.171Y-0.898
G1X-0.102Y-0.955
G1X-0.034Y-1.012
G1X0.031Y-0.969
G1X0.096Y-0.928
G1X0.158Y-0.889
G1X0.222Y-0.849
G1X0.302Y-0.783
G1X0.361Y-0.726
G1X0.419Y-0.668
G1X0.477Y-0.611
G1X0.556Y-0.552
G1X0.614Y-0.489
G1X0.673Y-0.428
G1X0.731Y-0.366
G1X0.398Y-0.149
G1X0.414Y-0.129
G1X0.429Y-0.11
G1X0.446Y-0.089
G1X0.461Y-0.069
G1X0.477Y-0.05
G1X0.493Y-0.03
G1X0.508Y-0.01
G1X0.622
G1X0.578Y0.018
G1X0.533Y0.022
G1X0.49Y0.031
G1X0.444Y0.055
G1X0.395Y0.06
G1X0.346Y0.064
G1X0.297Y0.068
G1Y8.788
G1X4.913
G1Y-11.753
G1X-0.275Y-0.089
G1X-0.319Y-0.091
G1X-0.364Y-0.094
G1X-0.406Y-0.096
G1X-0.451Y-0.098
G1X-0.495Y-0.101
G1X-0.539Y-0.102
G1X-0.582Y-0.105
G1X-0.616Y-0.099
G1X-0.639Y-0.086
G1X-0.663Y-0.073
G1X-0.685Y-0.06
G1X-0.709Y-0.046
G1X-0.731Y-0.033
G1X-0.755Y-0.02
G1X-0.778Y-0.007
G1X-0.723Y0.014
G1X-0.708Y0.039
G1X-0.691Y0.067
G1X-0.676Y0.092
G1X-0.66Y0.119
G1X-0.644Y0.146
G1X-0.628Y0.172
G1X-0.612Y0.198
G1X-0.594Y0.224
G1X-0.571Y0.248
G1X-0.55Y0.273
G1X-0.528Y0.297
G1X-0.505Y0.32
G1X-0.484Y0.346
G1X-0.462Y0.369
G1X-0.44Y0.394
G1X-0.407Y0.417
G1X-0.385Y0.441
G1X-0.361Y0.464
G1X-0.338Y0.487
G1X-0.315Y0.51
G1X-0.292Y0.533
G1X-0.269Y0.556
G1X-0.246Y0.58
G1X-0.219Y0.602
G1X-0.19Y0.624
G1X-0.161Y0.647
G1X-0.131Y0.668
G1X-0.103Y0.69
G1X-0.073Y0.713
G1X-0.044Y0.734
G1X-0.014Y0.757
G1X0.016Y0.756
G1X0.047Y0.735
G1X0.079Y0.712
G1X0.111Y0.691
G1X0.143Y0.668
G1X0.174Y0.646
G1X0.206Y0.625
G1X0.237Y0.602
G1X0.275Y0.579
G1X0.298Y0.557
G1X0.321Y0.533
G1X0.345Y0.51
G1X0.367Y0.487
G1X0.391Y0.464
G1X0.413Y0.44
G1X0.437Y0.418
G1X0.458Y0.402
G1X0.478Y0.376
G1X0.497Y0.352
G1X0.517Y0.325
G1X0.536Y0.301
G1X0.556Y0.275
G1X0.575Y0.25
G1X0.594Y0.224
G1X0.61Y0.199
G1X0.619Y0.172
G1X0.629Y0.146
G1X0.638Y0.119
G1X0.648Y0.092
G0X-29.433Y0.119
; Layer C00
G1Y-24.457
G1X-4.914
G1Y24.457
G1X4.914
G0X6.116Y-33.171
; Layer C00
G1Y-3.797
G1X-12.51
G1Y-6.07
G1X11.137
G1Y-3.726
G1X-11.137
G1Y-7.205
G1X13.451
G1Y-3.798
G1X-18.392
G1Y24.596
G1X17.451
G0X13.712Y-0.09
; Layer C00
G1X4.941
G1Y-20.728
G1X12.236
G1Y-3.869
G1X-17.177
G1Y24.597
G0X0.613Y-33.006
; Layer C00
G1X4.809
G1Y-9.568
G1X11.488
G1Y9.568
G1X4.809
G1Y-23.938
G1X-4.809
G1Y10.605
G1X-11.488
G1Y-10.605
G1X-4.809
G1Y23.938
G0X-12.225Y-0.931
; Layer C00
G1X-1.412Y-3.558
G1X-0.241Y0.128
G1X-0.267Y0.126
G1X-0.292Y0.125
G1X-0.316Y0.121
G1X-0.342Y0.12
G1X-0.367Y0.118
G1X-0.392Y0.115
G1X-0.416Y0.114
G1X-0.859Y0.211
G1X-0.897Y0.152
G1X-0.935Y0.09
G1X-0.974Y0.03
G1X-0.844Y-0.034
G1X-0.816Y-0.104
G1X-0.787Y-0.172
G1X-0.758Y-0.242
G1X-0.721Y-0.294
G1X-0.673Y-0.363
G1X-0.625Y-0.431
G1X-0.577Y-0.501
G1X-0.506Y-0.57
G1X-0.448Y-0.639
G1X-0.391Y-0.708
G1X-0.334Y-0.778
G1X-0.143Y-0.414
G1X-0.124Y-0.43
G1X-0.105Y-0.446
G1X-0.086Y-0.463
G1X-0.067Y-0.478
G1X-0.048Y-0.495
G1X-0.028Y-0.511
G1X-0.01Y-0.528
G1X0.029Y-0.93
G1X0.086Y-0.892
G1X0.143Y-0.853
G1X0.2Y-0.814
G1X0.279Y-0.768
G1X0.341Y-0.717
G1X0.404Y-0.665
G1X0.465Y-0.613
G1X0.529Y-0.54
G1X0.597Y-0.479
G1X0.663Y-0.419
G1X0.73Y-0.358
G1X0.391Y-0.146
G1X0.41Y-0.126
G1X0.43Y-0.107
G1X0.448Y-0.088
G1X0.468Y-0.068
G1X0.486Y-0.048
G1X0.506Y-0.029
G1X0.525Y-0.01
G1X0.624Y0.007
G1X0.595Y0.021
G1X0.564Y0.035
G1X0.535Y0.049
G1X0.506Y0.063
G1X0.475Y0.077
G1X0.445Y0.092
G1X0.416Y0.105
G1X0.756Y0.237
G1X0.666Y0.229
G1X0.575Y0.22
G1X0.484Y0.212
G1X1.297Y-3.558
G1X-0.25Y-0.138
G1X-0.293Y-0.138
G1X-0.337Y-0.138
G1X-0.379Y-0.139
G1X-0.401Y-0.138
G1X-0.439Y-0.138
G1X-0.477Y-0.138
G1X-0.515Y-0.138
G1X-0.551Y-0.115
G1X-0.585Y-0.101
G1X-0.617Y-0.089
G1X-0.652Y-0.075
G1X-0.68Y-0.076
G1X-0.703Y-0.054
G1X-0.728Y-0.032
G1X-0.751Y-0.011
G1X-0.735Y0.013
G1X-0.715Y0.039
G1X-0.697Y0.065
G1X-0.677Y0.09
G1X-0.659Y0.117
G1X-0.639Y0.142
G1X-0.62Y0.169
G1X-0.601Y0.194
G1X-0.581Y0.219
G1X-0.557Y0.243
G1X-0.535Y0.267
G1X-0.512Y0.29
G1X-0.49Y0.314
G1X-0.467Y0.338
G1X-0.444Y0.362
G1X-0.422Y0.385
G1X-0.398Y0.417
G1X-0.375Y0.438
G1X-0.35Y0.46
G1X-0.327Y0.481
G1X-0.303Y0.503
G1X-0.279Y0.525
G1X-0.256Y0.546
G1X-0.231Y0.568
G1X-0.206Y0.589
G1X-0.178Y0.611
G1X-0.151Y0.633
G1X-0.123Y0.654
G1X-0.096Y0.676
G1X-0.069Y0.697
G1X-0.041Y0.719
G1X-0.014Y0.741
G1X0.016Y0.74
G1X0.046Y0.719
G1X0.078Y0.697
G1X0.108Y0.676
G1X0.14Y0.654
G1X0.17Y0.633
G1X0.202Y0.611
G1X0.233Y0.589
G1X0.268Y0.568
G1X0.292Y0.544
G1X0.314Y0.522
G1X0.337Y0.499
G1X0.36Y0.477
G1X0.382Y0.454
G1X0.405Y0.431
G1X0.428Y0.409
G1X0.448Y0.393
G1X0.468Y0.369
G1X0.486Y0.344
G1X0.506Y0.319
G1X0.525Y0.294
G1X0.544Y0.269
G1X0.563Y0.244
G1X0.582Y0.22
G1X0.597Y0.194
G1X0.607Y0.169
G1X0.619Y0.142
G1X0.629Y0.117
G1X0.64Y0.091
G1X0.651Y0.064
G1X0.661Y0.039
G1X0.672Y0.013
G1X0.801Y-0.015
G1X0.764Y-0.045
G1X0.725Y-0.076
G1X0.687Y-0.106
G1X0.646Y-0.108
G1X0.604Y-0.116
G1X0.561Y-0.125
G1X0.517Y-0.134
G1X0.475Y-0.141
G1X0.432Y-0.144
G1X0.388Y-0.149
G1X0.346Y-0.153
G1X0.301Y-0.145
G1X0.458Y-0.225
G1X0.157Y-0.079
G0X0.111Y-31.815
; Layer C00
G1Y-24.423
G1X-4.166
G1X-0.682Y1.022
G1X-0.72Y1.057
G1X-0.759Y1.093
G1X-0.799Y1.127
G1X-1.664Y2.326
G1X-1.723Y2.326
G1X-0.881Y1.17
G1X-0.891Y1.148
G1X-0.901Y1.125
G1X-0.91Y1.104
G1X-0.886Y1.081
G1X-0.866Y1.024
G1X-0.847Y0.967
G1X-0.827Y0.91
G1Y-17.48
G1X-4.829
G1Y24.423
G1X4.011
G1X0.793Y-0.776
G1X0.823Y-0.846
G1X0.852Y-0.916
G1X0.881Y-0.987
G1X1.791Y-2.052
G1X1.791Y-2.141
G1X1.791Y-2.194
G1X2.546Y-3.286
G1X0.784Y-1.04
G1X0.734Y-1.005
G1X0.687Y-0.969
G1Y16.212
G1X4.867
G0X12.112Y-0.49
; Layer C00
G1X17.055
G1Y-3.771
G1X-12.149
G1Y-6.238
G1X10.786
G1Y-3.771
G1X-10.786
G1Y-10.643
G1X-4.906
G1Y24.423
G0X-46.027Y-4.718
; Layer C00
G1Y-11.879
G1X-0.041Y-0.806
G1X-0.125Y-0.771
G1X-0.207Y-0.737
G1X-0.29Y-0.703
G1X-0.356Y-0.664
G1X-0.443Y-0.619
G1X-0.531Y-0.574
G1X-0.619Y-0.53
G1X-0.333Y-0.247
G1X-0.357Y-0.233
G1X-0.379Y-0.22
G1X-0.403Y-0.206
G1X-0.426Y-0.192
G1X-0.449Y-0.178
G1X-0.472Y-0.165
G1X-0.495Y-0.15
G1X-0.518Y-0.129
G1X-0.542Y-0.111
G1X-0.565Y-0.095
G1X-0.588Y-0.077
G1X-0.61Y-0.06
G1X-0.635Y-0.043
G1X-0.657Y-0.026
G1X-0.68Y-0.008
G1X-0.68Y0.008
G1X-0.655Y0.026
G1X-0.632Y0.043
G1X-0.606Y0.06
G1X-0.583Y0.077
G1X-0.558Y0.094
G1X-0.533Y0.112
G1X-0.51Y0.129
G1X-0.952Y0.315
G1X-0.87Y0.37
G1X-0.787Y0.426
G1X-0.704Y0.48
G1X-0.602Y0.53
G1X-0.519Y0.574
G1X-0.436Y0.619
G1X-0.354Y0.664
G1X-0.273Y0.703
G1X-0.195Y0.737
G1X-0.117Y0.771
G1X-0.039Y0.806
G1Y11.879
G1X4.952
G1Y-11.549
G1X0.024Y-0.623
G1X0.073Y-0.578
G1X0.122Y-0.533
G1X0.171Y-0.489
G1X0.234Y-0.432
G1X0.272Y-0.391
G1X0.312Y-0.349
G1X0.351Y-0.309
G1X0.405Y-0.269
G1X0.433Y-0.232
G1X0.463Y-0.194
G1X0.493Y-0.156
G1X0.541Y-0.12
G1X0.57Y-0.085
G1X0.599Y-0.052
G1X0.629Y-0.017
G1X0.628Y0.017
G1X0.6Y0.052
G1X0.57Y0.085
G1X0.541Y0.12
G1X0.507Y0.156
G1X0.468Y0.194
G1X0.428Y0.232
G1X0.39Y0.269
G1X0.366Y0.309
G1X0.317Y0.349
G1X0.268Y0.391
G1X0.219Y0.432
G1X0.188Y0.489
G1X0.134Y0.533
G1X0.08Y0.578
G1X0.027Y0.623
G1Y11.549
G1X4.951
G0X-4.612Y2.653
; Layer C00
G1X-0.183Y-0.129
G1X-0.407Y-0.216
G1X-0.441Y-0.154
G1X-0.475Y-0.093
G1X-0.509Y-0.03
G1X-0.512Y0.03
G1X-0.483Y0.093
G1X-0.453Y0.154
G1X-0.424Y0.216
G1X-0.183Y0.129
G1X-0.158Y0.141
G1X-0.134Y0.151
G1X-0.11Y0.162
G1X-0.085Y0.174
G1X-0.061Y0.185
G1X-0.036Y0.196
G1X-0.013Y0.207
G1X0.013Y0.207
G1X0.036Y0.196
G1X0.061Y0.184
G1X0.085Y0.174
G1X0.11Y0.162
G1X0.134Y0.152
G1X0.158Y0.14
G1X0.183Y0.129
G1X0.424Y0.228
G1X0.453Y0.163
G1X0.483Y0.098
G1X0.512Y0.032
G1X0.509Y-0.032
G1X0.475Y-0.098
G1X0.441Y-0.163
G1X0.407Y-0.228
G1X0.183Y-0.129
G1X0.158Y-0.14
G1X0.134Y-0.152
G1X0.11Y-0.162
G1X0.085Y-0.174
G1X0.061Y-0.184
G1X0.037Y-0.196
G1X0.012Y-0.207
G1X-0.012Y-0.207
G1X-0.037Y-0.196
G1X-0.061Y-0.185
G1X-0.085Y-0.174
G1X-0.11Y-0.162
G1X-0.134Y-0.151
G1X-0.158Y-0.141
G0X-7.486Y0.813
; Layer C00
G1X-0.064Y-0.185
G1X-0.089Y-0.174
G1X-0.115Y-0.162
G1X-0.141Y-0.151
G1X-0.166Y-0.141
G1X-0.192Y-0.129
G1X-0.407Y-0.216
G1X-0.441Y-0.154
G1X-0.475Y-0.093
G1X-0.51Y-0.03
G1X-0.509Y0.03
G1X-0.475Y0.093
G1X-0.441Y0.154
G1X-0.407Y0.216
G1X-0.183Y0.129
G1X-0.158Y0.141
G1X-0.134Y0.151
G1X-0.11Y0.162
G1X-0.085Y0.174
G1X-0.061Y0.185
G1X-0.037Y0.196
G1X-0.012Y0.207
G1X0.012Y0.207
G1X0.037Y0.196
G1X0.061Y0.184
G1X0.085Y0.174
G1X0.11Y0.162
G1X0.134Y0.152
G1X0.158Y0.14
G1X0.183Y0.129
G1X0.407Y0.228
G1X0.441Y0.163
G1X0.475Y0.098
G1X0.509Y0.032
G1X0.51Y-0.032
G1X0.475Y-0.098
G1X0.441Y-0.163
G1X0.407Y-0.228
G1X0.192Y-0.129
G1X0.166Y-0.14
G1X0.141Y-0.152
G1X0.115Y-0.162
G1X0.089Y-0.174
G1X0.064Y-0.184
G1X0.039Y-0.196
G1X0.012Y-0.207
G1X-0.012Y-0.207
G1X-0.039Y-0.196
G0X-0.305Y19.857
; Layer C00
G1X0.281Y1.256
G1X0.281Y1.219
G1X0.328Y1.189
G1X0.328Y1.17
G1X0.749Y2.397
G1X0.433Y1.267
G1X0.457Y1.325
G1X0.445Y-1.325
G1X0.398Y-1.267
G1X0.398Y-1.198
G1X0.351Y-1.199
G1X0.352Y-1.17
G1X0.304Y-1.189
G1X0.281Y-1.219
G1X0.281Y-1.256
G1X-3.149Y0.095
G0X-0Y0
; Layer C00
G1X-0.968Y-4.136
G1X5.1Y0.096
G1X1.359Y-5.53
G1X6.182
G1X-0.483Y1.705
G1X-0.486Y1.674
G1X-0.491Y1.642
G1X-0.496Y1.611
G1X-0.5Y1.58
G1X-0.504Y1.548
G1X-0.508Y1.517
G1X-1.523Y4.402
G1X-1.016Y2.836
G1X-1.021Y2.753
G1X-1.028Y2.67
G1X-6.275
G1X-0.993Y-2.649
G1X-1.009Y-2.726
G1X-1.028Y-2.804
G1X-1.045Y-2.881
G1X-0.526Y-1.47
G1X-0.525Y-1.51
G1X-0.523Y-1.55
G1X-0.522Y-1.59
G1X-0.52Y-1.63
G1X-0.519Y-1.669
G1X-0.517Y-1.71
G1X-0.516Y-1.749
G1X5.995
G1X2.388Y9.475
G0X-119.3Y56.441
; Layer C00
G1X-20.433
G1Y2.788
G1X0.404Y0.666
G1X0.434Y0.693
G1X0.463Y0.719
G1X0.492Y0.746
G1X1.082Y1.57
G1X1.141Y1.606
G1X1.189Y1.632
G1X1.229Y1.65
G1X1.277Y1.623
G1X1.257Y1.553
G1X1.229Y1.509
G1X1.189Y1.42
G1X0.595Y0.686
G1X0.575Y0.647
G1X0.555Y0.606
G1X0.536Y0.567
G1X-12.984
G1Y3.776
G1X19.341
G1Y-3.282
G1X-0.331Y-0.329
G1X-0.347Y-0.354
G1X-0.364Y-0.379
G1X-0.382Y-0.402
G1X-0.398Y-0.427
G1X-0.416Y-0.451
G1X-0.432Y-0.476
G1X-1.374Y-1.529
G1X-0.938Y-1.079
G1X-0.953Y-1.127
G1X-0.967Y-1.176
G1X-1.94Y-2.408
G1X-1.921Y-2.497
G1X-0.909Y-1.238
G1X-0.855Y-1.206
G1X-0.802Y-1.176
G1X-0.748Y-1.145
G1X14.506
G1Y-3.776
G0X-31.766Y0
; Layer C00
G1X-4.173
G1X-0.682Y1.024
G1X-0.721Y1.058
G1X-0.761Y1.094
G1X-0.799Y1.13
G1X-1.667Y2.329
G1X-1.726Y2.329
G1X-0.882Y1.172
G1X-0.892Y1.149
G1X-0.902Y1.127
G1X-0.911Y1.105
G1X-0.887Y1.083
G1X-0.868Y1.026
G1X-0.848Y0.968
G1X-0.829Y0.911
G1Y-17.505
G1X-4.835
G1Y24.457
G1X4.016
G1X0.795Y-0.776
G1X0.824Y-0.847
G1X0.853Y-0.918
G1X0.882Y-0.988
G1X1.794Y-2.056
G1X1.793Y-2.144
G1X1.794Y-2.196
G1X2.549Y-3.291
G1X0.785Y-1.041
G1X0.736Y-1.006
G1X0.688Y-0.971
G1Y16.234
G1X4.874
G1Y-24.457
G0X-32.947Y0
; Layer C00
G1X-4.913
G1Y10.835
G1X-11.737
G1Y-10.835
G1X-4.914
G1Y24.457
G1X4.914
G1Y-9.775
G1X11.737
G1Y9.775
G1X4.913
G1Y-24.457
G0X-35.403Y0
; Layer C00
G1X-18.288
G1Y24.457
G1X17.352
G1Y-3.776
G1X-12.439
G1Y-6.035
G1X11.074
G1Y-3.705
G1X-11.074
G1Y-7.165
G1X13.375
G1Y-3.776
G0X-30.512Y0
; Layer C00
G1X-20.433
G1Y2.788
G1X0.404Y0.666
G1X0.434Y0.693
G1X0.463Y0.719
G1X0.492Y0.746
G1X1.082Y1.57
G1X1.141Y1.606
G1X1.189Y1.632
G1X1.229Y1.65
G1X1.277Y1.623
G1X1.257Y1.553
G1X1.229Y1.509
G1X1.189Y1.42
G1X0.595Y0.686
G1X0.575Y0.647
G1X0.555Y0.606
G1X0.537Y0.567
G1X-12.985
G1Y3.776
G1X19.341
G1Y-3.282
G1X-0.331Y-0.329
G1X-0.347Y-0.355
G1X-0.364Y-0.378
G1X-0.382Y-0.402
G1X-0.398Y-0.427
G1X-0.416Y-0.451
G1X-0.432Y-0.476
G1X-1.374Y-1.529
G1X-0.938Y-1.079
G1X-0.953Y-1.127
G1X-0.967Y-1.176
G1X-1.94Y-2.408
G1X-1.921Y-2.497
G1X-0.909Y-1.238
G1X-0.855Y-1.206
G1X-0.802Y-1.176
G1X-0.748Y-1.145
G1X14.506
G1Y-3.776
G0X-7.247Y-8.887
; Layer C00
G1X0.607Y-0.219
G1X0.582Y-0.246
G1X0.557Y-0.271
G1X0.531Y-0.298
G1X0.506Y-0.323
G1X0.481Y-0.35
G1X0.456Y-0.377
G1X0.43Y-0.393
G1X0.405Y-0.42
G1X0.38Y-0.448
G1X0.354Y-0.475
G1X0.329Y-0.503
G1X0.304Y-0.531
G1X0.278Y-0.557
G1X0.253Y-0.586
G1X0.237Y-0.604
G1X0.206Y-0.636
G1X0.174Y-0.667
G1X0.142Y-0.698
G1X0.111Y-0.729
G1X0.079Y-0.761
G1X0.047Y-0.792
G1X0.016Y-0.823
G1X-0.017Y-0.843
G1X-0.052Y-0.811
G1X-0.087Y-0.781
G1X-0.122Y-0.749
G1X-0.157Y-0.718
G1X-0.191Y-0.687
G1X-0.226Y-0.656
G1X-0.261Y-0.624
G1X-0.279Y-0.585
G1X-0.306Y-0.558
G1X-0.333Y-0.531
G1X-0.36Y-0.502
G1X-0.387Y-0.476
G1X-0.414Y-0.448
G1X-0.44Y-0.42
G1X-0.468Y-0.393
G1X-0.492Y-0.367
G1X-0.517Y-0.342
G1X-0.54Y-0.317
G1X-0.564Y-0.292
G1X-0.587Y-0.267
G1X-0.612Y-0.242
G1X-0.635Y-0.217
G1X-0.658Y-0.192
G1X-0.667Y-0.159
G1X-0.684Y-0.138
G1X-0.702Y-0.117
G1X-0.719Y-0.095
G1X-0.736Y-0.075
G1X-0.754Y-0.053
G1X-0.771Y-0.032
G1X-0.788Y-0.01
G1X-0.832Y0.01
G1X-0.826Y0.03
G1X-0.819Y0.049
G1X-0.813Y0.071
G1X-0.8Y0.072
G1X-0.832Y0.097
G1X-0.864Y0.123
G1X-0.895Y0.147
G1X0.059Y10.774
G1X6.166Y0.01
G1Y-7.07
G1X0.266Y-0.03
G1X0.291Y-0.01
G1X0.557
G1X0.52Y0.01
G1X0.498Y0.03
G1X0.477Y0.05
G1X0.454Y0.07
G1X0.431Y0.089
G1X0.41Y0.11
G1X0.388Y0.13
G1X0.365Y0.15
G1X0.696Y0.349
G1X0.62Y0.409
G1X0.544Y0.47
G1X0.468Y0.529
G1X0.421Y0.584
G1X0.351Y0.634
G1X0.282Y0.683
G1X0.212Y0.734
G1X0.177Y0.796
G1X0.126Y0.831
G1X0.076Y0.866
G1X0.025Y0.901
G1X-0.019Y0.794
G1X-0.056Y0.783
G1X-0.095Y0.774
G1X-0.133Y0.763
G1X-0.181Y0.737
G1X-0.237Y0.691
G1X-0.294Y0.646
G1X-0.351Y0.602
G1X-0.415Y0.549
G1X-0.484Y0.489
G1X-0.553Y0.429
G1X-0.623Y0.37
G1X-0.341Y0.168
G1X-0.365Y0.146
G1X-0.388Y0.124
G1X-0.412Y0.101
G1X-0.436Y0.078
G1X-0.459Y0.056
G1X-0.484Y0.034
G1X-0.507Y0.011
G1X-0.43Y-0.01
G1X-0.481Y-0.03
G1X-0.48Y-0.02
G1X-0.431Y-0.06
G1X-0.059Y-6.626
G1X-6.166Y-0.01
G1Y10.429
G1X1.047Y0.165
G1X1.015Y0.135
G1X0.984Y0.105
G1X0.952Y0.074
G1X0.921Y0.053
G1X0.889Y0.037
G1X0.857Y0.023
G1X0.826Y0.007
G1X0.763Y-0.011
G1X0.746Y-0.034
G1X0.728Y-0.056
G1X0.711Y-0.079
G1X0.694Y-0.101
G1X0.676Y-0.123
G1X0.659Y-0.146
G1X0.641Y-0.169
G1X0.633Y-0.192
G0X24.734Y-10.87
; Layer C00
G1X-6.209Y-0.205
G1Y-12.829
G1X6.209
G1Y9.006
G1X3.23
G1X0.868Y-1.124
G1X0.836Y-1.118
G1X0.804Y-1.113
G1X0.773Y-1.109
G1X0.757Y-1.098
G1X0.707Y-1.123
G1X0.656Y-1.148
G1X0.606Y-1.173
G1X6.512
G1X-0.319Y0.62
G1X-0.35Y0.634
G1X-0.382Y0.65
G1X-0.413Y0.664
G1X-0.833Y1.372
G1X-0.883Y1.353
G1X-0.922Y1.343
G1X-0.946Y1.264
G1X-0.473Y0.617
G1X-0.461Y0.587
G1X-0.448Y0.558
G1X-0.435Y0.529
G1X0.62Y0.24
G1X0.575Y0.266
G1X0.53Y0.292
G1X0.483Y0.317
G1X0.438Y0.344
G1X0.392Y0.37
G1X0.346Y0.396
G1X0.301Y0.421
G1X0.26Y0.441
G1X0.225Y0.453
G1X0.191Y0.465
G1X0.156Y0.478
G1X0.122Y0.49
G1X0.087Y0.502
G1X0.052Y0.515
G1X0.017Y0.527
G1X-0.013Y0.505
G1X-0.041Y0.487
G1X-0.067Y0.471
G1X-0.093Y0.452
G1X-0.121Y0.436
G1X-0.148Y0.419
G1X-0.174Y0.401
G1X-0.201Y0.384
G1X-0.214Y0.376
G1X-0.237Y0.359
G1X-0.261Y0.342
G1X-0.285Y0.325
G1X-0.308Y0.307
G1X-0.332Y0.29
G1X-0.356Y0.273
G1X-0.379Y0.255
G1X-0.821Y0.462
G1X-0.896Y0.398
G1X-0.971Y0.333
G1X-1.048Y0.269
G1X-1.117Y0.207
G1X-1.18Y0.148
G1X-1.243Y0.089
G1X-1.306Y0.03
G1X-0.394
G1X-0.426Y-0.01
G1X-0.457Y-0.012
G1X-0.489Y-0.018
G1X-1.035Y-0.049
G1X-2.196Y-0.138
G1X-1.11Y-0.129
G1X-1.023Y-0.128
G1X-0.946Y-0.148
G1X-0.059Y-8.334
G1X6.268Y-0.088
G1Y4.709
G1X0.029Y0.084
G1X0.081Y0.048
G1X0.12Y0.017
G1X0.148
G1X0.332Y-0.043
G1X0.299Y-0.027
G1X0.467Y0.029
G1X0.391Y0.01
G1X0.604Y-0.014
G1X0.573Y-0.043
G1X0.544Y-0.071
G1X0.513Y-0.099
G1X0.483Y-0.128
G1X0.454Y-0.156
G1X0.424Y-0.185
G1X0.393Y-0.212
G1X0.355Y-0.244
G1X0.308Y-0.275
G1X0.26Y-0.307
G1X0.213Y-0.34
G1X0.165Y-0.371
G1X0.119Y-0.404
G1X0.071Y-0.435
G1X0.023Y-0.468
G1X-0.022Y-0.432
G1X-0.066Y-0.408
G1X-0.11Y-0.382
G1X-0.155Y-0.358
G1X-0.199Y-0.333
G1X-0.243Y-0.309
G1X-0.287Y-0.284
G1X-0.331Y-0.259
G1X-0.381Y-0.222
G1X-0.436Y-0.193
G1X-0.491Y-0.163
G1X-0.547Y-0.133
G1X-0.602Y-0.104
G1X-0.657Y-0.074
G1X-0.712Y-0.044
G1X-0.767Y-0.015
G1X-1.363
G0X2.369Y53.457
; Layer C00
G1X-0.787Y0.04
G1X-0.754Y0.066
G1X-0.719Y0.093
G1X-0.666Y0.095
G1X-0.632Y0.108
G1X-0.597Y0.121
G1X-0.563Y0.135
G1X-0.51Y0.141
G1X-0.475Y0.141
G1X-0.442Y0.142
G1X-0.407Y0.141
G1X-0.371Y0.154
G1X-0.331Y0.146
G1X-0.293Y0.137
G1X-0.254Y0.128
G1X1.444Y3.637
G1X0.573Y-0.265
G1X0.666Y-0.265
G1X0.758Y-0.264
G1X0.851Y-0.265
G1X0.461Y-0.124
G1X0.483Y-0.108
G1X0.507Y-0.091
G1X0.529Y-0.074
G1X0.553Y-0.058
G1X0.576Y-0.042
G1X0.6Y-0.025
G1X0.622Y-0.008
G1X0.641Y0.013
G1X0.596Y0.038
G1X0.55Y0.063
G1X0.506Y0.089
G1X0.46Y0.114
G1X0.415Y0.14
G1X0.37Y0.165
G1X0.325Y0.19
G1X0.283Y0.214
G1X0.246Y0.234
G1X0.208Y0.256
G1X0.17Y0.276
G1X0.132Y0.298
G1X0.095Y0.318
G1X0.057Y0.339
G1X0.018Y0.361
G1X-0.026Y0.426
G1X-0.081Y0.395
G1X-0.134Y0.364
G1X-0.188Y0.333
G1X-0.219Y0.309
G1X-0.268Y0.291
G1X-0.317Y0.274
G1X-0.366Y0.256
G1X-0.393Y0.258
G1X-0.436Y0.245
G1X-0.481Y0.232
G1X-0.524Y0.218
G1X-0.566Y0.228
G1X-0.604Y0.223
G1X-0.644Y0.218
G1X-0.683Y0.214
G1X-1.385Y0.477
G1X-1.346Y0.512
G1X-0.627Y0.298
G1X-0.592Y0.329
G1X-0.559Y0.359
G1X-0.524Y0.391
G1X-0.466Y0.426
G1X-0.422Y0.466
G1X-0.378Y0.505
G1X-0.334Y0.545
G1X-0.256Y0.594
G1X-0.183Y0.651
G1X-0.11Y0.708
G1X-0.036Y0.766
G1X0.04Y0.807
G1X0.118Y0.762
G1X0.199Y0.717
G1X0.277Y0.672
G1X0.357Y0.626
G1X0.435Y0.581
G1X0.516Y0.536
G1X0.594Y0.49
G1X0.663Y0.447
G1X0.72Y0.387
G1X0.777Y0.328
G1X0.835Y0.268
G1X0.892Y0.209
G1X0.949Y0.149
G1X1.006Y0.089
G1X1.064Y0.03
G1X1.231Y-0.033
G1X1.159Y-0.099
G1X1.085Y-0.166
G1X1.012Y-0.232
G1X0.484Y-0.125
G1X0.457Y-0.128
G1X0.431Y-0.132
G1X0.403Y-0.136
G1X0.377Y-0.138
G1X0.35Y-0.142
G1X0.323Y-0.145
G1X0.296Y-0.148
G1X-1.521Y-3.602
G1X-0.681Y0.315
G1X-0.714Y0.276
G1X-0.749Y0.236
G1X-0.783Y0.197
G1X-0.787Y0.154
G1X-0.802Y0.111
G1X-0.817Y0.066
G1X-0.832Y0.022
G1X-0.484Y-0.012
G1X-0.457Y-0.034
G1X-0.431Y-0.058
G1X-0.403Y-0.081
G1X-0.377Y-0.105
G1X-0.35Y-0.127
